; generated by PrusaSlicer 2.9.0 on 2025-09-22 at 12:33:46 UTC

; 

; external perimeters extrusion width = 0.68mm
; perimeters extrusion width = 0.68mm
; infill extrusion width = 0.68mm
; solid infill extrusion width = 0.68mm
; top infill extrusion width = 0.60mm
; first layer extrusion width = 0.60mm

; external perimeters extrusion width = 0.68mm
; perimeters extrusion width = 0.68mm
; infill extrusion width = 0.68mm
; solid infill extrusion width = 0.68mm
; top infill extrusion width = 0.60mm
; first layer extrusion width = 0.60mm

M201 X500 Y500 Z100 E5000 ; sets maximum accelerations, mm/sec^2
M203 X500 Y500 Z10 E60 ; sets maximum feedrates, mm / sec
M204 P500 R1000 T500 ; sets acceleration (P, T) and retract acceleration (R), mm/sec^2
M205 X8.00 Y8.00 Z0.40 E5.00 ; sets the jerk limits, mm/sec
M205 S0 T0 ; sets the minimum extruding and travel feed rate, mm/sec
;TYPE:Custom
G90 ; use absolute coordinates
M83 ; extruder relative mode
M104 S200 ; set temporary nozzle temp to prevent oozing during homing and auto bed leveling
M140 S60 ; set final bed temp
G4 S30 ; allow partial nozzle warmup
G28 ; home all axis
G29 ; auto bed levelling
G1 Z50 F240
G1 X2.0 Y10 F3000
M104 S205 ; set final nozzle temp
M190 S60 ; wait for bed temp to stabilize
M109 S205 ; wait for nozzle temp to stabilize
G1 Z0.28 F240
G92 E0
G1 X2.0 Y140 E10 F1500 ; prime the nozzle
G1 X2.3 Y140 F5000
G92 E0
G1 X2.3 Y10 E10 F1200 ; prime the nozzle
G92 E0
G21 ; set units to millimeters
G90 ; use absolute coordinates
M83 ; use relative distances for extrusion
; Filament gcode
M107
;LAYER_CHANGE
;Z:0.6
;HEIGHT:0.6
G1 E-5 F3600
G1 Z.6 F4800
G1 X45.499 Y78.81
G1 Z.6
G1 E5 F2400
;TYPE:Skirt/Brim
;WIDTH:0.6
G1 F1800
G1 X99.029 Y53.849 E8.33159
G1 X101.664 Y53.264 E.38075
G1 X112.358 Y53.264 E1.50851
G1 X114.993 Y53.849 E.38075
G1 X168.524 Y78.81 E8.33172
G1 X170.34 Y80.095 E.31381
G1 X171.589 Y81.935 E.3137
G1 X172.113 Y84.097 E.3138
G1 X171.54 Y87.097 E.43083
G1 X167.858 Y94.914 E1.21888
G1 X127.709 Y162.002 E11.02874
G1 X126.244 Y163.677 E.3139
G1 X124.285 Y164.73 E.31373
G1 X122.358 Y165.036 E.27523
G1 X91.664 Y165.036 E4.32973
G1 X89.475 Y164.639 E.31382
G1 X87.565 Y163.499 E.31377
G1 X86.314 Y162.002 E.2752
G1 X46.164 Y94.914 E11.02881
G1 X42.482 Y87.097 E1.21888
G1 X41.917 Y84.945 E.31385
G1 X42.143 Y82.732 E.31379
G1 X43.131 Y80.739 E.31378
G1 X45.429 Y78.867 E.4181
G1 E-3.5 F3600
;WIPE_START
G1 F3840
G1 X45.499 Y78.81 E-.0804
G1 X46.944 Y78.136 E-1.4196
;WIPE_END
G1 X121.271 Y75.394 F4800
G1 E5 F2400
;TYPE:Perimeter
;WIDTH:0.599999
G1 F1800
G1 X121.326 Y75.282 E.0176
G1 X121.542 Y75.047 E.04502
G1 X124.439 Y73.191 E.48533
G1 X124.838 Y73.03 E.06069
G1 X125.077 Y73.007 E.03387
G1 X125.378 Y73.047 E.04283
G1 X125.57 Y73.117 E.02883
G1 X135.581 Y77.786 E1.55819
G1 X135.977 Y78.038 E.06621
G1 X136.386 Y78.456 E.08249
G1 X136.673 Y78.964 E.0823
G1 X136.816 Y79.501 E.07839
G1 X136.829 Y79.99 E.069
G1 X136.732 Y80.477 E.07005
G1 X136.58 Y80.823 E.05331
G1 X136.268 Y81.292 E.07946
G1 X136.185 Y81.384 E.01748
G1 X124.929 Y92.64 E2.24546
G1 X124.449 Y92.989 E.08371
G1 X124.076 Y93.156 E.05765
G1 X123.504 Y93.278 E.0825
G1 X122.885 Y93.222 E.08767
G1 X122.564 Y93.135 E.04691
G1 X122.08 Y92.869 E.0779
G1 X121.841 Y92.69 E.04212
G1 X121.481 Y92.248 E.08041
G1 X121.327 Y91.988 E.04263
G1 X121.161 Y91.43 E.08212
G1 X121.118 Y91.115 E.04485
G1 X121.115 Y75.955 E2.13848
G1 X121.172 Y75.594 E.05155
G1 X121.231 Y75.475 E.01874
G1 X121.231 Y75.475 F4800
G1 X121.68 Y75.615
G1 F1800
G1 X121.843 Y75.41 E.03694
G1 X124.692 Y73.589 E.47696
G1 X124.932 Y73.492 E.03652
G1 X125.256 Y73.502 E.04573
G1 X135.382 Y78.213 E1.5754
G1 X135.847 Y78.55 E.08101
G1 X136.128 Y78.916 E.06509
G1 X136.304 Y79.336 E.06424
G1 X136.366 Y79.751 E.05919
G1 X136.336 Y80.126 E.05307
G1 X136.184 Y80.566 E.06567
G1 X135.852 Y81.051 E.08291
G1 X124.596 Y92.307 E2.24546
G1 X124.186 Y92.599 E.071
G1 X123.962 Y92.698 E.03455
G1 X123.414 Y92.809 E.07887
G1 X122.882 Y92.744 E.0756
G1 X122.312 Y92.459 E.0899
G1 X122.103 Y92.279 E.03891
G1 X121.76 Y91.802 E.08288
G1 X121.615 Y91.304 E.07317
G1 X121.589 Y91.115 E.02691
G1 X121.587 Y75.955 E2.13848
G1 X121.647 Y75.697 E.03736
G1 X121.647 Y75.697 F4800
G1 X122.099 Y75.849
;TYPE:External perimeter
G1 F1800
G1 X122.121 Y75.795 E.00823
G1 X122.556 Y75.508 E.07351
G1 X124.945 Y73.986 E.39957
G1 X125.123 Y73.955 E.02549
G1 X135.183 Y78.64 E1.56541
G1 X135.489 Y78.856 E.05284
G1 X135.703 Y79.119 E.04783
G1 X135.841 Y79.426 E.04748
G1 X135.895 Y79.734 E.04411
G1 X135.88 Y80.008 E.03871
G1 X135.789 Y80.31 E.04449
G1 X135.519 Y80.718 E.06901
G1 X124.262 Y91.974 E2.24556
G1 X123.848 Y92.241 E.06949
G1 X123.403 Y92.336 E.06419
G1 X122.913 Y92.258 E.06999
G1 X122.474 Y91.989 E.07263
G1 X122.182 Y91.586 E.0702
G1 X122.06 Y91.115 E.06863
G1 X122.058 Y75.955 E2.13848
G1 X122.067 Y75.932 E.00348
G1 E-3.5 F3600
;WIPE_START
G1 F3840
G1 X122.099 Y75.849 E-.07923
G1 X122.121 Y75.795 E-.05193
G1 X122.556 Y75.508 E-.46415
G1 X123.413 Y74.962 E-.90469
;WIPE_END
G1 X151.526 Y85.462 F4800
G1 E5 F2400
;TYPE:Perimeter
G1 F1800
G1 X151.176 Y85.578 E.05201
G1 X150.899 Y85.783 E.04861
G1 X121.349 Y115.351 E5.89673
G1 X121.178 Y115.675 E.05168
G1 X121.115 Y116.055 E.05433
G1 X121.115 Y157.558 E5.85445
G1 X113.6 Y157.558 E1.06007
G1 X113.6 Y61.45 E13.55709
G1 X164.237 Y85.063 E7.88136
G1 X163.072 Y87.562 E.38894
G1 X161.906 Y90.061 E.38899
G1 X152.23 Y85.549 E1.50601
G1 X152.008 Y85.471 E.03319
G1 X151.614 Y85.453 E.05564
G1 X151.614 Y85.453 F4800
G1 X151.612 Y85.931
G1 F1800
G1 X151.506 Y85.947 E.01512
G1 X151.232 Y86.117 E.04549
G1 X121.794 Y115.555 E5.8726
G1 X121.669 Y115.724 E.02965
G1 X121.587 Y116.055 E.0481
G1 X121.587 Y158.029 E5.92089
G1 X113.129 Y158.029 E1.19309
G1 X113.129 Y60.711 E13.72777
G1 X164.863 Y84.835 E8.05207
G1 X163.499 Y87.761 E.45539
G1 X162.134 Y90.687 E.45545
G1 X152.031 Y85.976 E1.57246
G1 X151.761 Y85.91 E.03921
G1 X151.701 Y85.919 E.00856
G1 X151.701 Y85.919 F4800
G1 X151.688 Y86.388
;TYPE:External perimeter
G1 F1800
G1 X151.565 Y86.45 E.01943
G1 X122.127 Y115.888 E5.8726
G1 X122.058 Y116.055 E.02549
G1 X122.058 Y158.5 E5.98733
G1 X112.658 Y158.5 E1.32597
G1 X112.658 Y59.971 E13.89859
G1 X165.49 Y84.607 E8.22296
G1 X163.926 Y87.96 E.5219
G1 X162.362 Y91.313 E.5219
G1 X151.831 Y86.403 E1.63904
G1 X151.776 Y86.395 E.00784
G1 E-3.5 F3600
;WIPE_START
G1 F3840
G1 X151.688 Y86.388 E-.07862
G1 X151.565 Y86.45 E-.12268
G1 X150.534 Y87.481 E-1.2987
;WIPE_END
G1 X163.65 Y85.82 F4800
G1 E5 F2400
;TYPE:Solid infill
;WIDTH:0.601761
G1 F1800
G1 X162.594 Y84.764 E.21145
G1 X161.34 Y84.18 E.19586
G1 X163.277 Y86.117 E.38786
G1 X163.065 Y86.573 E.0712
G1 X160.087 Y83.595 E.5963
G1 X158.833 Y83.011 E.19586
G1 X162.852 Y87.029 E.80465
G1 X162.639 Y87.486 E.07139
G1 X157.58 Y82.426 E1.0131
G1 X156.327 Y81.842 E.19573
G1 X162.427 Y87.942 E1.22144
G1 X162.214 Y88.398 E.07126
G1 X155.073 Y81.257 E1.42989
G1 X153.82 Y80.673 E.19573
G1 X162.001 Y88.854 E1.63813
G1 X161.788 Y89.31 E.07126
G1 X152.566 Y80.088 E1.84658
G1 X151.313 Y79.504 E.19573
G1 X160.961 Y89.152 E1.93188
G1 X159.708 Y88.568 E.19573
G1 X150.06 Y78.92 E1.93188
G1 X148.806 Y78.335 E.19592
G1 X158.455 Y87.983 E1.93198
G1 X157.201 Y87.399 E.19586
G1 X147.553 Y77.751 E1.93188
G1 X146.3 Y77.166 E.19579
G1 X155.948 Y86.814 E1.93188
G1 X154.695 Y86.23 E.19573
G1 X145.046 Y76.582 E1.93198
G1 X143.793 Y75.997 E.19579
G1 X153.441 Y85.646 E1.93198
G1 X152.401 Y85.16 E.16254
G1 X152.226 Y85.099 E.02624
G1 X142.539 Y75.413 E1.93959
G1 X141.286 Y74.828 E.19579
G1 X151.49 Y85.032 E2.04321
G1 X151.221 Y85.097 E.03918
G1 X150.987 Y85.198 E.03609
G1 X140.033 Y74.244 E2.19339
G1 X138.779 Y73.659 E.19592
G1 X150.601 Y85.481 E2.36719
G1 X150.267 Y85.816 E.06698
G1 X137.526 Y73.075 E2.55121
G1 X136.272 Y72.49 E.19592
G1 X149.932 Y86.15 E2.73523
G1 X149.598 Y86.485 E.06698
G1 X135.019 Y71.906 E2.91924
G1 X133.766 Y71.321 E.19579
G1 X149.263 Y86.819 E3.10316
G1 X148.929 Y87.154 E.06698
G1 X132.512 Y70.737 E3.28728
G1 X131.259 Y70.153 E.19573
G1 X148.594 Y87.488 E3.4711
G1 X148.26 Y87.823 E.06698
G1 X130.005 Y69.568 E3.65531
G1 X128.752 Y68.984 E.19573
G1 X147.925 Y88.157 E3.83913
G1 X147.591 Y88.491 E.06688
G1 X127.499 Y68.399 E4.02315
G1 X126.245 Y67.815 E.19586
G1 X147.257 Y88.826 E4.20726
G1 X146.922 Y89.16 E.06698
G1 X137.235 Y79.473 E1.93969
G1 X137.258 Y79.605 E.01897
G1 X137.24 Y80.147 E.07678
G1 X146.588 Y89.495 E1.87181
G1 X146.253 Y89.829 E.06698
G1 X137.106 Y80.682 E1.83156
G1 X137.019 Y80.911 E.03468
G1 X136.882 Y81.127 E.03622
G1 X145.919 Y90.164 E1.80953
G1 X145.584 Y90.498 E.06698
G1 X136.616 Y81.53 E1.79572
G1 X136.293 Y81.876 E.06702
G1 X145.25 Y90.833 E1.79352
G1 X144.915 Y91.167 E.06698
G1 X135.959 Y82.21 E1.79342
G1 X135.624 Y82.545 E.06708
G1 X144.581 Y91.502 E1.79352
G1 X144.246 Y91.836 E.06698
G1 X135.29 Y82.879 E1.79342
G1 X134.955 Y83.214 E.06708
G1 X143.912 Y92.171 E1.79352
G1 X143.577 Y92.505 E.06698
G1 X134.621 Y83.548 E1.79342
G1 X134.286 Y83.883 E.06708
G1 X143.243 Y92.839 E1.79342
G1 X142.909 Y93.174 E.06698
G1 X133.952 Y84.217 E1.79352
G1 X133.617 Y84.552 E.06708
G1 X142.574 Y93.508 E1.79342
G1 X142.24 Y93.843 E.06698
G1 X133.283 Y84.886 E1.79352
G1 X132.948 Y85.22 E.06698
G1 X141.905 Y94.177 E1.79352
G1 X141.571 Y94.512 E.06698
G1 X132.614 Y85.555 E1.79352
G1 X132.279 Y85.889 E.06698
G1 X141.236 Y94.846 E1.79352
G1 X140.902 Y95.181 E.06698
G1 X131.945 Y86.224 E1.79352
G1 X131.61 Y86.558 E.06698
G1 X140.567 Y95.515 E1.79352
G1 X140.233 Y95.85 E.06698
G1 X131.276 Y86.893 E1.79352
G1 X130.942 Y87.227 E.06688
G1 X139.898 Y96.184 E1.79342
G1 X139.564 Y96.519 E.06698
G1 X130.607 Y87.562 E1.79352
G1 X130.273 Y87.896 E.06688
G1 X139.229 Y96.853 E1.79342
G1 X138.895 Y97.187 E.06688
G1 X129.938 Y88.231 E1.79342
G1 X129.604 Y88.565 E.06688
G1 X138.561 Y97.522 E1.79352
G1 X138.226 Y97.856 E.06698
G1 X129.269 Y88.9 E1.79342
G1 X128.935 Y89.234 E.06688
G1 X137.892 Y98.191 E1.79352
G1 X137.557 Y98.525 E.06698
G1 X128.6 Y89.568 E1.79352
G1 X128.266 Y89.903 E.06698
G1 X137.223 Y98.86 E1.79352
G1 X136.888 Y99.194 E.06698
G1 X127.931 Y90.237 E1.79352
G1 X127.597 Y90.572 E.06698
G1 X136.554 Y99.529 E1.79352
G1 X136.219 Y99.863 E.06698
G1 X127.262 Y90.906 E1.79352
G1 X126.928 Y91.241 E.06698
G1 X135.885 Y100.198 E1.79352
G1 X135.55 Y100.532 E.06698
G1 X126.594 Y91.575 E1.79342
G1 X126.259 Y91.91 E.06708
G1 X135.216 Y100.867 E1.79352
G1 X134.881 Y101.201 E.06698
G1 X125.925 Y92.244 E1.79342
G1 X125.59 Y92.579 E.06708
G1 X134.547 Y101.535 E1.79342
G1 X134.213 Y101.87 E.06698
G1 X125.256 Y92.913 E1.79352
G1 X125.021 Y93.115 E.04388
G1 X124.882 Y93.209 E.02376
G1 X133.878 Y102.204 E1.80123
G1 X133.544 Y102.539 E.06698
G1 X124.46 Y93.455 E1.81895
G1 X124.313 Y93.528 E.02324
G1 X123.953 Y93.617 E.05251
G1 X133.209 Y102.873 E1.85339
G1 X132.875 Y103.208 E.06698
G1 X123.131 Y93.464 E1.9511
G1 E-3.5 F3600
;WIPE_START
G1 F3840
G1 X124.322 Y94.655 E-1.5
;WIPE_END
G1 X135.08 Y77.318 F4800
G1 E5 F2400
G1 F1800
G1 X124.992 Y67.23 E2.01998
G1 X123.739 Y66.646 E.19573
G1 X133.388 Y76.295 E1.93208
G1 X132.134 Y75.71 E.19592
G1 X122.485 Y66.061 E1.93208
G1 X121.232 Y65.477 E.19573
G1 X130.881 Y75.126 E1.93208
G1 X129.627 Y74.541 E.19592
G1 X119.978 Y64.892 E1.93208
G1 X118.725 Y64.308 E.19573
G1 X128.374 Y73.957 E1.93208
G1 X127.12 Y73.372 E.19592
G1 X117.472 Y63.723 E1.93198
G1 X116.218 Y63.139 E.19586
G1 X125.867 Y72.787 E1.93198
G1 X125.419 Y72.619 E.06774
G1 X125.079 Y72.581 E.04844
G1 X125 Y72.589 E.01124
G1 X114.965 Y62.555 E2.00927
G1 X114.024 Y62.116 E.14702
G1 X114.024 Y62.283 E.02365
G1 X124.45 Y72.709 E2.08766
G1 X124.025 Y72.953 E.06939
G1 X114.024 Y62.952 E2.00256
G1 X114.024 Y63.621 E.09472
G1 X123.618 Y73.214 E1.92097
G1 X123.21 Y73.476 E.06865
G1 X114.024 Y64.29 E1.83937
G1 X114.024 Y64.959 E.09472
G1 X122.803 Y73.737 E1.75777
G1 X122.395 Y73.998 E.06858
G1 X114.024 Y65.628 E1.67608
G1 X114.024 Y66.297 E.09472
G1 X121.988 Y74.26 E1.59458
G1 X121.58 Y74.521 E.06858
G1 X114.024 Y66.966 E1.51288
G1 X114.024 Y67.634 E.09458
G1 X121.189 Y74.799 E1.43469
G1 X120.977 Y75.04 E.04545
G1 X120.897 Y75.176 E.02234
G1 X114.024 Y68.303 E1.37622
G1 X114.024 Y68.972 E.09472
G1 X120.718 Y75.666 E1.34038
G1 X120.691 Y75.947 E.03997
G1 X120.691 Y76.308 E.05111
G1 X114.024 Y69.641 E1.33497
G1 X114.024 Y70.31 E.09472
G1 X120.691 Y76.977 E1.33497
G1 X120.692 Y77.646 E.09472
G1 X114.024 Y70.979 E1.33508
G1 X114.024 Y71.648 E.09472
G1 X120.692 Y78.315 E1.33508
G1 X120.692 Y78.984 E.09472
G1 X114.024 Y72.317 E1.33508
G1 X114.024 Y72.986 E.09472
G1 X120.692 Y79.653 E1.33508
G1 X120.692 Y80.322 E.09472
G1 X114.024 Y73.655 E1.33508
G1 X114.024 Y74.324 E.09472
G1 X120.692 Y80.991 E1.33508
G1 X120.692 Y81.66 E.09472
G1 X114.024 Y74.993 E1.33508
G1 X114.024 Y75.662 E.09472
G1 X120.692 Y82.329 E1.33508
G1 X120.692 Y82.998 E.09472
G1 X114.024 Y76.33 E1.33518
G1 X114.024 Y76.999 E.09472
G1 X120.693 Y83.667 E1.33528
G1 X120.693 Y84.336 E.09472
G1 X114.024 Y77.668 E1.33528
G1 X114.024 Y78.337 E.09472
G1 X120.693 Y85.006 E1.33538
G1 X120.693 Y85.675 E.09472
G1 X114.024 Y79.006 E1.33538
G1 X114.024 Y79.675 E.09472
G1 X120.693 Y86.344 E1.33538
G1 X120.693 Y87.013 E.09472
G1 X114.024 Y80.344 E1.33538
G1 X114.024 Y81.013 E.09472
G1 X120.693 Y87.682 E1.33538
G1 X120.693 Y88.351 E.09472
G1 X114.024 Y81.682 E1.33538
G1 X114.024 Y82.351 E.09472
G1 X120.693 Y89.02 E1.33538
G1 X120.694 Y89.689 E.09472
G1 X114.024 Y83.02 E1.33548
G1 X114.024 Y83.689 E.09472
G1 X120.694 Y90.358 E1.33548
G1 X120.694 Y91.027 E.09472
G1 X114.024 Y84.358 E1.33548
G1 X114.024 Y85.026 E.09458
G1 X120.836 Y91.838 E1.36401
G1 X120.938 Y92.161 E.04796
G1 X121.14 Y92.502 E.05612
G1 X121.545 Y92.997 E.09056
G1 X121.862 Y93.233 E.05596
G1 X122.396 Y93.525 E.08617
G1 X122.583 Y93.585 E.02781
G1 X132.54 Y103.542 E1.99375
G1 X132.206 Y103.877 E.06698
G1 X114.024 Y85.695 E3.6407
G1 X114.024 Y86.364 E.09472
G1 X131.871 Y104.211 E3.57362
G1 X131.537 Y104.546 E.06698
G1 X114.024 Y87.033 E3.50674
G1 X114.024 Y87.702 E.09472
G1 X131.202 Y104.88 E3.43966
G1 X130.868 Y105.215 E.06698
G1 X114.024 Y88.371 E3.37278
G1 X114.024 Y89.04 E.09472
G1 X130.533 Y105.549 E3.3057
G1 X130.199 Y105.883 E.06688
G1 X114.024 Y89.709 E3.23872
G1 X114.024 Y90.378 E.09472
G1 X129.865 Y106.218 E3.17184
G1 X129.53 Y106.552 E.06698
G1 X114.024 Y91.047 E3.10476
G1 X114.024 Y91.716 E.09472
G1 X129.196 Y106.887 E3.03788
G1 X128.861 Y107.221 E.06698
G1 X114.024 Y92.385 E2.9708
G1 X114.024 Y93.054 E.09472
G1 X128.527 Y107.556 E2.90393
G1 X128.192 Y107.89 E.06698
G1 X114.024 Y93.722 E2.83695
G1 X114.024 Y94.391 E.09472
G1 X127.858 Y108.225 E2.77007
G1 X127.523 Y108.559 E.06698
G1 X114.024 Y95.06 E2.70299
G1 X114.024 Y95.729 E.09472
G1 X127.189 Y108.894 E2.63611
G1 X126.854 Y109.228 E.06698
G1 X114.024 Y96.398 E2.56903
G1 X114.024 Y97.067 E.09472
G1 X126.52 Y109.563 E2.50215
G1 X126.185 Y109.897 E.06698
G1 X114.024 Y97.736 E2.43507
G1 X114.024 Y98.405 E.09472
G1 X125.851 Y110.231 E2.36809
G1 X125.517 Y110.566 E.06698
G1 X114.024 Y99.074 E2.30121
G1 X114.024 Y99.743 E.09472
G1 X125.182 Y110.9 E2.23414
G1 X124.848 Y111.235 E.06698
G1 X114.024 Y100.412 E2.16726
G1 X114.024 Y101.081 E.09472
G1 X124.513 Y111.569 E2.10018
G1 X124.179 Y111.904 E.06698
G1 X114.024 Y101.75 E2.0333
G1 X114.024 Y102.418 E.09458
G1 X123.844 Y112.238 E1.96632
G1 X123.51 Y112.573 E.06698
G1 X114.024 Y103.087 E1.89944
G1 X114.024 Y103.756 E.09472
G1 X123.175 Y112.907 E1.83236
G1 X122.841 Y113.242 E.06698
G1 X114.024 Y104.425 E1.76548
G1 X114.024 Y105.094 E.09472
G1 X122.506 Y113.576 E1.6984
G1 X122.172 Y113.911 E.06698
G1 X114.024 Y105.763 E1.63152
G1 X114.024 Y106.432 E.09472
G1 X121.837 Y114.245 E1.56445
G1 X121.503 Y114.579 E.06688
G1 X114.024 Y107.101 E1.49747
G1 X114.024 Y107.77 E.09472
G1 X121.169 Y114.914 E1.43059
G1 X121.008 Y115.098 E.03462
G1 X120.882 Y115.297 E.03335
G1 X114.024 Y108.439 E1.37322
G1 X114.024 Y109.108 E.09472
G1 X120.712 Y115.795 E1.33908
G1 X120.691 Y116.047 E.0358
G1 X120.691 Y116.443 E.05607
G1 X114.024 Y109.777 E1.33487
G1 X114.024 Y110.446 E.09472
G1 X120.691 Y117.112 E1.33487
G1 X120.691 Y117.781 E.09472
