; generated by PrusaSlicer 2.9.0 on 2025-09-23 at 08:19:03 UTC

; 

; external perimeters extrusion width = 0.68mm
; perimeters extrusion width = 0.68mm
; infill extrusion width = 0.68mm
; solid infill extrusion width = 0.68mm
; top infill extrusion width = 0.60mm
; first layer extrusion width = 0.60mm

M201 X500 Y500 Z100 E5000 ; sets maximum accelerations, mm/sec^2
M203 X500 Y500 Z10 E60 ; sets maximum feedrates, mm / sec
M204 P500 R1000 T500 ; sets acceleration (P, T) and retract acceleration (R), mm/sec^2
M205 X8.00 Y8.00 Z0.40 E5.00 ; sets the jerk limits, mm/sec
M205 S0 T0 ; sets the minimum extruding and travel feed rate, mm/sec
;TYPE:Custom
G90 ; use absolute coordinates
M83 ; extruder relative mode
M104 S200 ; set temporary nozzle temp to prevent oozing during homing and auto bed leveling
M140 S60 ; set final bed temp
G4 S30 ; allow partial nozzle warmup
G28 ; home all axis
G29 ; auto bed levelling
G1 Z50 F240
G1 X2.0 Y10 F3000
M104 S205 ; set final nozzle temp
M190 S60 ; wait for bed temp to stabilize
M109 S205 ; wait for nozzle temp to stabilize
G1 Z0.28 F240
G92 E0
G1 X2.0 Y140 E10 F1500 ; prime the nozzle
G1 X2.3 Y140 F5000
G92 E0
G1 X2.3 Y10 E10 F1200 ; prime the nozzle
G92 E0
G21 ; set units to millimeters
G90 ; use absolute coordinates
M83 ; use relative distances for extrusion
; Filament gcode
M107
;LAYER_CHANGE
;Z:0.6
;HEIGHT:0.6
G1 E-5 F3600
G1 Z.6 F4800
G1 X20.992 Y37.439
G1 Z.6
G1 E5 F2400
;TYPE:Skirt/Brim
;WIDTH:0.6
G1 F1800
G1 X22.215 Y36.87 E.19028
G1 X23.534 Y36.509 E.1929
G1 X24.903 Y36.376 E.19402
G1 X195.056 Y36.363 E24.00199
G1 X196.609 Y36.526 E.22027
G1 X198.167 Y37.012 E.23022
G1 X199.506 Y37.739 E.21493
G1 X200.741 Y38.752 E.22532
G1 X201.743 Y39.96 E.22139
G1 X202.534 Y41.4 E.23176
G1 X203.013 Y42.867 E.21769
G1 X203.227 Y44.482 E.22981
G1 X203.236 Y175.937 E18.5432
G1 X203.008 Y177.671 E.24671
G1 X202.761 Y178.501 E.12216
G1 X202.384 Y179.39 E.13621
G1 X201.443 Y180.871 E.24751
G1 X200.231 Y182.101 E.24358
G1 X199.08 Y182.894 E.19717
G1 X197.87 Y183.458 E.18832
G1 X196.487 Y183.839 E.20236
G1 X195.092 Y183.973 E.19769
G1 X24.948 Y183.981 E24.00072
G1 X23.211 Y183.783 E.24661
G1 X22.377 Y183.551 E.12211
G1 X21.473 Y183.186 E.13752
G1 X19.975 Y182.268 E.24783
G1 X19.244 Y181.632 E.13668
G1 X18.641 Y180.975 E.12579
G1 X17.847 Y179.822 E.19748
G1 X17.284 Y178.616 E.18774
G1 X16.903 Y177.237 E.20181
G1 X16.768 Y175.835 E.19868
G1 X16.762 Y44.733 E18.49341
G1 X16.823 Y43.789 E.13344
G1 X16.98 Y42.882 E.12985
G1 X17.573 Y41.161 E.25677
G1 X18.518 Y39.602 E.25716
G1 X19.147 Y38.873 E.13582
G1 X19.81 Y38.258 E.12756
G1 X20.918 Y37.491 E.19009
G1 E-3.5 F3600
;WIPE_START
G1 F3840
G1 X20.992 Y37.439 E-.08055
G1 X22.215 Y36.87 E-1.20135
G1 X22.451 Y36.805 E-.2181
;WIPE_END
G1 X114.737 Y138.936 F4800
G1 E5 F2400
;TYPE:Perimeter
;WIDTH:0.599999
G1 F1800
G1 X114.706 Y138.938 E.00438
G1 X114.205 Y138.885 E.07107
G1 X113.697 Y138.731 E.07488
G1 X113.25 Y138.498 E.07111
G1 X112.846 Y138.178 E.0727
G1 X112.494 Y137.772 E.0758
G1 X112.214 Y137.277 E.08022
G1 X112.047 Y136.764 E.0761
G1 X111.983 Y136.239 E.07461
G1 X111.981 Y104.559 E4.46881
G1 X112.059 Y104.004 E.07906
G1 X112.24 Y103.493 E.07647
G1 X112.521 Y103.025 E.077
G1 X112.86 Y102.642 E.07215
G1 X113.289 Y102.315 E.07609
G1 X113.745 Y102.086 E.07198
G1 X114.227 Y101.946 E.0708
G1 X114.736 Y101.897 E.07213
G1 X115.243 Y101.942 E.0718
G1 X115.738 Y102.08 E.07249
G1 X116.2 Y102.31 E.0728
G1 X116.654 Y102.659 E.08078
G1 X117.03 Y103.098 E.08153
G1 X117.291 Y103.568 E.07584
G1 X117.454 Y104.073 E.07485
G1 X117.518 Y104.597 E.07447
G1 X117.519 Y136.278 E4.46895
G1 X117.436 Y136.856 E.08237
G1 X117.263 Y137.335 E.07184
G1 X116.993 Y137.795 E.07524
G1 X116.635 Y138.198 E.07604
G1 X116.202 Y138.527 E.07671
G1 X115.746 Y138.754 E.07185
G1 X115.213 Y138.898 E.07788
G1 X114.827 Y138.929 E.05462
G1 X114.827 Y138.929 F4800
G1 X114.745 Y138.466
;TYPE:External perimeter
G1 F1800
G1 X114.728 Y138.467 E.0024
G1 X114.29 Y138.421 E.06212
G1 X113.869 Y138.291 E.06215
G1 X113.478 Y138.083 E.06247
G1 X113.109 Y137.778 E.06753
G1 X112.831 Y137.433 E.0625
G1 X112.612 Y137.011 E.06707
G1 X112.49 Y136.585 E.06251
G1 X112.451 Y136.171 E.05866
G1 X112.452 Y104.559 E4.45922
G1 X112.524 Y104.09 E.06693
G1 X112.674 Y103.678 E.06185
G1 X112.879 Y103.331 E.05685
G1 X113.169 Y102.999 E.06218
G1 X113.516 Y102.728 E.06211
G1 X113.909 Y102.528 E.0622
G1 X114.369 Y102.403 E.06724
G1 X114.769 Y102.369 E.05663
G1 X115.21 Y102.415 E.06255
G1 X115.632 Y102.545 E.06229
G1 X116.023 Y102.753 E.06247
G1 X116.393 Y103.06 E.06782
G1 X116.69 Y103.434 E.06737
G1 X116.89 Y103.828 E.06233
G1 X117.011 Y104.251 E.06206
G1 X117.05 Y104.665 E.05866
G1 X117.048 Y136.278 E4.45936
G1 X116.977 Y136.744 E.06649
G1 X116.842 Y137.124 E.05689
G1 X116.621 Y137.505 E.06213
G1 X116.332 Y137.838 E.0622
G1 X115.984 Y138.109 E.06222
G1 X115.591 Y138.308 E.06214
G1 X115.168 Y138.429 E.06206
G1 X114.835 Y138.458 E.04715
G1 E-3.5 F3600
;WIPE_START
G1 F3840
G1 X114.745 Y138.466 E-.08047
G1 X114.728 Y138.467 E-.01517
G1 X114.29 Y138.421 E-.39224
G1 X113.869 Y138.291 E-.39242
G1 X113.478 Y138.083 E-.39444
G1 X113.283 Y137.922 E-.22526
;WIPE_END
G1 X113.016 Y138.246 F4800
G1 X113.047 Y138.272
G1 X113.084 Y138.301
G1 X113.122 Y138.33
G1 X113.16 Y138.358
G1 X113.198 Y138.386
G1 X113.237 Y138.412
G1 X113.277 Y138.438
G1 X113.317 Y138.464
G1 X113.357 Y138.489
G1 X113.398 Y138.512
G1 X113.439 Y138.536
G1 X113.48 Y138.558
G1 X113.522 Y138.58
G1 X113.564 Y138.601
G1 X113.607 Y138.622
G1 X113.65 Y138.641
G1 X113.693 Y138.66
G1 X113.737 Y138.678
G1 X113.781 Y138.695
G1 X113.825 Y138.712
G1 X113.87 Y138.728
G1 X113.915 Y138.743
G1 X113.96 Y138.757
G1 X114.005 Y138.77
G1 X114.051 Y138.783
G1 X114.096 Y138.795
G1 X114.142 Y138.806
G1 X114.188 Y138.816
G1 X114.235 Y138.825
G1 X114.281 Y138.834
G1 X114.328 Y138.842
G1 X114.374 Y138.849
G1 X114.421 Y138.855
G1 X114.468 Y138.86
G1 X114.515 Y138.865
G1 X114.562 Y138.869
G1 X114.609 Y138.871
G1 X114.657 Y138.873
G1 X114.704 Y138.875
G1 X114.751 Y138.875
G1 X114.798 Y138.875
G1 X114.845 Y138.873
G1 X114.893 Y138.871
G1 X114.94 Y138.868
G1 X114.987 Y138.865
G1 X115.034 Y138.86
G1 X115.081 Y138.855
G1 X115.128 Y138.849
G1 X115.174 Y138.842
G1 X115.221 Y138.834
G1 X115.267 Y138.825
G1 X115.314 Y138.816
G1 X115.36 Y138.806
G1 X115.406 Y138.795
G1 X115.452 Y138.783
G1 X115.497 Y138.77
G1 X115.543 Y138.757
G1 X115.588 Y138.743
G1 X115.632 Y138.728
G1 X115.677 Y138.712
G1 X115.721 Y138.695
G1 X115.765 Y138.678
G1 X115.809 Y138.66
G1 X115.852 Y138.641
G1 X115.895 Y138.621
G1 X115.938 Y138.601
G1 X115.98 Y138.58
G1 X116.022 Y138.558
G1 X116.063 Y138.536
G1 X116.104 Y138.512
G1 X116.145 Y138.488
G1 X116.186 Y138.464
G1 X116.225 Y138.438
G1 X116.265 Y138.412
G1 X116.304 Y138.385
G1 X116.342 Y138.358
G1 X116.38 Y138.33
G1 X116.418 Y138.301
G1 X116.455 Y138.272
G1 X116.466 Y138.263
G1 X122.737 Y138.875
G1 X122.737 Y138.933
G1 E5 F2400
;TYPE:Perimeter
G1 F1800
G1 X122.289 Y138.898 E.06339
G1 X121.777 Y138.76 E.0748
G1 X121.3 Y138.526 E.07495
G1 X120.846 Y138.177 E.08078
G1 X120.494 Y137.772 E.07569
G1 X120.229 Y137.312 E.07489
G1 X120.057 Y136.809 E.07499
G1 X119.98 Y136.171 E.09065
G1 X119.981 Y104.558 E4.45936
G1 X120.059 Y104.004 E.07892
G1 X120.237 Y103.499 E.07553
G1 X120.446 Y103.13 E.05982
G1 X120.778 Y102.724 E.07398
G1 X121.185 Y102.383 E.0749
G1 X121.65 Y102.127 E.07488
G1 X122.155 Y101.963 E.0749
G1 X122.679 Y101.9 E.07445
G1 X123.211 Y101.937 E.07523
G1 X123.724 Y102.076 E.07497
G1 X124.2 Y102.309 E.07476
G1 X124.654 Y102.658 E.08078
G1 X125.007 Y103.064 E.07589
G1 X125.287 Y103.559 E.08022
G1 X125.454 Y104.072 E.0761
G1 X125.518 Y104.597 E.07461
G1 X125.519 Y136.277 E4.46881
G1 X125.442 Y136.832 E.07904
G1 X125.261 Y137.344 E.0766
G1 X125.004 Y137.781 E.07151
G1 X124.655 Y138.182 E.07499
G1 X124.259 Y138.493 E.07103
G1 X123.806 Y138.73 E.07212
G1 X123.304 Y138.883 E.07403
G1 X122.826 Y138.935 E.06782
G1 X122.826 Y138.935 F4800
G1 X122.745 Y138.466
;TYPE:External perimeter
G1 F1800
G1 X122.728 Y138.467 E.0024
G1 X122.29 Y138.42 E.06214
G1 X121.869 Y138.291 E.06211
G1 X121.478 Y138.082 E.06254
G1 X121.109 Y137.778 E.06744
G1 X120.832 Y137.435 E.06219
G1 X120.626 Y137.045 E.06222
G1 X120.497 Y136.621 E.06252
G1 X120.451 Y136.171 E.06381
G1 X120.452 Y104.558 E4.45936
G1 X120.524 Y104.09 E.06679
G1 X120.763 Y103.523 E.0868
G1 X120.854 Y103.366 E.0256
G1 X121.169 Y102.998 E.06833
G1 X121.516 Y102.727 E.06211
G1 X121.909 Y102.528 E.06214
G1 X122.333 Y102.407 E.0622
G1 X122.769 Y102.369 E.06174
G1 X123.21 Y102.415 E.06255
G1 X123.632 Y102.544 E.06225
G1 X124.023 Y102.753 E.06254
G1 X124.391 Y103.058 E.06742
G1 X124.669 Y103.403 E.0625
G1 X124.889 Y103.824 E.06701
G1 X125.011 Y104.251 E.06264
G1 X125.05 Y104.665 E.05866
G1 X125.048 Y136.277 E4.45922
G1 X124.976 Y136.746 E.06693
G1 X124.825 Y137.16 E.06216
G1 X124.598 Y137.537 E.06208
G1 X124.306 Y137.861 E.06153
G1 X123.984 Y138.108 E.05725
G1 X123.591 Y138.308 E.0622
G1 X123.168 Y138.429 E.06206
G1 X122.835 Y138.458 E.04715
G1 E-3.5 F3600
;WIPE_START
G1 F3840
G1 X122.745 Y138.466 E-.08047
G1 X122.728 Y138.467 E-.01517
G1 X122.29 Y138.42 E-.39233
G1 X121.869 Y138.291 E-.39216
G1 X121.478 Y138.082 E-.39486
G1 X121.283 Y137.921 E-.22501
;WIPE_END
G1 X121.016 Y138.245 F4800
G1 X121.047 Y138.272
G1 X121.084 Y138.301
G1 X121.122 Y138.33
G1 X121.16 Y138.358
G1 X121.198 Y138.385
G1 X121.237 Y138.412
G1 X121.277 Y138.438
G1 X121.316 Y138.463
G1 X121.357 Y138.488
G1 X121.398 Y138.512
G1 X121.439 Y138.535
G1 X121.48 Y138.558
G1 X121.522 Y138.58
G1 X121.564 Y138.601
G1 X121.607 Y138.621
G1 X121.65 Y138.641
G1 X121.693 Y138.66
G1 X121.737 Y138.678
G1 X121.781 Y138.695
G1 X121.825 Y138.712
G1 X121.87 Y138.727
G1 X121.915 Y138.742
G1 X121.96 Y138.757
G1 X122.005 Y138.77
G1 X122.051 Y138.783
G1 X122.096 Y138.794
G1 X122.142 Y138.805
G1 X122.188 Y138.816
G1 X122.235 Y138.825
G1 X122.281 Y138.834
G1 X122.328 Y138.841
G1 X122.374 Y138.848
G1 X122.421 Y138.855
G1 X122.468 Y138.86
G1 X122.515 Y138.864
G1 X122.562 Y138.868
G1 X122.609 Y138.871
G1 X122.657 Y138.873
G1 X122.704 Y138.874
G1 X122.751 Y138.875
G1 X122.798 Y138.874
G1 X122.845 Y138.873
G1 X122.893 Y138.871
G1 X122.94 Y138.868
G1 X122.987 Y138.864
G1 X123.034 Y138.86
G1 X123.081 Y138.855
G1 X123.128 Y138.848
G1 X123.175 Y138.841
G1 X123.221 Y138.834
G1 X123.268 Y138.825
G1 X123.314 Y138.816
G1 X123.36 Y138.805
G1 X123.406 Y138.794
G1 X123.452 Y138.783
G1 X123.497 Y138.77
G1 X123.542 Y138.756
G1 X123.588 Y138.742
G1 X123.632 Y138.727
G1 X123.677 Y138.711
G1 X123.721 Y138.695
G1 X123.765 Y138.678
G1 X123.809 Y138.66
G1 X123.852 Y138.641
G1 X123.895 Y138.621
G1 X123.938 Y138.601
G1 X123.98 Y138.58
G1 X124.022 Y138.558
G1 X124.063 Y138.535
G1 X124.104 Y138.512
G1 X124.145 Y138.488
G1 X124.186 Y138.463
G1 X124.225 Y138.438
G1 X124.265 Y138.412
G1 X124.304 Y138.385
G1 X124.342 Y138.358
G1 X124.38 Y138.33
G1 X124.418 Y138.301
G1 X124.455 Y138.271
G1 X124.464 Y138.263
G1 X130.738 Y138.874
G1 X130.737 Y138.939
G1 E5 F2400
;TYPE:Perimeter
G1 F1800
G1 X130.735 Y138.939 E.00028
G1 X130.226 Y138.887 E.07217
G1 X129.732 Y138.742 E.07262
G1 X129.259 Y138.5 E.07495
G1 X128.841 Y138.173 E.07486
G1 X128.494 Y137.772 E.0748
G1 X128.214 Y137.276 E.08034
G1 X128.047 Y136.763 E.0761
G1 X127.983 Y136.238 E.07461
G1 X127.981 Y104.558 E4.46881
G1 X128.059 Y104.003 E.07906
G1 X128.248 Y103.479 E.07858
G1 X128.507 Y103.041 E.07178
G1 X128.865 Y102.637 E.07614
G1 X129.299 Y102.309 E.07674
G1 X129.761 Y102.08 E.07274
G1 X130.246 Y101.942 E.07113
G1 X130.757 Y101.896 E.07237
G1 X131.286 Y101.948 E.07498
G1 X131.77 Y102.091 E.07119
G1 X132.251 Y102.338 E.07627
G1 X132.654 Y102.658 E.07259
G1 X133.03 Y103.098 E.08164
G1 X133.291 Y103.568 E.07584
G1 X133.462 Y104.114 E.08071
G1 X133.519 Y104.646 E.07547
G1 X133.519 Y136.277 E4.4619
G1 X133.436 Y136.855 E.08237
G1 X133.254 Y137.358 E.07546
G1 X132.978 Y137.816 E.07543
G1 X132.619 Y138.214 E.07561
G1 X132.185 Y138.538 E.0764
G1 X131.729 Y138.76 E.07154
G1 X131.236 Y138.896 E.07214
G1 X130.827 Y138.931 E.0579
G1 X130.745 Y138.465 F4800
;TYPE:External perimeter
G1 F1800
G1 X130.726 Y138.466 E.00268
G1 X130.251 Y138.412 E.06744
G1 X129.832 Y138.275 E.06218
G1 X129.447 Y138.061 E.06213
G1 X129.109 Y137.777 E.06227
G1 X128.831 Y137.433 E.06239
G1 X128.612 Y137.011 E.06707
G1 X128.49 Y136.584 E.06264
G1 X128.451 Y136.171 E.05852
G1 X128.452 Y104.558 E4.45936
G1 X128.523 Y104.092 E.06649
G1 X128.658 Y103.711 E.05702
G1 X128.879 Y103.33 E.06213
G1 X129.169 Y102.998 E.06218
G1 X129.516 Y102.727 E.06211
G1 X129.909 Y102.527 E.0622
G1 X130.333 Y102.406 E.0622
G1 X130.769 Y102.368 E.06174
G1 X131.21 Y102.415 E.06256
G1 X131.632 Y102.544 E.06225
G1 X132.023 Y102.753 E.06254
G1 X132.393 Y103.059 E.06773
G1 X132.69 Y103.434 E.06748
G1 X132.89 Y103.829 E.06245
G1 X133.027 Y104.404 E.08338
G1 X133.05 Y104.701 E.04202
G1 X133.048 Y136.277 E4.45414
G1 X132.976 Y136.745 E.06679
G1 X132.825 Y137.159 E.06216
G1 X132.598 Y137.537 E.0622
G1 X132.303 Y137.864 E.06212
G1 X131.95 Y138.129 E.06226
G1 X131.554 Y138.322 E.06214
G1 X131.13 Y138.435 E.0619
G1 X130.835 Y138.458 E.04174
G1 E-3.5 F3600
;WIPE_START
G1 F3840
G1 X130.745 Y138.465 E-.0804
G1 X130.726 Y138.466 E-.01695
G1 X130.251 Y138.412 E-.42577
G1 X129.832 Y138.275 E-.39261
G1 X129.447 Y138.061 E-.3923
G1 X129.282 Y137.922 E-.19197
;WIPE_END
G1 X129.016 Y138.245 F4800
G1 X129.047 Y138.271
G1 X129.084 Y138.301
G1 X129.122 Y138.329
G1 X129.16 Y138.358
G1 X129.198 Y138.385
G1 X129.237 Y138.412
G1 X129.277 Y138.438
G1 X129.317 Y138.463
G1 X129.357 Y138.488
G1 X129.397 Y138.512
G1 X129.439 Y138.535
G1 X129.48 Y138.558
G1 X129.522 Y138.579
G1 X129.564 Y138.601
G1 X129.607 Y138.621
G1 X129.65 Y138.64
G1 X129.693 Y138.659
G1 X129.737 Y138.677
G1 X129.781 Y138.695
G1 X129.825 Y138.711
G1 X129.87 Y138.727
G1 X129.914 Y138.742
G1 X129.96 Y138.756
G1 X130.005 Y138.77
G1 X130.051 Y138.782
G1 X130.096 Y138.794
G1 X130.142 Y138.805
G1 X130.188 Y138.815
G1 X130.235 Y138.825
G1 X130.281 Y138.833
G1 X130.328 Y138.841
G1 X130.374 Y138.848
G1 X130.421 Y138.854
G1 X130.468 Y138.86
G1 X130.515 Y138.864
G1 X130.562 Y138.868
G1 X130.609 Y138.871
G1 X130.657 Y138.873
G1 X130.704 Y138.874
G1 X130.751 Y138.874
G1 X130.798 Y138.874
G1 X130.845 Y138.873
G1 X130.893 Y138.871
G1 X130.94 Y138.868
G1 X130.987 Y138.864
G1 X131.034 Y138.86
G1 X131.081 Y138.854
G1 X131.128 Y138.848
G1 X131.174 Y138.841
G1 X131.221 Y138.833
G1 X131.268 Y138.825
G1 X131.314 Y138.815
G1 X131.36 Y138.805
G1 X131.406 Y138.794
G1 X131.452 Y138.782
G1 X131.497 Y138.77
G1 X131.543 Y138.756
G1 X131.588 Y138.742
G1 X131.632 Y138.727
G1 X131.677 Y138.711
G1 X131.721 Y138.695
G1 X131.765 Y138.677
G1 X131.809 Y138.659
G1 X131.852 Y138.64
G1 X131.895 Y138.621
G1 X131.938 Y138.6
G1 X131.98 Y138.579
G1 X132.022 Y138.558
G1 X132.063 Y138.535
G1 X132.104 Y138.512
G1 X132.145 Y138.488
G1 X132.185 Y138.463
G1 X132.225 Y138.438
G1 X132.265 Y138.412
G1 X132.304 Y138.385
G1 X132.342 Y138.357
G1 X132.38 Y138.329
G1 X132.418 Y138.301
G1 X132.455 Y138.271
G1 X132.466 Y138.262
G1 X138.738 Y138.874
G1 X138.737 Y138.932
G1 E5 F2400
;TYPE:Perimeter
G1 F1800
G1 X138.683 Y138.935 E.00763
G1 X138.156 Y138.872 E.07487
G1 X137.664 Y138.715 E.07285
G1 X137.174 Y138.446 E.07885
G1 X136.771 Y138.106 E.07438
G1 X136.44 Y137.696 E.07433
G1 X136.192 Y137.23 E.07446
G1 X136.036 Y136.725 E.07456
G1 X135.981 Y136.209 E.0732
G1 X135.989 Y104.453 E4.47953
G1 X136.078 Y103.938 E.07372
G1 X136.248 Y103.479 E.06905
G1 X136.521 Y103.024 E.07485
G1 X136.865 Y102.637 E.07304
G1 X137.299 Y102.309 E.07674
G1 X137.756 Y102.081 E.07204
G1 X138.287 Y101.937 E.07761
G1 X138.814 Y101.899 E.07453
G1 X139.344 Y101.963 E.07531
G1 X139.847 Y102.124 E.0745
G1 X140.314 Y102.382 E.07526
G1 X140.742 Y102.743 E.07898
G1 X141.057 Y103.133 E.07072
G1 X141.327 Y103.648 E.08202
G1 X141.476 Y104.171 E.07671
G1 X141.521 Y104.701 E.07503
G1 X141.519 Y136.276 E4.454
G1 X141.436 Y136.855 E.08251
G1 X141.254 Y137.357 E.07532
G1 X140.978 Y137.816 E.07555
G1 X140.639 Y138.196 E.07183
G1 X140.212 Y138.522 E.07578
G1 X139.742 Y138.755 E.074
G1 X139.231 Y138.897 E.07481
