; generated by PrusaSlicer 2.9.0 on 2025-09-22 at 14:28:30 UTC

; 

; external perimeters extrusion width = 0.68mm
; perimeters extrusion width = 0.68mm
; infill extrusion width = 0.68mm
; solid infill extrusion width = 0.68mm
; top infill extrusion width = 0.60mm
; first layer extrusion width = 0.60mm

M201 X500 Y500 Z100 E5000 ; sets maximum accelerations, mm/sec^2
M203 X500 Y500 Z10 E60 ; sets maximum feedrates, mm / sec
M204 P500 R1000 T500 ; sets acceleration (P, T) and retract acceleration (R), mm/sec^2
M205 X8.00 Y8.00 Z0.40 E5.00 ; sets the jerk limits, mm/sec
M205 S0 T0 ; sets the minimum extruding and travel feed rate, mm/sec
;TYPE:Custom
G90 ; use absolute coordinates
M83 ; extruder relative mode
M104 S200 ; set temporary nozzle temp to prevent oozing during homing and auto bed leveling
M140 S60 ; set final bed temp
G4 S30 ; allow partial nozzle warmup
G28 ; home all axis
G29 ; auto bed levelling
G1 Z50 F240
G1 X2.0 Y10 F3000
M104 S205 ; set final nozzle temp
M190 S60 ; wait for bed temp to stabilize
M109 S205 ; wait for nozzle temp to stabilize
G1 Z0.28 F240
G92 E0
G1 X2.0 Y140 E10 F1500 ; prime the nozzle
G1 X2.3 Y140 F5000
G92 E0
G1 X2.3 Y10 E10 F1200 ; prime the nozzle
G92 E0
G21 ; set units to millimeters
G90 ; use absolute coordinates
M83 ; use relative distances for extrusion
; Filament gcode
M107
;LAYER_CHANGE
;Z:0.6
;HEIGHT:0.6
G1 E-5 F3600
G1 Z.6 F4800
G1 X21.047 Y36.273
G1 Z.6
G1 E5 F2400
;TYPE:Skirt/Brim
;WIDTH:0.6
G1 F1800
G1 X22.322 Y35.651 E.20011
G1 X23.618 Y35.289 E.18981
G1 X25.009 Y35.152 E.19717
G1 X194.927 Y35.151 E23.96884
G1 X196.382 Y35.289 E.20617
G1 X197.832 Y35.711 E.21303
G1 X199.131 Y36.384 E.20637
G1 X200.185 Y37.215 E.18933
G1 X201.162 Y38.348 E.21104
G1 X201.883 Y39.632 E.20772
G1 X202.329 Y40.977 E.19989
G1 X202.531 Y42.528 E.22063
G1 X202.534 Y182.321 E19.71937
G1 X202.341 Y183.927 E.22817
G1 X201.847 Y185.406 E.21996
G1 X201.069 Y186.739 E.21772
G1 X199.994 Y187.918 E.22507
G1 X198.933 Y188.698 E.18576
G1 X197.645 Y189.32 E.20176
G1 X196.332 Y189.678 E.19197
G1 X195.006 Y189.806 E.18792
G1 X25.105 Y189.807 E23.96645
G1 X23.501 Y189.646 E.2274
G1 X21.95 Y189.156 E.22944
G1 X20.514 Y188.328 E.23382
G1 X19.357 Y187.269 E.22125
G1 X18.585 Y186.223 E.18339
G1 X17.964 Y184.95 E.1998
G1 X17.603 Y183.655 E.18964
G1 X17.465 Y182.262 E.19746
G1 X17.464 Y42.801 E19.67254
G1 X17.631 Y41.159 E.23282
G1 X18.117 Y39.632 E.22605
G1 X18.945 Y38.199 E.23346
G1 X20.003 Y37.043 E.22105
G1 X20.974 Y36.326 E.17027
G1 E-3.5 F3600
;WIPE_START
G1 F3840
G1 X21.047 Y36.273 E-.08034
G1 X22.322 Y35.651 E-1.26347
G1 X22.491 Y35.604 E-.15619
;WIPE_END
G1 X110 Y153.129 F4800
G1 E5 F2400
;TYPE:Perimeter
;WIDTH:0.599999
G1 F1800
G1 X29.236 Y153.129 E11.39265
G1 X28.854 Y153.065 E.05464
G1 X28.638 Y152.966 E.03352
G1 X28.423 Y152.804 E.03797
G1 X28.235 Y152.573 E.04201
G1 X28.075 Y152.154 E.06327
G1 X28.058 Y151.951 E.02874
G1 X28.058 Y56.422 E13.47541
G1 X28.105 Y56.092 E.04702
G1 X28.235 Y55.8 E.04509
G1 X28.423 Y55.569 E.04201
G1 X28.638 Y55.407 E.03797
G1 X29.055 Y55.258 E.06246
G1 X29.236 Y55.244 E.02561
G1 X190.764 Y55.244 E22.78529
G1 X191.146 Y55.308 E.05464
G1 X191.363 Y55.407 E.03365
G1 X191.577 Y55.569 E.03786
G1 X191.765 Y55.8 E.04201
G1 X191.895 Y56.092 E.04509
G1 X191.942 Y56.422 E.04702
G1 X191.942 Y151.951 E13.47541
G1 X191.895 Y152.281 E.04702
G1 X191.765 Y152.573 E.04509
G1 X191.577 Y152.804 E.04201
G1 X191.362 Y152.966 E.03797
G1 X190.945 Y153.115 E.06246
G1 X190.764 Y153.129 E.02561
G1 X110.09 Y153.129 E11.37995
G1 X110 Y152.658 F4800
G1 F1800
G1 X29.236 Y152.658 E11.39265
G1 X29.006 Y152.619 E.03291
G1 X28.748 Y152.463 E.04253
G1 X28.557 Y152.149 E.05184
G1 X28.529 Y151.951 E.02821
G1 X28.529 Y56.422 E13.47541
G1 X28.557 Y56.224 E.02821
G1 X28.748 Y55.91 E.05184
G1 X29.006 Y55.753 E.0426
G1 X29.236 Y55.715 E.03288
G1 X190.764 Y55.715 E22.78529
G1 X190.994 Y55.753 E.03288
G1 X191.252 Y55.91 E.0426
G1 X191.443 Y56.224 E.05184
G1 X191.471 Y56.422 E.02821
G1 X191.471 Y151.951 E13.47541
G1 X191.443 Y152.149 E.02821
G1 X191.365 Y152.324 E.02703
G1 X191.123 Y152.56 E.04768
G1 X190.872 Y152.649 E.03757
G1 X190.764 Y152.658 E.01529
G1 X110.09 Y152.658 E11.37995
G1 X110.09 Y152.658 F4800
G1 X110 Y152.186
;TYPE:External perimeter
G1 F1800
G1 X29.236 Y152.186 E11.39265
G1 X29.073 Y152.121 E.02475
G1 X29 Y151.951 E.0261
G1 X29 Y56.422 E13.47541
G1 X29.073 Y56.251 E.02623
G1 X29.236 Y56.186 E.02475
G1 X190.764 Y56.186 E22.78529
G1 X190.927 Y56.251 E.02475
G1 X191 Y56.422 E.02623
G1 X191 Y151.951 E13.47541
G1 X190.964 Y152.075 E.01821
G1 X190.841 Y152.174 E.02227
G1 X190.764 Y152.186 E.01099
G1 X110.09 Y152.186 E11.37995
G1 E-3.5 F3600
;WIPE_START
G1 F3840
G1 X110 Y152.186 E-.08016
G1 X108.406 Y152.186 E-1.41984
;WIPE_END
G1 X108.406 Y152.593 F4800
G1 X110 Y182.865
G1 X110 Y182.329
G1 E5 F2400
;TYPE:Perimeter
G1 F1800
G1 X25.225 Y182.329 E11.95844
G1 X25.006 Y182.314 E.03096
G1 X24.942 Y182.068 E.03586
G1 X24.942 Y42.911 E19.62962
G1 X24.958 Y42.691 E.03112
G1 X25.204 Y42.629 E.03579
G1 X194.774 Y42.629 E23.91971
G1 X194.995 Y42.642 E.03123
G1 X195.057 Y42.912 E.03908
G1 X195.058 Y182.049 E19.6268
G1 X195.043 Y182.267 E.03082
G1 X194.797 Y182.329 E.03579
G1 X110.09 Y182.329 E11.94885
G1 X110.09 Y182.329 F4800
G1 X110 Y182.8
G1 F1800
G1 X25.225 Y182.8 E11.95844
G1 X24.964 Y182.784 E.03689
G1 X24.68 Y182.686 E.04238
G1 X24.565 Y182.527 E.02768
G1 X24.471 Y182.103 E.06126
G1 X24.471 Y42.911 E19.63456
G1 X24.486 Y42.659 E.03561
G1 X24.578 Y42.381 E.04131
G1 X24.745 Y42.251 E.02985
G1 X25.169 Y42.158 E.06123
G1 X194.774 Y42.158 E23.92464
G1 X195.031 Y42.172 E.03631
G1 X195.303 Y42.259 E.04028
G1 X195.442 Y42.413 E.02926
G1 X195.529 Y42.912 E.07145
G1 X195.529 Y182.049 E19.6268
G1 X195.513 Y182.304 E.03604
G1 X195.425 Y182.571 E.03966
G1 X195.252 Y182.708 E.03113
G1 X194.832 Y182.8 E.06065
G1 X110.09 Y182.8 E11.95379
G1 X110.09 Y182.8 F4800
G1 X110 Y183.272
;TYPE:External perimeter
G1 F1800
G1 X25.225 Y183.272 E11.95844
G1 X24.825 Y183.245 E.05655
G1 X24.506 Y183.129 E.04788
G1 X24.247 Y182.928 E.04625
G1 X24.069 Y182.602 E.05239
G1 X24 Y182.138 E.06617
G1 X24 Y42.911 E19.63949
G1 X24.025 Y42.52 E.05527
G1 X24.146 Y42.188 E.04985
G1 X24.343 Y41.933 E.04545
G1 X24.668 Y41.756 E.0522
G1 X25.134 Y41.686 E.06647
G1 X194.774 Y41.686 E23.92958
G1 X195.156 Y41.71 E.05399
G1 X195.557 Y41.859 E.06034
G1 X195.828 Y42.129 E.05396
G1 X195.933 Y42.416 E.04311
G1 X196 Y42.912 E.0706
G1 X196 Y182.049 E19.6268
G1 X195.974 Y182.442 E.05556
G1 X195.857 Y182.765 E.04846
G1 X195.656 Y183.025 E.04636
G1 X195.325 Y183.204 E.05308
G1 X194.866 Y183.272 E.06545
G1 X110.09 Y183.272 E11.95858
G1 E-3.5 F3600
;WIPE_START
G1 F3840
G1 X110 Y183.272 E-.08016
G1 X108.406 Y183.272 E-1.41984
;WIPE_END
G1 X108.654 Y182.865 F4800
G1 X195.593 Y173.813
G1 X194.709 Y42.093
G1 X193.891 Y42.093
G1 X193.891 Y42.841
G1 E5 F2400
;TYPE:Solid infill
;WIDTH:0.600758
G1 F1800
G1 X194.633 Y43.583 E.14826
G1 X194.633 Y44.251 E.09438
G1 X193.436 Y43.053 E.23927
G1 X192.768 Y43.053 E.09438
G1 X194.633 Y44.918 E.37265
G1 X194.633 Y45.586 E.09438
G1 X192.101 Y43.053 E.50602
G1 X191.433 Y43.053 E.09438
G1 X194.633 Y46.253 E.6394
G1 X194.633 Y46.921 E.09438
G1 X190.766 Y43.053 E.77277
G1 X190.098 Y43.053 E.09438
G1 X194.633 Y47.588 E.90615
G1 X194.633 Y48.256 E.09438
G1 X189.431 Y43.053 E1.03952
G1 X188.763 Y43.053 E.09438
G1 X194.633 Y48.923 E1.17289
G1 X194.633 Y49.591 E.09438
G1 X188.096 Y43.053 E1.30627
G1 X187.428 Y43.053 E.09438
G1 X194.633 Y50.258 E1.43964
G1 X194.633 Y50.926 E.09438
G1 X186.761 Y43.053 E1.57302
G1 X186.093 Y43.053 E.09438
G1 X194.633 Y51.593 E1.70639
G1 X194.633 Y52.261 E.09438
G1 X185.426 Y43.053 E1.83977
G1 X184.758 Y43.053 E.09438
G1 X194.633 Y52.928 E1.97314
G1 X194.633 Y53.596 E.09438
G1 X184.091 Y43.053 E2.10651
G1 X183.423 Y43.053 E.09438
G1 X194.633 Y54.263 E2.23989
G1 X194.633 Y54.931 E.09438
G1 X182.756 Y43.053 E2.37326
G1 X182.088 Y43.053 E.09438
G1 X194.633 Y55.598 E2.50664
G1 X194.633 Y56.266 E.09438
G1 X181.421 Y43.053 E2.64001
G1 X180.753 Y43.053 E.09438
G1 X194.633 Y56.933 E2.77339
G1 X194.633 Y57.601 E.09438
G1 X180.086 Y43.053 E2.90676
G1 X179.419 Y43.053 E.09424
G1 X194.633 Y58.268 E3.04003
G1 X194.633 Y58.936 E.09438
G1 X192.367 Y56.669 E.45287
G1 X192.367 Y57.337 E.09438
G1 X194.633 Y59.603 E.45277
G1 X194.633 Y60.271 E.09438
G1 X192.367 Y58.004 E.45287
G1 X192.367 Y58.672 E.09438
G1 X194.633 Y60.938 E.45277
G1 X194.633 Y61.606 E.09438
G1 X192.367 Y59.339 E.45287
G1 X192.367 Y60.007 E.09438
G1 X194.633 Y62.273 E.45277
G1 X194.633 Y62.941 E.09438
G1 X192.367 Y60.674 E.45287
G1 X192.367 Y61.342 E.09438
G1 X194.633 Y63.608 E.45277
G1 X194.633 Y64.276 E.09438
G1 X192.367 Y62.009 E.45287
G1 X192.367 Y62.677 E.09438
G1 X194.633 Y64.943 E.45277
G1 X194.633 Y65.611 E.09438
G1 X192.367 Y63.344 E.45287
G1 X192.367 Y64.012 E.09438
G1 X194.633 Y66.278 E.45277
G1 X194.633 Y66.946 E.09438
G1 X192.367 Y64.679 E.45287
G1 X192.367 Y65.347 E.09438
G1 X194.633 Y67.613 E.45277
G1 X194.633 Y68.281 E.09438
G1 X192.367 Y66.014 E.45287
G1 X192.367 Y66.682 E.09438
G1 X194.633 Y68.948 E.45277
G1 X194.633 Y69.616 E.09438
G1 X192.367 Y67.349 E.45287
G1 X192.367 Y68.017 E.09438
G1 X194.633 Y70.283 E.45277
G1 X194.633 Y70.951 E.09438
G1 X192.367 Y68.684 E.45287
G1 X192.367 Y69.352 E.09438
G1 X194.633 Y71.618 E.45277
G1 X194.633 Y72.286 E.09438
G1 X192.367 Y70.019 E.45287
G1 X192.367 Y70.687 E.09438
G1 X194.633 Y72.953 E.45277
G1 X194.633 Y73.621 E.09438
G1 X192.367 Y71.354 E.45287
G1 X192.367 Y72.022 E.09438
G1 X194.633 Y74.288 E.45277
G1 X194.633 Y74.956 E.09438
G1 X192.367 Y72.689 E.45287
G1 X192.367 Y73.357 E.09438
G1 X194.633 Y75.623 E.45277
G1 X194.633 Y76.291 E.09438
G1 X192.367 Y74.024 E.45287
G1 X192.367 Y74.692 E.09438
G1 X194.633 Y76.958 E.45277
G1 X194.633 Y77.626 E.09438
G1 X192.367 Y75.359 E.45287
G1 X192.367 Y76.027 E.09438
G1 X194.633 Y78.293 E.45277
G1 X194.633 Y78.961 E.09438
G1 X192.367 Y76.694 E.45287
G1 X192.367 Y77.362 E.09438
G1 X194.633 Y79.628 E.45277
G1 X194.633 Y80.296 E.09438
G1 X192.367 Y78.029 E.45287
G1 X192.367 Y78.697 E.09438
G1 X194.633 Y80.963 E.45277
G1 X194.633 Y81.631 E.09438
G1 X192.367 Y79.364 E.45287
G1 X192.367 Y80.032 E.09438
G1 X194.633 Y82.298 E.45277
G1 X194.633 Y82.966 E.09438
G1 X192.367 Y80.699 E.45287
G1 X192.367 Y81.367 E.09438
G1 X194.633 Y83.633 E.45277
G1 X194.633 Y84.301 E.09438
G1 X192.367 Y82.034 E.45287
G1 X192.367 Y82.702 E.09438
G1 X194.633 Y84.968 E.45277
G1 X194.633 Y85.636 E.09438
G1 X192.367 Y83.369 E.45287
G1 X192.367 Y84.037 E.09438
G1 X194.633 Y86.303 E.45277
G1 X194.633 Y86.971 E.09438
G1 X192.367 Y84.704 E.45287
G1 X192.367 Y85.372 E.09438
G1 X194.633 Y87.638 E.45277
G1 X194.633 Y88.306 E.09438
G1 X192.367 Y86.039 E.45287
G1 X192.367 Y86.707 E.09438
G1 X194.633 Y88.973 E.45277
G1 X194.633 Y89.641 E.09438
G1 X192.367 Y87.374 E.45287
G1 X192.367 Y88.042 E.09438
G1 X194.633 Y90.308 E.45277
G1 X194.633 Y90.976 E.09438
G1 X192.367 Y88.709 E.45287
G1 X192.367 Y89.377 E.09438
G1 X194.633 Y91.643 E.45277
G1 X194.633 Y92.311 E.09438
G1 X192.367 Y90.044 E.45287
G1 X192.367 Y90.712 E.09438
G1 X194.633 Y92.979 E.45287
G1 X194.633 Y93.646 E.09424
G1 X192.367 Y91.379 E.45287
G1 X192.367 Y92.047 E.09438
G1 X194.633 Y94.314 E.45287
G1 X194.633 Y94.981 E.09424
G1 X192.367 Y92.714 E.45287
G1 X192.367 Y93.382 E.09438
G1 X194.633 Y95.649 E.45287
G1 X194.633 Y96.316 E.09424
G1 X192.367 Y94.049 E.45287
G1 X192.367 Y94.717 E.09438
G1 X194.633 Y96.984 E.45287
G1 X194.633 Y97.651 E.09424
G1 X192.367 Y95.384 E.45287
G1 X192.367 Y96.052 E.09438
G1 X194.633 Y98.319 E.45287
G1 X194.633 Y98.986 E.09424
G1 X192.367 Y96.719 E.45287
G1 X192.367 Y97.387 E.09438
G1 X194.633 Y99.654 E.45287
G1 X194.633 Y100.321 E.09424
G1 X192.367 Y98.054 E.45287
G1 X192.367 Y98.722 E.09438
G1 X194.633 Y100.989 E.45287
G1 X194.633 Y101.656 E.09424
G1 X192.367 Y99.389 E.45287
G1 X192.367 Y100.057 E.09438
G1 X194.633 Y102.324 E.45287
G1 X194.633 Y102.991 E.09424
G1 X192.367 Y100.724 E.45287
G1 X192.367 Y101.392 E.09438
G1 X194.633 Y103.659 E.45287
G1 X194.633 Y104.326 E.09424
G1 X192.367 Y102.059 E.45287
G1 X192.367 Y102.727 E.09438
G1 X194.633 Y104.994 E.45287
G1 X194.633 Y105.661 E.09424
G1 X192.367 Y103.394 E.45287
G1 X192.367 Y104.062 E.09438
G1 X194.633 Y106.329 E.45287
G1 X194.633 Y106.996 E.09424
G1 X192.367 Y104.729 E.45287
G1 X192.367 Y105.397 E.09438
G1 X194.633 Y107.664 E.45287
G1 X194.633 Y108.331 E.09424
G1 X192.367 Y106.064 E.45287
G1 X192.367 Y106.732 E.09438
G1 X194.633 Y108.999 E.45287
G1 X194.633 Y109.666 E.09424
G1 X192.367 Y107.399 E.45287
G1 X192.367 Y108.067 E.09438
G1 X194.633 Y110.334 E.45287
G1 X194.633 Y111.001 E.09424
G1 X192.367 Y108.734 E.45287
G1 X192.367 Y109.402 E.09438
G1 X194.633 Y111.669 E.45287
G1 X194.633 Y112.336 E.09424
G1 X192.367 Y110.069 E.45287
G1 X192.367 Y110.737 E.09438
G1 X194.633 Y113.004 E.45287
G1 X194.633 Y113.671 E.09424
G1 X192.367 Y111.404 E.45287
G1 X192.367 Y112.072 E.09438
G1 X194.633 Y114.339 E.45287
G1 X194.633 Y115.006 E.09424
G1 X192.367 Y112.739 E.45287
G1 X192.367 Y113.407 E.09438
G1 X194.633 Y115.674 E.45287
G1 X194.633 Y116.341 E.09424
G1 X192.367 Y114.074 E.45287
G1 X192.367 Y114.742 E.09438
G1 X194.633 Y117.009 E.45287
G1 X194.633 Y117.676 E.09424
G1 X192.367 Y115.409 E.45287
G1 X192.367 Y116.077 E.09438
G1 X194.633 Y118.344 E.45287
G1 X194.633 Y119.011 E.09424
G1 X192.367 Y116.744 E.45287
G1 X192.367 Y117.412 E.09438
G1 X194.633 Y119.679 E.45287
G1 X194.633 Y120.346 E.09424
G1 X192.367 Y118.079 E.45287
G1 X192.367 Y118.747 E.09438
G1 X194.633 Y121.014 E.45287
G1 X194.633 Y121.681 E.09424
G1 X192.367 Y119.414 E.45287
G1 X192.367 Y120.082 E.09438
G1 X194.633 Y122.349 E.45287
G1 X194.633 Y123.016 E.09424
G1 X192.367 Y120.749 E.45287
G1 X192.367 Y121.417 E.09438
G1 X194.633 Y123.684 E.45287
G1 X194.633 Y124.351 E.09424
G1 X192.367 Y122.084 E.45287
G1 X192.367 Y122.752 E.09438
G1 X194.633 Y125.019 E.45287
G1 X194.633 Y125.686 E.09424
G1 X192.367 Y123.419 E.45287
G1 X192.367 Y124.087 E.09438
G1 X194.633 Y126.354 E.45287
G1 X194.633 Y127.021 E.09424
G1 X192.367 Y124.754 E.45287
G1 X192.367 Y125.422 E.09438
G1 X194.633 Y127.689 E.45287
G1 X194.633 Y128.356 E.09424
G1 X192.367 Y126.089 E.45287
G1 X192.367 Y126.757 E.09438
G1 X194.633 Y129.024 E.45287
G1 X194.633 Y129.691 E.09424
G1 X192.367 Y127.424 E.45287
G1 X192.367 Y128.092 E.09438
G1 X194.633 Y130.359 E.45287
G1 X194.633 Y131.026 E.09424
G1 X192.367 Y128.759 E.45287
G1 X192.367 Y129.427 E.09438
G1 X194.633 Y131.694 E.45287
G1 X194.633 Y132.361 E.09424
G1 X192.367 Y130.095 E.45277
G1 X192.367 Y130.762 E.09424
G1 X194.633 Y133.029 E.45287
G1 X194.633 Y133.696 E.09424
G1 X192.367 Y131.43 E.45277
G1 X192.367 Y132.097 E.09424
G1 X194.633 Y134.364 E.45287
G1 X194.633 Y135.031 E.09424
G1 X192.367 Y132.765 E.45277
G1 X192.367 Y133.432 E.09424
G1 X194.633 Y135.699 E.45287
G1 X194.633 Y136.366 E.09424
G1 X192.367 Y134.1 E.45277
G1 X192.367 Y134.767 E.09424
G1 X194.633 Y137.034 E.45287
G1 X194.633 Y137.701 E.09424
G1 X192.367 Y135.435 E.45277
G1 X192.367 Y136.102 E.09424
G1 X194.633 Y138.369 E.45287
G1 X194.633 Y139.036 E.09424
G1 X192.367 Y136.77 E.45277
G1 X192.367 Y137.437 E.09424
G1 X194.633 Y139.704 E.45287
G1 X194.633 Y140.371 E.09424
G1 X192.367 Y138.105 E.45277
G1 X192.367 Y138.772 E.09424
G1 X194.633 Y141.039 E.45287
G1 X194.633 Y141.706 E.09424
G1 X192.367 Y139.44 E.45277
G1 X192.367 Y140.107 E.09424
G1 X194.633 Y142.374 E.45287
G1 X194.633 Y143.041 E.09424
G1 X192.367 Y140.775 E.45277
G1 X192.367 Y141.442 E.09424
G1 X194.633 Y143.709 E.45287
G1 X194.633 Y144.376 E.09424
G1 X192.367 Y142.11 E.45277
G1 X192.367 Y142.777 E.09424
G1 X194.633 Y145.044 E.45287
G1 X194.633 Y145.711 E.09424
G1 X192.367 Y143.445 E.45277
G1 X192.367 Y144.112 E.09424
G1 X194.633 Y146.379 E.45287
G1 X194.633 Y147.046 E.09424
G1 X192.367 Y144.78 E.45277
G1 X192.367 Y145.447 E.09424
G1 X194.633 Y147.714 E.45287
G1 X194.633 Y148.381 E.09424
G1 X192.367 Y146.115 E.45277
G1 X192.367 Y146.782 E.09424
G1 X194.633 Y149.049 E.45287
G1 X194.633 Y149.716 E.09424
G1 X192.367 Y147.45 E.45277
G1 X192.367 Y148.117 E.09424
