; generated by PrusaSlicer 2.9.0 on 2025-09-22 at 07:52:35 UTC

; 

; external perimeters extrusion width = 0.68mm
; perimeters extrusion width = 0.68mm
; infill extrusion width = 0.68mm
; solid infill extrusion width = 0.68mm
; top infill extrusion width = 0.60mm
; support material extrusion width = 0.60mm
; first layer extrusion width = 0.60mm

M201 X500 Y500 Z100 E5000 ; sets maximum accelerations, mm/sec^2
M203 X500 Y500 Z10 E60 ; sets maximum feedrates, mm / sec
M204 P500 R1000 T500 ; sets acceleration (P, T) and retract acceleration (R), mm/sec^2
M205 X8.00 Y8.00 Z0.40 E5.00 ; sets the jerk limits, mm/sec
M205 S0 T0 ; sets the minimum extruding and travel feed rate, mm/sec
;TYPE:Custom
G90 ; use absolute coordinates
M83 ; extruder relative mode
M104 S200 ; set temporary nozzle temp to prevent oozing during homing and auto bed leveling
M140 S60 ; set final bed temp
G4 S30 ; allow partial nozzle warmup
G28 ; home all axis
G29 ; auto bed levelling
G1 Z50 F240
G1 X2.0 Y10 F3000
M104 S205 ; set final nozzle temp
M190 S60 ; wait for bed temp to stabilize
M109 S205 ; wait for nozzle temp to stabilize
G1 Z0.28 F240
G92 E0
G1 X2.0 Y140 E10 F1500 ; prime the nozzle
G1 X2.3 Y140 F5000
G92 E0
G1 X2.3 Y10 E10 F1200 ; prime the nozzle
G92 E0
G21 ; set units to millimeters
G90 ; use absolute coordinates
M83 ; use relative distances for extrusion
; Filament gcode
M107
;LAYER_CHANGE
;Z:0.6
;HEIGHT:0.6
G1 E-5 F3600
G1 Z.6 F4800
G1 X47.039 Y58.446
G1 Z.6
G1 E5 F2400
;TYPE:Skirt/Brim
;WIDTH:0.6
G1 F1800
G1 X48.232 Y57.624 E.20437
G1 X49.304 Y57.114 E.16746
G1 X50.714 Y56.705 E.2071
G1 X52.144 Y56.552 E.20287
G1 X167.836 Y56.552 E16.31966
G1 X169.352 Y56.718 E.21513
G1 X170.731 Y57.128 E.20294
G1 X172.177 Y57.872 E.22939
G1 X173.373 Y58.811 E.21449
G1 X174.348 Y59.917 E.20798
G1 X175.199 Y61.363 E.23668
G1 X175.703 Y62.802 E.21508
G1 X175.931 Y64.254 E.20733
G1 X175.946 Y155.424 E12.86055
G1 X175.714 Y157.154 E.24622
G1 X175.101 Y158.842 E.25333
G1 X174.157 Y160.333 E.24893
G1 X172.961 Y161.554 E.2411
G1 X171.768 Y162.376 E.20437
G1 X170.696 Y162.886 E.16746
G1 X169.286 Y163.295 E.2071
G1 X167.856 Y163.448 E.20287
G1 X52.3 Y163.45 E16.30047
G1 X50.648 Y163.282 E.23424
G1 X48.938 Y162.733 E.25334
G1 X47.453 Y161.875 E.24193
G1 X46.102 Y160.644 E.25782
G1 X45.235 Y159.459 E.20712
G1 X44.596 Y158.149 E.2056
G1 X44.217 Y156.846 E.19142
G1 X44.052 Y155.356 E.21147
G1 X44.05 Y64.8 E12.77394
G1 X44.103 Y63.878 E.13027
G1 X44.261 Y62.951 E.13265
G1 X44.852 Y61.255 E.25335
G1 X45.789 Y59.736 E.25176
G1 X46.977 Y58.511 E.24071
G1 E-3.5 F3600
;WIPE_START
G1 F3840
G1 X47.039 Y58.446 E-.08
G1 X48.232 Y57.624 E-1.29031
G1 X48.364 Y57.561 E-.12969
;WIPE_END
G1 X107.102 Y104.981 F4800
G1 E5 F2400
;TYPE:Perimeter
;WIDTH:0.721774
G1 F1800
G1 X107.17 Y104.943 E.01383
;WIDTH:0.767237
G1 X107.394 Y104.818 E.04903
G1 X107.463 Y104.817 E.01319
;WIDTH:0.763015
G1 X112.537 Y104.817 E.96334
G1 X112.64 Y104.853 E.02072
;WIDTH:0.719663
G1 X112.744 Y104.89 E.01953
G1 X112.982 Y105.051 E.05083
;WIDTH:0.763013
G1 X113.22 Y105.211 E.05445
G1 X115.757 Y109.606 E.96347
G1 X115.783 Y109.712 E.02072
;WIDTH:0.730783
G1 X115.808 Y109.818 E.01963
G1 X115.783 Y110.106 E.0521
;WIDTH:0.763014
G1 X115.757 Y110.394 E.0549
G1 X113.22 Y114.789 E.96347
G1 X113.141 Y114.864 E.02068
;WIDTH:0.730783
G1 X113.061 Y114.939 E.01976
G1 X112.799 Y115.061 E.05208
;WIDTH:0.763015
G1 X112.537 Y115.183 E.05487
G1 X107.463 Y115.183 E.96334
G1 X107.358 Y115.152 E.02079
;WIDTH:0.730784
G1 X107.253 Y115.121 E.01973
;WIDTH:0.698552
G1 X107.181 Y115.064 E.01566
;WIDTH:0.649276
G1 X107.109 Y115.007 E.01431
G1 X107.024 Y114.973 E.01426
;WIDTH:0.698552
G1 X106.939 Y114.939 E.01561
;WIDTH:0.730783
G1 X106.859 Y114.864 E.01976
;WIDTH:0.763014
G1 X106.78 Y114.789 E.02068
G1 X104.243 Y110.394 E.96347
G1 X104.223 Y110.287 E.02067
;WIDTH:0.719662
G1 X104.202 Y110.179 E.01946
;WIDTH:0.721773
G1 X104.206 Y109.922 E.04563
;WIDTH:0.767237
G1 X104.209 Y109.666 E.04893
G1 X104.243 Y109.606 E.01318
;WIDTH:0.763015
G1 X106.78 Y105.211 E.96347
G1 X106.863 Y105.14 E.02074
;WIDTH:0.719663
G1 X106.946 Y105.069 E.01932
;WIDTH:0.721774
G1 X107.024 Y105.025 E.0159
G1 X107.024 Y105.025 F4800
G1 X107.352 Y105.415
;TYPE:External perimeter
;WIDTH:0.599999
G1 F1800
G1 X107.397 Y105.379 E.00813
G1 X107.463 Y105.37 E.0094
G1 X112.537 Y105.37 E.71574
G1 X112.701 Y105.436 E.02494
G1 X115.278 Y109.882 E.72489
G1 X115.303 Y110.057 E.02494
G1 X112.741 Y114.512 E.72493
G1 X112.603 Y114.621 E.02481
G1 X112.537 Y114.63 E.0094
G1 X107.463 Y114.63 E.71574
G1 X107.299 Y114.564 E.02494
G1 X104.722 Y110.118 E.72489
G1 X104.697 Y109.943 E.02494
G1 X107.259 Y105.488 E.72493
G1 X107.281 Y105.47 E.00401
G1 E-3.5 F3600
;WIPE_START
G1 F3840
G1 X107.352 Y105.415 E-.07999
G1 X107.397 Y105.379 E-.05133
G1 X107.463 Y105.37 E-.05933
G1 X108.933 Y105.37 E-1.30935
;WIPE_END
G1 X103.37 Y120.516 F4800
G1 E5 F2400
;TYPE:Perimeter
;WIDTH:0.730783
G1 F1800
G1 X103.273 Y120.561 E.01927
;WIDTH:0.763014
G1 X103.011 Y120.683 E.05487
G1 X97.937 Y120.683 E.96334
G1 X97.832 Y120.652 E.02079
;WIDTH:0.730783
G1 X97.727 Y120.621 E.01973
;WIDTH:0.698552
G1 X97.655 Y120.564 E.01566
;WIDTH:0.649276
G1 X97.583 Y120.507 E.01431
;WIDTH:0.641809
G1 X97.51 Y120.467 E.01278
;WIDTH:0.683618
G1 X97.436 Y120.427 E.01397
;WIDTH:0.725428
G1 X97.363 Y120.388 E.01478
;WIDTH:0.767237
G1 X97.289 Y120.348 E.01608
G1 X97.254 Y120.289 E.01311
;WIDTH:0.763015
G1 X94.717 Y115.894 E.96347
G1 X94.696 Y115.787 E.0207
;WIDTH:0.719662
G1 X94.676 Y115.679 E.01943
;WIDTH:0.721773
G1 X94.68 Y115.422 E.04563
;WIDTH:0.767237
G1 X94.683 Y115.166 E.04893
G1 X94.717 Y115.106 E.01318
;WIDTH:0.763015
G1 X97.254 Y110.711 E.96347
G1 X97.337 Y110.64 E.02074
;WIDTH:0.719662
G1 X97.42 Y110.569 E.01932
;WIDTH:0.721773
G1 X97.644 Y110.443 E.04562
;WIDTH:0.767237
G1 X97.868 Y110.318 E.04903
G1 X97.937 Y110.317 E.01319
;WIDTH:0.763014
G1 X103.011 Y110.317 E.96334
G1 X103.114 Y110.353 E.02072
;WIDTH:0.719662
G1 X103.218 Y110.39 E.01953
G1 X103.456 Y110.551 E.05083
;WIDTH:0.763015
G1 X103.694 Y110.711 E.05445
G1 X106.231 Y115.106 E.96347
G1 X106.256 Y115.212 E.02068
;WIDTH:0.730783
G1 X106.282 Y115.318 E.01967
G1 X106.256 Y115.606 E.05211
;WIDTH:0.763015
G1 X106.231 Y115.894 E.05488
G1 X103.694 Y120.289 E.96347
G1 X103.614 Y120.364 E.02082
;WIDTH:0.730783
G1 X103.535 Y120.439 E.01963
G1 X103.451 Y120.478 E.01669
G1 X103.451 Y120.478 F4800
G1 X103.122 Y120.085
;TYPE:External perimeter
;WIDTH:0.599999
G1 F1800
G1 X103.076 Y120.121 E.00824
G1 X97.937 Y120.13 E.72491
G1 X97.773 Y120.064 E.02494
G1 X95.195 Y115.618 E.72496
G1 X95.171 Y115.443 E.02492
G1 X95.195 Y115.382 E.00925
G1 X97.733 Y110.988 E.71579
G1 X97.871 Y110.879 E.02481
G1 X103.011 Y110.87 E.72505
G1 X103.174 Y110.936 E.02481
G1 X103.215 Y110.988 E.00934
G1 X105.752 Y115.382 E.71572
G1 X105.777 Y115.557 E.02494
G1 X105.752 Y115.618 E.0093
G1 X103.215 Y120.012 E.71572
G1 X103.192 Y120.03 E.00412
G1 E-3.5 F3600
;WIPE_START
G1 F3840
G1 X103.122 Y120.085 E-.07929
G1 X103.076 Y120.121 E-.05202
G1 X101.539 Y120.124 E-1.36869
;WIPE_END
G1 X112.896 Y126.016 F4800
G1 E5 F2400
;TYPE:Perimeter
;WIDTH:0.730783
G1 F1800
G1 X112.799 Y126.061 E.01927
;WIDTH:0.763015
G1 X112.537 Y126.183 E.05487
G1 X107.463 Y126.183 E.96334
G1 X107.358 Y126.152 E.02079
;WIDTH:0.730784
G1 X107.253 Y126.121 E.01973
;WIDTH:0.698552
G1 X107.181 Y126.064 E.01566
;WIDTH:0.649276
G1 X107.109 Y126.007 E.01431
;WIDTH:0.641809
G1 X107.036 Y125.967 E.01278
;WIDTH:0.683618
G1 X106.962 Y125.927 E.01397
;WIDTH:0.725428
G1 X106.889 Y125.888 E.01478
;WIDTH:0.767237
G1 X106.815 Y125.848 E.01608
G1 X106.78 Y125.789 E.01311
;WIDTH:0.763015
G1 X104.243 Y121.394 E.96347
G1 X104.223 Y121.287 E.02067
;WIDTH:0.719663
G1 X104.202 Y121.179 E.01946
;WIDTH:0.721773
G1 X104.206 Y120.922 E.04563
;WIDTH:0.767236
G1 X104.209 Y120.666 E.04893
G1 X104.243 Y120.606 E.01318
;WIDTH:0.763015
G1 X106.78 Y116.211 E.96347
G1 X106.863 Y116.14 E.02074
;WIDTH:0.719663
G1 X106.946 Y116.069 E.01932
;WIDTH:0.721774
G1 X107.17 Y115.943 E.04562
;WIDTH:0.767237
G1 X107.394 Y115.818 E.04903
G1 X107.463 Y115.817 E.01319
;WIDTH:0.763015
G1 X112.537 Y115.817 E.96334
G1 X112.64 Y115.853 E.02072
;WIDTH:0.719663
G1 X112.744 Y115.89 E.01953
G1 X112.982 Y116.051 E.05083
;WIDTH:0.763014
G1 X113.22 Y116.211 E.05445
G1 X115.757 Y120.606 E.96347
G1 X115.783 Y120.712 E.02072
;WIDTH:0.730783
G1 X115.808 Y120.818 E.01963
G1 X115.783 Y121.106 E.0521
;WIDTH:0.763014
G1 X115.757 Y121.394 E.0549
G1 X113.22 Y125.789 E.96347
G1 X113.141 Y125.864 E.02068
;WIDTH:0.730783
G1 X113.061 Y125.939 E.01976
G1 X112.977 Y125.978 E.01669
G1 X112.977 Y125.978 F4800
G1 X112.648 Y125.585
;TYPE:External perimeter
;WIDTH:0.599999
G1 F1800
G1 X112.603 Y125.621 E.00813
G1 X112.537 Y125.63 E.0094
G1 X107.463 Y125.63 E.71574
G1 X107.299 Y125.564 E.02494
G1 X104.697 Y121.057 E.73411
G1 X104.722 Y120.882 E.02494
G1 X107.259 Y116.488 E.71572
G1 X107.397 Y116.379 E.02481
G1 X107.463 Y116.37 E.0094
G1 X112.537 Y116.37 E.71574
G1 X112.701 Y116.436 E.02494
G1 X115.278 Y120.882 E.72489
G1 X115.303 Y121.057 E.02494
G1 X112.741 Y125.512 E.72493
G1 X112.719 Y125.53 E.00401
G1 E-3.5 F3600
;WIPE_START
G1 F3840
G1 X112.648 Y125.585 E-.07999
G1 X112.603 Y125.621 E-.05133
G1 X112.537 Y125.63 E-.05933
G1 X111.067 Y125.63 E-1.30935
;WIPE_END
G1 X115.792 Y132 F4800
G1 E5 F2400
;TYPE:Perimeter
;WIDTH:0.730784
G1 F1800
G1 X115.783 Y132.106 E.01917
;WIDTH:0.763015
G1 X115.757 Y132.394 E.0549
G1 X113.22 Y136.789 E.96347
G1 X113.141 Y136.864 E.02068
;WIDTH:0.730783
G1 X113.061 Y136.939 E.01976
G1 X112.799 Y137.061 E.05208
;WIDTH:0.763016
G1 X112.537 Y137.183 E.05487
G1 X107.463 Y137.183 E.96334
G1 X107.358 Y137.152 E.02079
;WIDTH:0.730784
G1 X107.253 Y137.121 E.01973
;WIDTH:0.698552
G1 X107.181 Y137.064 E.01566
;WIDTH:0.649276
G1 X107.109 Y137.007 E.01431
;WIDTH:0.641809
G1 X107.036 Y136.967 E.01278
;WIDTH:0.683618
G1 X106.962 Y136.927 E.01397
;WIDTH:0.725428
G1 X106.889 Y136.888 E.01478
;WIDTH:0.767237
G1 X106.815 Y136.848 E.01608
G1 X106.78 Y136.789 E.01311
;WIDTH:0.763016
G1 X104.243 Y132.394 E.96347
G1 X104.223 Y132.287 E.02067
;WIDTH:0.719663
G1 X104.202 Y132.179 E.01946
;WIDTH:0.721774
G1 X104.206 Y131.922 E.04563
;WIDTH:0.767238
G1 X104.209 Y131.666 E.04893
G1 X104.243 Y131.606 E.01318
;WIDTH:0.763015
G1 X106.78 Y127.211 E.96347
G1 X106.863 Y127.14 E.02074
;WIDTH:0.719663
G1 X106.946 Y127.069 E.01932
;WIDTH:0.721774
G1 X107.17 Y126.943 E.04562
;WIDTH:0.767237
G1 X107.394 Y126.818 E.04903
G1 X107.463 Y126.817 E.01319
;WIDTH:0.763015
G1 X112.537 Y126.817 E.96334
G1 X112.64 Y126.853 E.02072
;WIDTH:0.719663
G1 X112.744 Y126.89 E.01953
G1 X112.982 Y127.051 E.05083
;WIDTH:0.763015
G1 X113.22 Y127.211 E.05445
G1 X115.757 Y131.606 E.96347
G1 X115.783 Y131.712 E.02072
;WIDTH:0.730784
G1 X115.808 Y131.818 E.01963
G1 X115.8 Y131.911 E.01682
G1 X115.8 Y131.911 F4800
G1 X115.295 Y132
;TYPE:External perimeter
;WIDTH:0.599999
G1 F1800
G1 X115.303 Y132.057 E.00812
G1 X112.741 Y136.512 E.72493
G1 X112.603 Y136.621 E.02481
G1 X107.463 Y136.63 E.72505
G1 X107.299 Y136.564 E.02494
G1 X107.259 Y136.512 E.00925
G1 X104.697 Y132.057 E.72493
G1 X104.722 Y131.882 E.02494
G1 X107.259 Y127.488 E.71572
G1 X107.397 Y127.379 E.02481
G1 X112.537 Y127.37 E.72505
G1 X112.701 Y127.436 E.02494
G1 X112.741 Y127.488 E.00925
G1 X115.278 Y131.882 E.71572
G1 X115.282 Y131.91 E.00399
G1 E-3.5 F3600
;WIPE_START
G1 F3840
G1 X115.295 Y132 E-.08099
G1 X115.303 Y132.057 E-.05126
G1 X114.537 Y133.388 E-1.36775
;WIPE_END
G1 X97.583 Y131.507 F4800
G1 E5 F2400
;TYPE:Perimeter
;WIDTH:0.641809
G1 F1800
G1 X97.51 Y131.467 E.01278
;WIDTH:0.683618
G1 X97.436 Y131.427 E.01397
;WIDTH:0.725428
G1 X97.363 Y131.388 E.01478
;WIDTH:0.767237
G1 X97.289 Y131.348 E.01608
G1 X97.254 Y131.289 E.01311
;WIDTH:0.763016
G1 X94.717 Y126.894 E.96347
G1 X94.696 Y126.787 E.0207
;WIDTH:0.719663
G1 X94.676 Y126.679 E.01943
;WIDTH:0.721773
G1 X94.68 Y126.422 E.04563
;WIDTH:0.767236
G1 X94.683 Y126.166 E.04893
G1 X94.717 Y126.106 E.01318
;WIDTH:0.763015
G1 X97.254 Y121.711 E.96347
G1 X97.337 Y121.64 E.02074
;WIDTH:0.719663
G1 X97.42 Y121.569 E.01932
;WIDTH:0.721774
G1 X97.644 Y121.443 E.04562
;WIDTH:0.767237
G1 X97.868 Y121.318 E.04903
G1 X97.937 Y121.317 E.01319
;WIDTH:0.763014
G1 X103.011 Y121.317 E.96334
G1 X103.114 Y121.353 E.02072
;WIDTH:0.719662
G1 X103.218 Y121.39 E.01953
G1 X103.456 Y121.551 E.05083
;WIDTH:0.763015
G1 X103.694 Y121.711 E.05445
G1 X106.231 Y126.106 E.96347
G1 X106.256 Y126.212 E.02068
;WIDTH:0.730783
G1 X106.282 Y126.318 E.01967
G1 X106.256 Y126.606 E.05211
;WIDTH:0.763015
G1 X106.231 Y126.894 E.05488
G1 X103.694 Y131.289 E.96347
G1 X103.614 Y131.364 E.02082
;WIDTH:0.730784
G1 X103.535 Y131.439 E.01963
G1 X103.273 Y131.561 E.05208
;WIDTH:0.763016
G1 X103.011 Y131.683 E.05487
G1 X97.937 Y131.683 E.96334
G1 X97.832 Y131.652 E.02079
;WIDTH:0.730784
G1 X97.727 Y131.621 E.01973
;WIDTH:0.698552
G1 X97.655 Y131.564 E.01566
G1 X97.655 Y131.564 F4800
G1 X97.827 Y131.086
;TYPE:External perimeter
;WIDTH:0.599999
G1 F1800
G1 X97.773 Y131.064 E.00823
G1 X97.733 Y131.012 E.00925
G1 X95.195 Y126.618 E.71579
G1 X95.171 Y126.443 E.02492
G1 X95.195 Y126.382 E.00925
G1 X97.733 Y121.988 E.71579
G1 X97.871 Y121.879 E.02481
G1 X103.011 Y121.87 E.72505
G1 X103.174 Y121.936 E.02481
G1 X105.752 Y126.382 E.72496
G1 X105.777 Y126.557 E.02494
G1 X105.752 Y126.618 E.0093
G1 X103.215 Y131.012 E.71572
G1 X103.076 Y131.121 E.02492
G1 X97.937 Y131.13 E.72491
G1 X97.91 Y131.119 E.00411
G1 E-3.5 F3600
;WIPE_START
G1 F3840
G1 X97.827 Y131.086 E-.07955
G1 X97.773 Y131.064 E-.05193
G1 X97.733 Y131.012 E-.05843
G1 X96.997 Y129.738 E-1.31009
;WIPE_END
G1 X103.366 Y132.49 F4800
G1 E5 F2400
;TYPE:Perimeter
;WIDTH:0.719663
G1 F1800
G1 X103.456 Y132.551 E.01923
;WIDTH:0.763016
G1 X103.694 Y132.711 E.05445
G1 X106.231 Y137.106 E.96347
G1 X106.256 Y137.212 E.02068
;WIDTH:0.730784
G1 X106.282 Y137.318 E.01967
G1 X106.256 Y137.606 E.05211
;WIDTH:0.763015
G1 X106.231 Y137.894 E.05488
G1 X103.694 Y142.289 E.96347
;WIDTH:0.767236
G1 X103.658 Y142.348 E.01321
G1 X103.554 Y142.402 E.0224
;WIDTH:0.725427
G1 X103.45 Y142.455 E.02085
;WIDTH:0.683618
G1 X103.346 Y142.509 E.01946
;WIDTH:0.641808
G1 X103.242 Y142.562 E.01793
;WIDTH:0.599999
G1 X103.011 Y142.601 E.03305
G1 X97.937 Y142.601 E.71574
G1 X97.705 Y142.562 E.03319
;WIDTH:0.641809
G1 X97.601 Y142.509 E.01793
;WIDTH:0.683618
G1 X97.497 Y142.455 E.01946
;WIDTH:0.725428
G1 X97.393 Y142.402 E.02085
;WIDTH:0.767237
G1 X97.289 Y142.348 E.0224
G1 X97.254 Y142.289 E.01311
;WIDTH:0.763016
G1 X94.717 Y137.894 E.96347
G1 X94.696 Y137.787 E.0207
;WIDTH:0.719663
G1 X94.676 Y137.679 E.01943
;WIDTH:0.698552
G1 X94.665 Y137.318 E.0616
;WIDTH:0.730784
G1 X94.691 Y137.212 E.01967
;WIDTH:0.763015
G1 X94.717 Y137.106 E.02072
G1 X97.254 Y132.711 E.96347
G1 X97.337 Y132.64 E.02074
;WIDTH:0.719663
G1 X97.42 Y132.569 E.01932
;WIDTH:0.721774
G1 X97.644 Y132.443 E.04562
;WIDTH:0.767238
G1 X97.868 Y132.318 E.04903
G1 X97.937 Y132.317 E.01319
;WIDTH:0.763016
G1 X103.011 Y132.317 E.96334
G1 X103.114 Y132.353 E.02072
;WIDTH:0.719663
G1 X103.218 Y132.39 E.01953
G1 X103.292 Y132.44 E.0158
G1 X103.292 Y132.44 F4800
G1 X103.121 Y132.914
;TYPE:External perimeter
;WIDTH:0.599999
G1 F1800
G1 X103.174 Y132.936 E.00809
G1 X103.215 Y132.988 E.00934
G1 X105.752 Y137.382 E.71572
G1 X105.777 Y137.557 E.02494
G1 X103.215 Y142.012 E.72493
G1 X103.088 Y142.117 E.02324
G1 X103.011 Y142.13 E.01102
G1 X97.937 Y142.13 E.71574
G1 X97.732 Y142.012 E.03337
G1 X95.195 Y137.618 E.71572
G1 X95.171 Y137.443 E.02492
G1 X97.733 Y132.988 E.72493
G1 X97.871 Y132.879 E.02481
G1 X103.011 Y132.87 E.72505
G1 X103.037 Y132.881 E.00398
G1 E-3.5 F3600
;WIPE_START
G1 F3840
G1 X103.121 Y132.914 E-.08038
G1 X103.174 Y132.936 E-.05111
G1 X103.215 Y132.988 E-.05898
G1 X103.95 Y134.261 E-1.30953
;WIPE_END
G1 X88.057 Y148 F4800
G1 E5 F2400
;TYPE:Perimeter
G1 F1800
G1 X87.848 Y147.823 E.03863
G1 X87.798 Y147.748 E.01272
G1 X85.261 Y143.353 E.71584
G1 X85.179 Y143.134 E.03299
;WIDTH:0.641808
G1 X85.173 Y143.017 E.01799
;WIDTH:0.683618
G1 X85.168 Y142.9 E.01945
;WIDTH:0.725427
