; generated by PrusaSlicer 2.9.0 on 2025-09-22 at 12:09:50 UTC

; 

; external perimeters extrusion width = 0.68mm
; perimeters extrusion width = 0.68mm
; infill extrusion width = 0.68mm
; solid infill extrusion width = 0.68mm
; top infill extrusion width = 0.60mm
; first layer extrusion width = 0.60mm

M201 X500 Y500 Z100 E5000 ; sets maximum accelerations, mm/sec^2
M203 X500 Y500 Z10 E60 ; sets maximum feedrates, mm / sec
M204 P500 R1000 T500 ; sets acceleration (P, T) and retract acceleration (R), mm/sec^2
M205 X8.00 Y8.00 Z0.40 E5.00 ; sets the jerk limits, mm/sec
M205 S0 T0 ; sets the minimum extruding and travel feed rate, mm/sec
;TYPE:Custom
G90 ; use absolute coordinates
M83 ; extruder relative mode
M104 S200 ; set temporary nozzle temp to prevent oozing during homing and auto bed leveling
M140 S60 ; set final bed temp
G4 S30 ; allow partial nozzle warmup
G28 ; home all axis
G29 ; auto bed levelling
G1 Z50 F240
G1 X2.0 Y10 F3000
M104 S205 ; set final nozzle temp
M190 S60 ; wait for bed temp to stabilize
M109 S205 ; wait for nozzle temp to stabilize
G1 Z0.28 F240
G92 E0
G1 X2.0 Y140 E10 F1500 ; prime the nozzle
G1 X2.3 Y140 F5000
G92 E0
G1 X2.3 Y10 E10 F1200 ; prime the nozzle
G92 E0
G21 ; set units to millimeters
G90 ; use absolute coordinates
M83 ; use relative distances for extrusion
; Filament gcode
M107
;LAYER_CHANGE
;Z:0.6
;HEIGHT:0.6
G1 E-5 F3600
G1 Z.6 F4800
G1 X46.856 Y58.603
G1 Z.6
G1 E5 F2400
;TYPE:Skirt/Brim
;WIDTH:0.6
G1 F1800
G1 X48.015 Y57.751 E.20291
G1 X49.269 Y57.128 E.19752
G1 X50.685 Y56.711 E.20822
G1 X52.082 Y56.554 E.1983
G1 X167.836 Y56.552 E16.3284
G1 X169.332 Y56.714 E.21226
G1 X170.982 Y57.232 E.24395
G1 X172.277 Y57.938 E.20806
G1 X173.571 Y59.005 E.23658
G1 X174.534 Y60.18 E.2143
G1 X175.235 Y61.443 E.20376
G1 X175.765 Y63.068 E.24111
G1 X175.944 Y64.506 E.20441
G1 X175.947 Y155.404 E12.82218
G1 X175.714 Y157.154 E.24904
G1 X175.118 Y158.809 E.24813
G1 X174.204 Y160.273 E.24346
G1 X173.144 Y161.397 E.21794
G1 X171.985 Y162.249 E.20291
G1 X170.731 Y162.872 E.19752
G1 X169.315 Y163.289 E.20822
G1 X167.918 Y163.446 E.1983
G1 X52.3 Y163.45 E16.30922
G1 X51.378 Y163.397 E.13027
G1 X50.462 Y163.241 E.13107
G1 X48.754 Y162.648 E.25504
G1 X47.236 Y161.711 E.25164
G1 X45.939 Y160.452 E.25498
G1 X45.129 Y159.278 E.2012
G1 X44.614 Y158.196 E.16904
G1 X44.211 Y156.815 E.20293
G1 X44.053 Y155.386 E.2028
G1 X44.05 Y64.8 E12.77817
G1 X44.105 Y63.858 E.13311
G1 X44.261 Y62.951 E.12982
G1 X44.767 Y61.437 E.22518
G1 X45.662 Y59.903 E.25052
G1 X46.795 Y58.669 E.23631
G1 E-3.5 F3600
;WIPE_START
G1 F3840
G1 X46.856 Y58.603 E-.08004
G1 X48.015 Y57.751 E-1.28113
G1 X48.155 Y57.682 E-.13883
;WIPE_END
G1 X140.186 Y74.016 F4800
G1 E5 F2400
;TYPE:Perimeter
;WIDTH:0.599999
G1 F1800
G1 X140.242 Y74.496 E.06817
G1 X140.242 Y115.005 E5.71424
G1 X140.176 Y115.524 E.0738
G1 X140.072 Y115.841 E.04706
G1 X139.811 Y116.323 E.07732
G1 X139.449 Y116.712 E.07496
G1 X139.005 Y117.005 E.07504
G1 X138.5 Y117.187 E.07572
G1 X138.004 Y117.242 E.0704
G1 X77.995 Y117.242 E8.46493
G1 X77.457 Y117.173 E.07651
G1 X77.159 Y117.072 E.04438
G1 X76.687 Y116.819 E.07554
G1 X76.288 Y116.449 E.07676
G1 X76.007 Y116.03 E.07117
G1 X75.853 Y115.634 E.05994
G1 X75.758 Y115.004 E.08987
G1 X75.758 Y74.497 E5.71396
G1 X75.861 Y73.862 E.09074
G1 X75.972 Y73.547 E.04711
G1 X76.268 Y73.092 E.07657
G1 X76.464 Y72.867 E.04209
G1 X76.937 Y72.537 E.08136
G1 X77.209 Y72.402 E.04283
G1 X77.766 Y72.28 E.08043
G1 X77.997 Y72.258 E.03273
G1 X138.005 Y72.258 E8.46479
G1 X138.677 Y72.361 E.0959
G1 X139.267 Y72.649 E.09261
G1 X139.665 Y72.998 E.07467
G1 X139.986 Y73.457 E.07901
G1 X140.162 Y73.93 E.07119
G1 X140.162 Y73.93 F4800
G1 X139.724 Y74.117
G1 F1800
G1 X139.73 Y74.133 E.00241
G1 X139.771 Y74.496 E.05153
G1 X139.771 Y115.005 E5.71424
G1 X139.69 Y115.534 E.07549
G1 X139.455 Y116.011 E.07501
G1 X139.1 Y116.388 E.07305
G1 X138.733 Y116.609 E.06043
G1 X138.308 Y116.742 E.06282
G1 X138.004 Y116.771 E.04308
G1 X77.995 Y116.771 E8.46493
G1 X77.494 Y116.698 E.07142
G1 X77.023 Y116.477 E.07339
G1 X76.629 Y116.121 E.0749
G1 X76.391 Y115.733 E.06421
G1 X76.296 Y115.473 E.03905
G1 X76.229 Y115.004 E.06683
G1 X76.229 Y74.497 E5.71396
G1 X76.323 Y73.954 E.07774
G1 X76.429 Y73.7 E.03882
G1 X76.712 Y73.285 E.07086
G1 X77.199 Y72.929 E.08509
G1 X77.454 Y72.823 E.03895
G1 X77.997 Y72.729 E.07774
G1 X138.005 Y72.729 E8.46479
G1 X138.534 Y72.81 E.07549
G1 X139.004 Y73.04 E.07381
G1 X139.365 Y73.376 E.06957
G1 X139.603 Y73.751 E.06265
G1 X139.696 Y74.032 E.04175
G1 X139.696 Y74.032 F4800
G1 X139.265 Y74.22
;TYPE:External perimeter
G1 F1800
G1 X139.3 Y74.496 E.03924
G1 X139.3 Y115.005 E5.71424
G1 X139.227 Y115.425 E.06013
G1 X139.047 Y115.769 E.05477
G1 X138.816 Y116.011 E.04719
G1 X138.572 Y116.166 E.04078
G1 X138.257 Y116.274 E.04697
G1 X138.004 Y116.3 E.03588
G1 X77.995 Y116.3 E8.46493
G1 X77.575 Y116.227 E.06013
G1 X77.232 Y116.048 E.05458
G1 X76.999 Y115.828 E.0452
G1 X76.834 Y115.572 E.04296
G1 X76.739 Y115.312 E.03905
G1 X76.7 Y115.004 E.04379
G1 X76.7 Y74.497 E5.71396
G1 X76.797 Y74.005 E.07074
G1 X77.091 Y73.571 E.07395
G1 X77.516 Y73.294 E.07156
G1 X77.997 Y73.2 E.06913
G1 X138.005 Y73.2 E8.46479
G1 X138.425 Y73.273 E.06013
G1 X138.765 Y73.45 E.05407
G1 X138.979 Y73.646 E.04093
G1 X139.164 Y73.922 E.04687
G1 X139.24 Y74.134 E.03177
G1 E-3.5 F3600
;WIPE_START
G1 F3840
G1 X139.265 Y74.22 E-.07976
G1 X139.3 Y74.496 E-.24778
G1 X139.3 Y75.812 E-1.17246
;WIPE_END
G1 X168.429 Y64.638 F4800
G1 E5 F2400
;TYPE:Perimeter
G1 F1800
G1 X168.471 Y64.916 E.03966
G1 X168.471 Y155.084 E12.71918
G1 X168.446 Y155.365 E.03979
G1 X168.312 Y155.655 E.04506
G1 X168.087 Y155.859 E.04284
G1 X167.646 Y155.971 E.06418
G1 X52.368 Y155.971 E16.26122
G1 X51.986 Y155.895 E.05494
G1 X51.763 Y155.736 E.03863
G1 X51.569 Y155.425 E.05171
G1 X51.529 Y155.146 E.03976
G1 X51.529 Y64.916 E12.72793
G1 X51.554 Y64.635 E.03979
G1 X51.688 Y64.345 E.04506
G1 X51.913 Y64.141 E.04284
G1 X52.354 Y64.029 E.06418
G1 X167.585 Y64.03 E16.25459
G1 X167.923 Y64.069 E.04799
G1 X168.234 Y64.251 E.05083
G1 X168.409 Y64.51 E.04409
G1 X168.415 Y64.549 E.00557
G1 X168.415 Y64.549 F4800
G1 X168.891 Y64.536
G1 F1800
G1 X168.943 Y64.916 E.0541
G1 X168.943 Y155.158 E12.72962
G1 X168.866 Y155.592 E.06218
G1 X168.686 Y155.948 E.05627
G1 X168.371 Y156.237 E.0603
G1 X168.043 Y156.372 E.05003
G1 X167.666 Y156.443 E.05411
G1 X52.416 Y156.443 E16.25728
G1 X52.032 Y156.409 E.05438
G1 X51.655 Y156.244 E.05805
G1 X51.327 Y155.963 E.06093
G1 X51.129 Y155.601 E.0582
G1 X51.057 Y155.166 E.0622
G1 X51.057 Y64.842 E12.74119
G1 X51.134 Y64.408 E.06218
G1 X51.314 Y64.052 E.05627
G1 X51.629 Y63.763 E.0603
G1 X51.957 Y63.628 E.05003
G1 X52.334 Y63.557 E.05411
G1 X167.585 Y63.559 E16.25742
G1 X167.971 Y63.59 E.05462
G1 X168.418 Y63.79 E.06908
G1 X168.741 Y64.128 E.06595
G1 X168.876 Y64.422 E.04564
G1 X168.879 Y64.447 E.00355
G1 X168.879 Y64.447 F4800
G1 X169.371 Y64.429
;TYPE:External perimeter
G1 F1800
G1 X169.414 Y64.916 E.06896
G1 X169.414 Y155.084 E12.71918
G1 X169.372 Y155.571 E.06895
G1 X169.252 Y155.924 E.05259
G1 X169.059 Y156.241 E.05235
G1 X168.835 Y156.465 E.04469
G1 X168.497 Y156.715 E.0593
G1 X167.99 Y156.887 E.07552
G1 X167.687 Y156.914 E.04291
G1 X52.416 Y156.914 E16.26024
G1 X51.929 Y156.872 E.06895
G1 X51.577 Y156.752 E.05246
G1 X51.211 Y156.521 E.06105
G1 X50.945 Y156.246 E.05397
G1 X50.806 Y155.993 E.04072
G1 X50.645 Y155.616 E.05783
G1 X50.586 Y155.187 E.06108
G1 X50.586 Y64.916 E12.73371
G1 X50.628 Y64.429 E.06895
G1 X50.748 Y64.076 E.05259
G1 X50.941 Y63.759 E.05235
G1 X51.165 Y63.535 E.04469
G1 X51.503 Y63.285 E.0593
G1 X52.01 Y63.113 E.07552
G1 X52.313 Y63.086 E.04291
G1 X167.585 Y63.088 E16.26038
G1 X168.072 Y63.128 E.06893
G1 X168.487 Y63.29 E.06284
G1 X168.909 Y63.587 E.07279
G1 X169.21 Y64.008 E.073
G1 X169.34 Y64.345 E.05095
G1 E-3.5 F3600
;WIPE_START
G1 F3840
G1 X169.371 Y64.429 E-.07974
G1 X169.414 Y64.916 E-.43542
G1 X169.414 Y66.022 E-.98484
;WIPE_END
G1 X166.958 Y64.242 F4800
G1 E5 F2400
;TYPE:Solid infill
;WIDTH:0.60037
G1 F1800
G1 X168.047 Y65.332 E.21752
G1 X168.047 Y65.999 E.09416
G1 X166.503 Y64.454 E.30836
G1 X165.836 Y64.454 E.09416
G1 X168.047 Y66.666 E.44152
G1 X168.047 Y67.332 E.09402
G1 X165.169 Y64.454 E.57459
G1 X164.502 Y64.454 E.09416
G1 X168.047 Y67.999 E.70775
G1 X168.047 Y68.666 E.09416
G1 X163.835 Y64.454 E.84091
G1 X163.168 Y64.454 E.09416
G1 X168.047 Y69.333 E.97408
G1 X168.047 Y70 E.09416
G1 X162.501 Y64.454 E1.10724
G1 X161.834 Y64.454 E.09416
G1 X168.047 Y70.667 E1.24041
G1 X168.047 Y71.334 E.09416
G1 X161.167 Y64.454 E1.37357
G1 X160.5 Y64.454 E.09416
G1 X168.047 Y72.001 E1.50674
G1 X168.047 Y72.668 E.09416
G1 X159.833 Y64.454 E1.6399
G1 X159.166 Y64.454 E.09416
G1 X168.047 Y73.335 E1.77307
G1 X168.047 Y74.002 E.09416
G1 X158.499 Y64.454 E1.90623
G1 X157.832 Y64.454 E.09416
G1 X168.047 Y74.669 E2.0394
G1 X168.047 Y75.336 E.09416
G1 X157.165 Y64.454 E2.17256
G1 X156.498 Y64.454 E.09416
G1 X168.047 Y76.003 E2.30573
G1 X168.047 Y76.67 E.09416
G1 X155.831 Y64.454 E2.43889
G1 X155.164 Y64.454 E.09416
G1 X168.047 Y77.337 E2.57206
G1 X168.047 Y78.004 E.09416
G1 X154.498 Y64.454 E2.70512
G1 X153.831 Y64.454 E.09416
G1 X168.047 Y78.671 E2.83829
G1 X168.047 Y79.338 E.09416
G1 X153.164 Y64.454 E2.97145
G1 X152.497 Y64.454 E.09416
G1 X168.047 Y80.005 E3.10462
G1 X168.047 Y80.672 E.09416
G1 X151.83 Y64.454 E3.23778
G1 X151.163 Y64.454 E.09416
G1 X168.047 Y81.339 E3.37095
G1 X168.047 Y82.006 E.09416
G1 X150.496 Y64.454 E3.50411
G1 X149.829 Y64.454 E.09416
G1 X168.047 Y82.672 E3.63718
G1 X168.047 Y83.339 E.09416
G1 X149.162 Y64.454 E3.77034
G1 X148.495 Y64.454 E.09416
G1 X168.047 Y84.006 E3.90351
G1 X168.047 Y84.673 E.09416
G1 X147.828 Y64.454 E4.03667
G1 X147.161 Y64.454 E.09416
G1 X168.047 Y85.34 E4.16984
G1 X168.047 Y86.007 E.09416
G1 X146.494 Y64.454 E4.303
G1 X145.827 Y64.454 E.09416
G1 X168.047 Y86.674 E4.43616
G1 X168.047 Y87.341 E.09416
G1 X145.16 Y64.454 E4.56933
G1 X144.493 Y64.454 E.09416
G1 X168.047 Y88.008 E4.70249
G1 X168.047 Y88.675 E.09416
G1 X143.826 Y64.454 E4.83566
G1 X143.159 Y64.454 E.09416
G1 X168.047 Y89.342 E4.96882
G1 X168.047 Y90.009 E.09416
G1 X142.492 Y64.454 E5.10199
G1 X141.825 Y64.454 E.09416
G1 X168.047 Y90.676 E5.23515
G1 X168.047 Y91.343 E.09416
G1 X141.158 Y64.454 E5.36832
G1 X140.491 Y64.454 E.09416
G1 X168.047 Y92.01 E5.50148
G1 X168.047 Y92.677 E.09416
G1 X139.824 Y64.454 E5.63465
G1 X139.157 Y64.454 E.09416
G1 X168.047 Y93.344 E5.76781
G1 X168.047 Y94.011 E.09416
G1 X138.49 Y64.454 E5.90098
G1 X137.823 Y64.454 E.09416
G1 X168.047 Y94.678 E6.03414
G1 X168.047 Y95.345 E.09416
G1 X137.156 Y64.454 E6.16731
G1 X136.489 Y64.454 E.09416
G1 X168.047 Y96.012 E6.30047
G1 X168.047 Y96.679 E.09416
G1 X135.823 Y64.454 E6.43354
G1 X135.156 Y64.454 E.09416
G1 X168.047 Y97.345 E6.5666
G1 X168.047 Y98.012 E.09416
G1 X134.489 Y64.454 E6.69977
G1 X133.822 Y64.454 E.09416
G1 X168.047 Y98.679 E6.83293
G1 X168.047 Y99.346 E.09416
G1 X133.155 Y64.454 E6.9661
G1 X132.488 Y64.454 E.09416
G1 X168.047 Y100.013 E7.09926
G1 X168.047 Y100.68 E.09416
G1 X131.821 Y64.454 E7.23243
G1 X131.154 Y64.454 E.09416
G1 X138.611 Y71.911 E1.48877
G1 X138.805 Y71.956 E.02811
G1 X139.025 Y72.045 E.0335
G1 X139.505 Y72.297 E.07653
G1 X139.983 Y72.714 E.08955
G1 X140.36 Y73.255 E.09309
G1 X140.524 Y73.649 E.06025
G1 X140.598 Y73.898 E.03667
G1 X168.047 Y101.347 E5.48012
G1 X168.047 Y102.014 E.09416
G1 X140.667 Y74.633 E5.46645
G1 X140.667 Y75.3 E.09416
G1 X168.047 Y102.681 E5.46645
G1 X168.047 Y103.348 E.09416
G1 X140.667 Y75.967 E5.46645
G1 X140.667 Y76.634 E.09416
G1 X168.047 Y104.015 E5.46645
G1 X168.047 Y104.682 E.09416
G1 X140.667 Y77.301 E5.46645
G1 X140.667 Y77.968 E.09416
G1 X168.047 Y105.349 E5.46645
G1 X168.047 Y106.016 E.09416
G1 X140.667 Y78.635 E5.46645
G1 X140.667 Y79.302 E.09416
G1 X168.047 Y106.683 E5.46645
G1 X168.047 Y107.35 E.09416
G1 X140.667 Y79.969 E5.46645
G1 X140.667 Y80.636 E.09416
G1 X168.047 Y108.017 E5.46645
G1 X168.047 Y108.684 E.09416
G1 X140.667 Y81.303 E5.46645
G1 X140.667 Y81.97 E.09416
G1 X168.047 Y109.351 E5.46645
G1 X168.047 Y110.018 E.09416
G1 X140.667 Y82.637 E5.46645
G1 X140.667 Y83.304 E.09416
G1 X168.047 Y110.685 E5.46645
G1 X168.047 Y111.352 E.09416
G1 X140.667 Y83.971 E5.46645
G1 X140.667 Y84.638 E.09416
G1 X168.047 Y112.019 E5.46645
G1 X168.047 Y112.685 E.09402
G1 X140.667 Y85.305 E5.46635
G1 X140.667 Y85.972 E.09416
G1 X168.047 Y113.352 E5.46635
G1 X168.047 Y114.019 E.09416
G1 X140.667 Y86.639 E5.46635
G1 X140.667 Y87.306 E.09416
G1 X168.047 Y114.686 E5.46635
G1 X168.047 Y115.353 E.09416
G1 X140.667 Y87.973 E5.46635
G1 X140.667 Y88.64 E.09416
G1 X168.047 Y116.02 E5.46635
G1 X168.047 Y116.687 E.09416
G1 X140.667 Y89.306 E5.46645
G1 X140.667 Y89.973 E.09416
G1 X168.047 Y117.354 E5.46645
G1 X168.047 Y118.021 E.09416
G1 X140.667 Y90.64 E5.46645
G1 X140.667 Y91.307 E.09416
G1 X168.047 Y118.688 E5.46645
G1 X168.047 Y119.355 E.09416
G1 X140.667 Y91.974 E5.46645
G1 X140.667 Y92.641 E.09416
G1 X168.047 Y120.022 E5.46645
G1 X168.047 Y120.689 E.09416
G1 X140.667 Y93.308 E5.46645
G1 X140.667 Y93.975 E.09416
G1 X168.047 Y121.356 E5.46645
G1 X168.047 Y122.023 E.09416
G1 X140.667 Y94.642 E5.46645
G1 X140.667 Y95.309 E.09416
G1 X168.047 Y122.69 E5.46645
G1 X168.047 Y123.357 E.09416
G1 X140.667 Y95.976 E5.46645
G1 X140.667 Y96.643 E.09416
G1 X168.047 Y124.024 E5.46645
G1 X168.047 Y124.691 E.09416
G1 X140.667 Y97.31 E5.46645
G1 X140.667 Y97.977 E.09416
G1 X168.047 Y125.358 E5.46645
G1 X168.047 Y126.025 E.09416
G1 X140.667 Y98.644 E5.46645
G1 X140.667 Y99.311 E.09416
G1 X168.047 Y126.692 E5.46645
G1 X168.047 Y127.359 E.09416
G1 X140.667 Y99.978 E5.46645
G1 X140.667 Y100.645 E.09416
G1 X168.047 Y128.025 E5.46635
G1 X168.047 Y128.692 E.09416
G1 X140.667 Y101.312 E5.46635
G1 X140.667 Y101.979 E.09416
G1 X168.047 Y129.359 E5.46635
G1 X168.047 Y130.026 E.09416
G1 X140.667 Y102.646 E5.46635
G1 X140.667 Y103.313 E.09416
G1 X168.047 Y130.693 E5.46635
G1 X168.047 Y131.36 E.09416
G1 X140.667 Y103.98 E5.46635
G1 X140.667 Y104.646 E.09402
G1 X168.047 Y132.027 E5.46645
G1 X168.047 Y132.694 E.09416
G1 X140.667 Y105.313 E5.46645
G1 X140.667 Y105.98 E.09416
G1 X168.047 Y133.361 E5.46645
G1 X168.047 Y134.028 E.09416
G1 X140.667 Y106.647 E5.46645
G1 X140.667 Y107.314 E.09416
G1 X168.047 Y134.695 E5.46645
G1 X168.047 Y135.362 E.09416
G1 X140.667 Y107.981 E5.46645
G1 X140.667 Y108.648 E.09416
G1 X168.047 Y136.029 E5.46645
G1 X168.047 Y136.696 E.09416
G1 X140.667 Y109.315 E5.46645
G1 X140.667 Y109.982 E.09416
G1 X168.047 Y137.363 E5.46645
G1 X168.047 Y138.03 E.09416
G1 X140.667 Y110.649 E5.46645
G1 X140.667 Y111.316 E.09416
G1 X168.047 Y138.697 E5.46645
G1 X168.047 Y139.364 E.09416
G1 X140.667 Y111.983 E5.46645
G1 X140.667 Y112.65 E.09416
G1 X168.047 Y140.031 E5.46645
G1 X168.047 Y140.698 E.09416
G1 X140.667 Y113.317 E5.46645
G1 X140.667 Y113.984 E.09416
G1 X168.047 Y141.365 E5.46645
G1 X168.047 Y142.032 E.09416
G1 X140.667 Y114.651 E5.46645
G1 X140.667 Y115.016 E.05153
G1 X140.634 Y115.285 E.03826
G1 X168.047 Y142.698 E5.47293
G1 X168.047 Y143.365 E.09416
G1 X140.527 Y115.845 E5.4943
G1 X140.311 Y116.297 E.07072
G1 X168.047 Y144.032 E5.53732
G1 X168.047 Y144.699 E.09416
G1 X140.048 Y116.7 E5.58993
G1 X139.72 Y117.039 E.06659
G1 X168.047 Y145.366 E5.65541
G1 X168.047 Y146.033 E.09416
G1 X139.321 Y117.307 E5.73507
G1 X139.237 Y117.364 E.01433
G1 X138.853 Y117.506 E.0578
G1 X168.047 Y146.7 E5.82851
G1 X168.047 Y147.367 E.09416
G1 X138.313 Y117.633 E5.93632
G1 X138.014 Y117.667 E.04248
G1 X137.68 Y117.667 E.04715
G1 X168.047 Y148.034 E6.06269
G1 X168.047 Y148.701 E.09416
G1 X137.013 Y117.667 E6.19586
G1 X136.346 Y117.667 E.09416
G1 X168.047 Y149.368 E6.32902
G1 X168.047 Y150.035 E.09416
G1 X135.679 Y117.667 E6.46219
G1 X135.012 Y117.667 E.09416
G1 X168.047 Y150.702 E6.59535
G1 X168.047 Y151.369 E.09416
G1 X134.345 Y117.667 E6.72852
G1 X133.678 Y117.667 E.09416
G1 X168.047 Y152.036 E6.86168
G1 X168.047 Y152.703 E.09416
G1 X133.011 Y117.667 E6.99485
G1 X132.344 Y117.667 E.09416
G1 X168.047 Y153.37 E7.12801
G1 X168.047 Y154.037 E.09416
G1 X131.677 Y117.667 E7.26118
