;FLAVOR:Marlin
;TIME:7279
;Filament used: 4.65832m
;Layer height: 0.2
;MINX:71.622
;MINY:71.608
;MINZ:0.2
;MAXX:148.385
;MAXY:148.376
;MAXZ:62
;Generated with Creality Slicer 4.8.2-291
M140 S60
M105
M190 S60
M104 S200
M105
M109 S200
M82 ;absolute extrusion mode

G28 ;Home

G92 E0 ;Reset Extruder
G1 Z2.0 F3000 ;Move Z Axis up
G1 X10.1 Y20 Z0.28 F5000.0 ;Move to start position
G1 X10.1 Y200.0 Z0.28 F1500.0 E15 ;Draw the first line
G1 X10.4 Y200.0 Z0.28 F5000.0 ;Move to side a little
G1 X10.4 Y20 Z0.28 F1500.0 E30 ;Draw the second line
G92 E0 ;Reset Extruder
G1 Z2.0 F3000 ;Move Z Axis up

G92 E0
G92 E0
G1 F1500 E-4
;LAYER_COUNT:310
;LAYER:0
M107
G0 F6000 X82.754 Y82.953 Z0.2
;TYPE:SKIRT
G1 F1500 E0
G1 F1200 X83.01 Y82.701 E0.01195
G1 X83.9 Y81.85 E0.0529
G1 X84.11 Y81.654 E0.06246
G1 X84.266 Y81.512 E0.06947
G1 X84.642 Y81.177 E0.08622
G1 X84.906 Y80.949 E0.09783
G1 X85.873 Y80.141 E0.13974
G1 X86.208 Y79.87 E0.15407
G1 X86.64 Y79.533 E0.17229
G1 X86.929 Y79.316 E0.18431
G1 X87.933 Y78.587 E0.22558
G1 X88.204 Y78.396 E0.23661
G1 X88.69 Y78.065 E0.25616
G1 X89.038 Y77.838 E0.26998
G1 X90.124 Y77.157 E0.31262
G1 X90.429 Y76.972 E0.32448
G1 X90.971 Y76.656 E0.34535
G1 X91.28 Y76.483 E0.35713
G1 X92.358 Y75.904 E0.39783
G1 X92.672 Y75.741 E0.40959
G1 X93.265 Y75.447 E0.43161
G1 X93.587 Y75.295 E0.44345
G1 X94.681 Y74.799 E0.4834
G1 X95.111 Y74.612 E0.499
G1 X95.594 Y74.412 E0.51639
G1 X95.907 Y74.29 E0.52756
G1 X97.146 Y73.826 E0.57156
G1 X97.486 Y73.705 E0.58357
G1 X98.034 Y73.52 E0.6028
G1 X98.413 Y73.399 E0.61604
G1 X99.771 Y72.996 E0.66315
G1 X100.079 Y72.912 E0.67377
G1 X100.598 Y72.777 E0.69161
G1 X100.927 Y72.697 E0.70287
G1 X102.048 Y72.442 E0.7411
G1 X102.513 Y72.345 E0.7569
G1 X103.059 Y72.24 E0.7754
G1 X103.423 Y72.176 E0.78769
G1 X104.668 Y71.981 E0.8296
G1 X105.006 Y71.934 E0.84095
G1 X105.598 Y71.86 E0.8608
G1 X106.008 Y71.816 E0.87451
G1 X107.237 Y71.709 E0.91554
G1 X107.658 Y71.679 E0.92958
G1 X108.189 Y71.649 E0.94727
G1 X108.567 Y71.635 E0.95985
G1 X109.852 Y71.61 E1.0026
G1 X110.218 Y71.608 E1.01477
G1 X110.812 Y71.615 E1.03453
G1 X111.189 Y71.627 E1.04707
G1 X112.402 Y71.685 E1.08747
G1 X112.729 Y71.705 E1.09836
G1 X113.347 Y71.753 E1.11898
G1 X113.762 Y71.793 E1.13285
G1 X115.013 Y71.938 E1.17473
G1 X115.432 Y71.993 E1.18879
G1 X115.95 Y72.07 E1.20621
G1 X116.325 Y72.133 E1.21885
G1 X117.561 Y72.362 E1.26066
G1 X117.941 Y72.438 E1.27355
G1 X118.516 Y72.564 E1.29313
G1 X118.857 Y72.645 E1.30479
G1 X120.118 Y72.967 E1.34807
G1 X120.461 Y73.061 E1.3599
G1 X121.016 Y73.222 E1.37912
G1 X121.391 Y73.338 E1.39218
G1 X122.727 Y73.779 E1.43897
G1 X123.047 Y73.893 E1.45027
G1 X123.472 Y74.049 E1.46533
G1 X123.821 Y74.183 E1.47776
G1 X125.008 Y74.665 E1.52037
G1 X125.331 Y74.803 E1.53206
G1 X125.865 Y75.04 E1.55149
G1 X126.216 Y75.203 E1.56436
G1 X127.332 Y75.746 E1.60564
G1 X127.702 Y75.933 E1.61943
G1 X128.202 Y76.196 E1.63822
G1 X128.541 Y76.383 E1.65109
G1 X129.579 Y76.979 E1.6909
G1 X129.931 Y77.188 E1.70452
G1 X130.077 Y77.276 E1.71019
G1 X130.444 Y77.504 E1.72456
G1 X130.743 Y77.697 E1.7364
G1 X131.803 Y78.404 E1.77877
G1 X132.091 Y78.603 E1.79042
G1 X132.591 Y78.96 E1.81085
G1 X132.901 Y79.19 E1.82369
G1 X133.864 Y79.93 E1.86408
G1 X134.145 Y80.152 E1.876
G1 X134.61 Y80.534 E1.89601
G1 X134.91 Y80.791 E1.90915
G1 X136.001 Y81.757 E1.95762
G1 X136.25 Y81.986 E1.96887
G1 X136.56 Y82.278 E1.98303
G1 X136.846 Y82.557 E1.99632
G1 X137.689 Y83.411 E2.03623
G1 X138.007 Y83.743 E2.05152
G1 X138.324 Y84.083 E2.06698
G1 X138.596 Y84.386 E2.08053
G1 X139.453 Y85.379 E2.12415
G1 X139.672 Y85.642 E2.13554
G1 X140.056 Y86.116 E2.15583
G1 X140.305 Y86.434 E2.16926
G1 X141.02 Y87.386 E2.20886
G1 X141.33 Y87.815 E2.22646
G1 X141.61 Y88.215 E2.2427
G1 X141.814 Y88.518 E2.25485
G1 X142.57 Y89.681 E2.30099
G1 X142.783 Y90.025 E2.31445
G1 X143.011 Y90.404 E2.32916
G1 X143.183 Y90.7 E2.34054
G1 X143.777 Y91.761 E2.38099
G1 X143.973 Y92.124 E2.39471
G1 X144.236 Y92.632 E2.41373
G1 X144.403 Y92.969 E2.42624
G1 X144.949 Y94.124 E2.46873
G1 X145.106 Y94.468 E2.48131
G1 X145.352 Y95.036 E2.5019
G1 X145.482 Y95.354 E2.51332
G1 X145.925 Y96.481 E2.5536
G1 X146.067 Y96.857 E2.56697
G1 X146.269 Y97.421 E2.58689
G1 X146.388 Y97.776 E2.59935
G1 X146.763 Y98.96 E2.64065
G1 X146.867 Y99.306 E2.65267
G1 X147.035 Y99.903 E2.6733
G1 X147.126 Y100.25 E2.68523
G1 X147.427 Y101.483 E2.72744
G1 X147.498 Y101.792 E2.73799
G1 X147.625 Y102.386 E2.75819
G1 X147.707 Y102.813 E2.77265
G1 X147.913 Y104.005 E2.81289
G1 X147.965 Y104.335 E2.824
G1 X148.054 Y104.963 E2.8451
G1 X148.103 Y105.359 E2.85837
G1 X148.232 Y106.589 E2.8995
G1 X148.269 Y106.997 E2.91313
G1 X148.31 Y107.573 E2.93233
G1 X148.328 Y107.921 E2.94392
G1 X148.374 Y109.184 E2.98596
G1 X148.384 Y109.698 E3.00306
G1 X148.385 Y110.156 E3.01829
G1 X148.38 Y110.527 E3.03063
G1 X148.34 Y111.795 E3.07283
G1 X148.323 Y112.16 E3.08498
G1 X148.286 Y112.75 E3.10464
G1 X148.256 Y113.121 E3.11702
G1 X148.136 Y114.335 E3.1576
G1 X148.097 Y114.683 E3.16924
G1 X148.072 Y114.887 E3.17608
G1 X148.012 Y115.335 E3.19111
G1 X147.957 Y115.695 E3.20322
G1 X147.752 Y116.917 E3.24444
G1 X147.699 Y117.209 E3.25431
G1 X147.583 Y117.802 E3.2744
G1 X147.485 Y118.253 E3.28975
G1 X147.142 Y119.678 E3.3385
G1 X147.061 Y119.985 E3.34906
G1 X146.952 Y120.383 E3.36279
G1 X146.847 Y120.743 E3.37526
G1 X146.473 Y121.946 E3.41716
G1 X146.376 Y122.244 E3.42759
G1 X146.188 Y122.793 E3.44689
G1 X146.041 Y123.195 E3.46112
G1 X145.571 Y124.411 E3.50448
G1 X145.437 Y124.743 E3.51639
G1 X145.215 Y125.266 E3.53529
G1 X145.061 Y125.612 E3.54789
G1 X144.531 Y126.75 E3.58964
G1 X144.351 Y127.121 E3.60335
G1 X144.101 Y127.614 E3.62174
G1 X143.931 Y127.937 E3.63388
G1 X143.325 Y129.037 E3.67565
G1 X143.134 Y129.371 E3.68845
G1 X142.834 Y129.875 E3.70796
G1 X142.653 Y130.167 E3.71938
G1 X141.834 Y131.44 E3.76973
G1 X141.633 Y131.737 E3.78166
G1 X141.397 Y132.076 E3.79539
G1 X141.201 Y132.349 E3.80657
G1 X140.457 Y133.351 E3.84808
G1 X140.245 Y133.627 E3.85966
G1 X139.851 Y134.124 E3.88075
G1 X139.594 Y134.436 E3.89419
G1 X138.819 Y135.343 E3.93387
G1 X138.589 Y135.605 E3.94547
G1 X138.139 Y136.1 E3.96772
G1 X137.89 Y136.363 E3.97977
G1 X137.042 Y137.231 E4.02013
G1 X136.752 Y137.52 E4.03374
G1 X136.352 Y137.905 E4.05221
G1 X136.066 Y138.169 E4.06515
G1 X135.122 Y139.011 E4.10723
G1 X134.826 Y139.268 E4.12027
G1 X134.372 Y139.647 E4.13994
G1 X134.104 Y139.863 E4.15138
G1 X133.124 Y140.627 E4.19271
G1 X132.763 Y140.9 E4.20777
G1 X132.351 Y141.2 E4.22472
G1 X132.051 Y141.41 E4.2369
G1 X130.962 Y142.146 E4.28061
G1 X130.677 Y142.331 E4.29192
G1 X130.199 Y142.633 E4.31072
G1 X129.851 Y142.845 E4.32427
G1 X128.784 Y143.465 E4.36532
G1 X128.455 Y143.65 E4.37787
G1 X127.92 Y143.938 E4.39808
G1 X127.585 Y144.11 E4.41061
G1 X126.263 Y144.761 E4.45962
G1 X125.989 Y144.888 E4.46966
G1 X125.545 Y145.088 E4.48586
G1 X125.229 Y145.225 E4.49732
G1 X124.116 Y145.685 E4.53737
G1 X123.723 Y145.841 E4.55143
G1 X123.208 Y146.035 E4.56974
G1 X122.856 Y146.159 E4.58215
G1 X121.614 Y146.575 E4.62572
G1 X121.11 Y146.735 E4.6433
G1 X120.728 Y146.849 E4.65656
G1 X120.374 Y146.948 E4.66879
G1 X119.17 Y147.264 E4.71019
G1 X118.767 Y147.363 E4.72399
G1 X118.172 Y147.497 E4.74428
G1 X117.843 Y147.565 E4.75545
G1 X116.624 Y147.798 E4.79673
G1 X116.206 Y147.872 E4.81085
G1 X115.639 Y147.962 E4.82994
G1 X115.256 Y148.015 E4.8428
G1 X114.094 Y148.156 E4.88173
G1 X113.662 Y148.202 E4.89618
G1 X113.128 Y148.25 E4.91402
G1 X112.735 Y148.278 E4.92712
G1 X111.208 Y148.358 E4.97798
G1 X110.896 Y148.367 E4.98836
G1 X110.471 Y148.375 E5.0025
G1 X110.112 Y148.376 E5.01444
G1 X108.884 Y148.359 E5.05529
G1 X108.552 Y148.349 E5.06633
G1 X107.962 Y148.323 E5.08598
G1 X107.549 Y148.297 E5.09974
G1 X106.266 Y148.192 E5.14256
G1 X105.836 Y148.15 E5.15693
G1 X105.332 Y148.093 E5.1738
G1 X104.947 Y148.042 E5.18671
G1 X103.535 Y147.828 E5.23421
G1 X103.149 Y147.761 E5.24724
G1 X102.742 Y147.685 E5.26101
G1 X102.396 Y147.615 E5.27275
G1 X101.174 Y147.346 E5.31437
G1 X100.816 Y147.262 E5.3266
G1 X100.199 Y147.105 E5.34778
G1 X99.867 Y147.014 E5.35923
G1 X98.683 Y146.669 E5.40024
G1 X98.272 Y146.542 E5.41455
G1 X97.742 Y146.369 E5.4331
G1 X97.386 Y146.245 E5.44563
G1 X96.235 Y145.822 E5.48642
G1 X95.818 Y145.662 E5.50128
G1 X95.334 Y145.467 E5.51863
G1 X94.977 Y145.315 E5.53154
G1 X93.827 Y144.802 E5.57342
G1 X93.447 Y144.625 E5.58736
G1 X92.971 Y144.394 E5.60496
G1 X92.648 Y144.23 E5.61701
G1 X91.502 Y143.624 E5.66012
G1 X91.186 Y143.451 E5.67211
G1 X90.682 Y143.163 E5.69141
G1 X90.344 Y142.961 E5.70451
G1 X89.273 Y142.297 E5.74642
G1 X88.975 Y142.107 E5.75818
G1 X88.465 Y141.768 E5.77854
G1 X88.161 Y141.557 E5.79085
G1 X86.987 Y140.713 E5.83894
G1 X86.723 Y140.514 E5.84994
G1 X86.351 Y140.227 E5.86557
G1 X86.071 Y140.004 E5.87747
G1 X85.135 Y139.232 E5.91783
G1 X84.855 Y138.995 E5.93003
G1 X84.389 Y138.584 E5.95069
G1 X84.125 Y138.343 E5.96258
G1 X83.204 Y137.474 E6.0047
G1 X82.948 Y137.224 E6.0166
G1 X82.518 Y136.791 E6.0369
G1 X82.242 Y136.503 E6.05016
G1 X81.432 Y135.626 E6.08987
G1 X81.169 Y135.332 E6.10299
G1 X80.738 Y134.833 E6.12492
G1 X80.524 Y134.576 E6.13604
G1 X79.76 Y133.63 E6.17649
G1 X79.512 Y133.313 E6.18987
G1 X79.169 Y132.86 E6.20877
G1 X78.933 Y132.535 E6.22213
G1 X78.114 Y131.361 E6.26974
G1 X77.938 Y131.098 E6.28027
G1 X77.715 Y130.758 E6.29379
G1 X77.49 Y130.399 E6.30788
G1 X76.73 Y129.135 E6.35694
G1 X76.552 Y128.825 E6.36883
G1 X76.356 Y128.474 E6.3822
G1 X76.179 Y128.143 E6.39468
G1 X75.552 Y126.922 E6.44033
G1 X75.362 Y126.535 E6.45467
G1 X75.187 Y126.164 E6.46832
G1 X75.032 Y125.818 E6.48093
G1 X74.48 Y124.535 E6.52738
G1 X74.342 Y124.2 E6.53943
G1 X74.172 Y123.766 E6.55494
G1 X74.046 Y123.429 E6.5669
G1 X73.627 Y122.247 E6.60861
G1 X73.524 Y121.942 E6.61932
G1 X73.346 Y121.389 E6.63864
G1 X73.219 Y120.965 E6.65336
G1 X72.846 Y119.623 E6.69969
G1 X72.758 Y119.286 E6.71127
G1 X72.643 Y118.815 E6.7274
G1 X72.56 Y118.449 E6.73988
G1 X72.31 Y117.249 E6.78065
G1 X72.24 Y116.889 E6.79285
G1 X72.203 Y116.689 E6.79961
G1 X72.135 Y116.294 E6.81295
G1 X72.08 Y115.938 E6.82493
G1 X71.903 Y114.661 E6.86781
G1 X71.859 Y114.311 E6.87954
G1 X71.795 Y113.701 E6.89994
G1 X71.762 Y113.334 E6.91219
G1 X71.676 Y112.12 E6.95267
G1 X71.652 Y111.676 E6.96746
G1 X71.632 Y111.166 E6.98444
G1 X71.624 Y110.778 E6.99735
G1 X71.622 Y109.295 E7.04667
G1 X71.628 Y108.985 E7.05698
G1 X71.642 Y108.532 E7.07206
G1 X71.66 Y108.16 E7.08444
G1 X71.741 Y106.912 E7.12604
G1 X71.768 Y106.573 E7.13735
G1 X71.828 Y105.953 E7.15807
G1 X71.87 Y105.586 E7.17036
G1 X72.04 Y104.311 E7.21314
G1 X72.118 Y103.797 E7.23043
G1 X72.189 Y103.375 E7.24466
G1 X72.256 Y103.016 E7.25681
G1 X72.504 Y101.792 E7.29835
G1 X72.589 Y101.4 E7.31169
G1 X72.714 Y100.865 E7.32996
G1 X72.815 Y100.472 E7.34346
G1 X73.194 Y99.1 E7.3908
G1 X73.294 Y98.766 E7.40239
G1 X73.429 Y98.333 E7.41748
G1 X73.541 Y97.992 E7.42942
G1 X73.945 Y96.831 E7.4703
G1 X74.087 Y96.441 E7.48411
G1 X74.299 Y95.892 E7.50368
G1 X74.437 Y95.551 E7.51592
G1 X74.91 Y94.439 E7.55611
G1 X75.076 Y94.063 E7.56978
G1 X75.32 Y93.536 E7.5891
G1 X75.48 Y93.209 E7.6012
G1 X76.053 Y92.081 E7.64328
G1 X76.233 Y91.739 E7.65614
G1 X76.507 Y91.238 E7.67513
G1 X76.708 Y90.886 E7.68861
G1 X77.439 Y89.666 E7.73592
G1 X77.594 Y89.418 E7.74564
G1 X77.845 Y89.025 E7.76115
G1 X78.075 Y88.68 E7.77494
G1 X78.775 Y87.67 E7.81582
G1 X78.964 Y87.405 E7.82664
G1 X79.327 Y86.913 E7.84698
G1 X79.575 Y86.591 E7.8605
G1 X80.463 Y85.478 E7.90785
G1 X80.689 Y85.207 E7.91959
G1 X80.987 Y84.859 E7.93483
G1 X81.22 Y84.595 E7.94654
G1 X82.075 Y83.659 E7.9887
G1 X82.368 Y83.348 E8.00292
G1 X82.754 Y82.953 E8.02128
G0 F6000 X83.04 Y83.233
G1 F1200 X83.286 Y82.99 E8.03279
G1 X84.3 Y82.022 E8.07941
G1 X84.532 Y81.811 E8.08984
G1 X84.908 Y81.476 E8.10659
G1 X85.162 Y81.256 E8.11777
G1 X86.129 Y80.448 E8.15968
G1 X86.457 Y80.183 E8.17371
G1 X86.886 Y79.848 E8.19181
G1 X87.164 Y79.64 E8.20336
G1 X88.168 Y78.911 E8.24462
G1 X88.429 Y78.727 E8.25525
G1 X88.915 Y78.396 E8.2748
G1 X89.251 Y78.177 E8.28814
G1 X90.337 Y77.496 E8.33078
G1 X90.634 Y77.315 E8.34235
G1 X91.171 Y77.002 E8.36302
G1 X91.469 Y76.836 E8.37436
G1 X92.547 Y76.257 E8.41506
G1 X93.016 Y76.015 E8.43262
G1 X93.442 Y75.805 E8.44841
G1 X93.752 Y75.659 E8.45981
G1 X94.846 Y75.163 E8.49976
G1 X95.268 Y74.98 E8.51506
G1 X95.746 Y74.783 E8.53226
G1 X96.047 Y74.664 E8.54302
G1 X97.286 Y74.2 E8.58703
G1 X97.614 Y74.084 E8.5986
G1 X98.162 Y73.899 E8.61783
G1 X98.527 Y73.783 E8.63057
G1 X99.879 Y73.382 E8.67748
G1 X100.18 Y73.299 E8.68786
G1 X100.699 Y73.164 E8.7057
G1 X101.016 Y73.087 E8.71655
G1 X102.137 Y72.832 E8.75478
G1 X102.592 Y72.737 E8.77024
G1 X103.134 Y72.633 E8.7886
G1 X103.485 Y72.572 E8.80045
G1 X104.73 Y72.377 E8.84236
G1 X105.055 Y72.331 E8.85328
G1 X105.647 Y72.257 E8.87312
G1 X106.043 Y72.215 E8.88637
G1 X107.272 Y72.108 E8.9274
G1 X107.686 Y72.078 E8.94121
G1 X108.21 Y72.048 E8.95866
G1 X108.575 Y72.035 E8.97081
G1 X109.86 Y72.01 E9.01356
G1 X110.218 Y72.008 E9.02547
G1 X110.807 Y72.015 E9.04506
G1 X111.17 Y72.026 E9.05714
G1 X112.383 Y72.084 E9.09753
G1 X112.698 Y72.104 E9.10802
G1 X113.316 Y72.152 E9.12864
G1 X113.715 Y72.19 E9.14197
G1 X114.966 Y72.335 E9.18386
G1 X115.497 Y72.407 E9.20168
G1 X115.891 Y72.466 E9.21493
G1 X116.252 Y72.526 E9.2271
G1 X117.488 Y72.755 E9.26891
G1 X117.861 Y72.83 E9.28157
G1 X118.429 Y72.954 E9.3009
G1 X118.758 Y73.033 E9.31216
G1 X120.019 Y73.355 E9.35544
G1 X120.349 Y73.445 E9.36682
G1 X120.904 Y73.606 E9.38604
G1 X121.266 Y73.718 E9.39864
G1 X122.595 Y74.157 E9.4452
G1 X122.91 Y74.268 E9.4563
G1 X123.335 Y74.424 E9.47136
G1 X123.67 Y74.554 E9.48331
G1 X124.857 Y75.036 E9.52592
G1 X125.169 Y75.168 E9.53719
G1 X125.703 Y75.405 E9.55662
G1 X126.041 Y75.562 E9.56902
G1 X127.157 Y76.105 E9.6103
G1 X127.52 Y76.289 E9.62383
G1 X128.015 Y76.55 E9.64245
G1 X128.342 Y76.73 E9.65486
G1 X129.38 Y77.326 E9.69467
G1 X129.726 Y77.531 E9.70805
G1 X130.233 Y77.844 E9.72787
G1 X130.521 Y78.03 E9.73927
G1 X131.581 Y78.737 E9.78165
G1 X131.858 Y78.928 E9.79284
G1 X132.358 Y79.285 E9.81327
G1 X132.658 Y79.507 E9.82568
G1 X133.621 Y80.247 E9.86608
G1 X133.891 Y80.461 E9.87754
G1 X134.356 Y80.843 E9.89755
G1 X134.645 Y81.09 E9.9102
G1 X135.732 Y82.052 E9.95848
G1 X135.976 Y82.277 E9.96952
G1 X136.286 Y82.569 E9.98368
G1 X136.562 Y82.838 E9.9965
G1 X137.405 Y83.692 E10.03641
G1 X137.793 Y84.1 E10.05514
G1 X138.031 Y84.356 E10.06676
G1 X138.293 Y84.647 E10.07979
G1 X139.15 Y85.64 E10.12341
G1 X139.361 Y85.894 E10.1344
G1 X139.745 Y86.368 E10.15469
G1 X139.985 Y86.674 E10.16762
G1 X140.7 Y87.626 E10.20722
G1 X140.93 Y87.943 E10.22025
G1 X141.282 Y88.444 E10.24061
G1 X141.479 Y88.736 E10.25233
G1 X142.231 Y89.893 E10.29822
G1 X142.44 Y90.231 E10.31144
G1 X142.668 Y90.61 E10.32615
G1 X142.834 Y90.896 E10.33715
G1 X143.428 Y91.957 E10.37759
G1 X143.62 Y92.312 E10.39102
G1 X143.881 Y92.815 E10.40986
G1 X144.041 Y93.14 E10.42191
G1 X144.668 Y94.47 E10.47082
G1 X144.816 Y94.802 E10.48291
G1 X144.984 Y95.193 E10.49706
G1 X145.11 Y95.5 E10.5081
G1 X145.553 Y96.627 E10.54838
G1 X145.692 Y96.996 E10.56149
G1 X145.892 Y97.555 E10.58124
G1 X146.006 Y97.896 E10.5932
G1 X146.438 Y99.265 E10.64094
G1 X146.532 Y99.588 E10.65213
G1 X146.65 Y100.011 E10.66674
G1 X146.738 Y100.345 E10.67822
G1 X147.039 Y101.578 E10.72044
G1 X147.107 Y101.876 E10.7306
G1 X147.234 Y102.47 E10.75081
G1 X147.313 Y102.881 E10.76473
G1 X147.519 Y104.073 E10.80496
G1 X147.569 Y104.391 E10.81567
G1 X147.658 Y105.019 E10.83676
G1 X147.705 Y105.4 E10.84953
G1 X147.834 Y106.63 E10.89067
G1 X147.87 Y107.031 E10.90406
G1 X147.91 Y107.6 E10.92303
G1 X147.928 Y107.935 E10.93419
G1 X147.974 Y109.198 E10.97622
G1 X147.984 Y109.699 E10.99289
G1 X147.985 Y110.157 E11.00812
G1 X147.98 Y110.514 E11.02
G1 X147.94 Y111.782 E11.06219
G1 X147.924 Y112.14 E11.07411
G1 X147.887 Y112.725 E11.09361
G1 X147.858 Y113.082 E11.10552
G1 X147.72 Y114.463 E11.15168
G1 X147.675 Y114.834 E11.16411
G1 X147.615 Y115.282 E11.17915
G1 X147.563 Y115.629 E11.19082
G1 X147.358 Y116.851 E11.23203
G1 X147.307 Y117.132 E11.24153
G1 X147.191 Y117.725 E11.26162
