;FLAVOR:Marlin
;TIME:20986
;Filament used: 15.4771m
;Layer height: 0.2
;MINX:39.298
;MINY:39.298
;MINZ:0.2
;MAXX:180.702
;MAXY:180.702
;MAXZ:15
;Generated with Creality Slicer 4.8.2-291
M140 S60
M105
M190 S60
M104 S200
M105
M109 S200
M82 ;absolute extrusion mode

G28 ;Home

G92 E0 ;Reset Extruder
G1 Z2.0 F3000 ;Move Z Axis up
G1 X10.1 Y20 Z0.28 F5000.0 ;Move to start position
G1 X10.1 Y200.0 Z0.28 F1500.0 E15 ;Draw the first line
G1 X10.4 Y200.0 Z0.28 F5000.0 ;Move to side a little
G1 X10.4 Y20 Z0.28 F1500.0 E30 ;Draw the second line
G92 E0 ;Reset Extruder
G1 Z2.0 F3000 ;Move Z Axis up

G92 E0
G92 E0
G1 F1500 E-4
;LAYER_COUNT:75
;LAYER:0
M107
G0 F6000 X42.511 Y42.793 Z0.2
;TYPE:SKIRT
G1 F1500 E0
G1 F1200 X43.195 Y42.152 E0.03118
G1 X43.949 Y41.558 E0.0631
G1 X44.152 Y41.412 E0.07142
G1 X44.936 Y40.897 E0.10262
G1 X45.761 Y40.451 E0.13381
G1 X46.621 Y40.077 E0.165
G1 X47.51 Y39.778 E0.1962
G1 X48.603 Y39.52 E0.23355
G1 X48.806 Y39.483 E0.24041
G1 X49.735 Y39.355 E0.27161
G1 X50.344 Y39.314 E0.29191
G1 X50.75 Y39.302 E0.30542
G1 X51.173 Y39.298 E0.31949
G1 X168.572 Y39.298 E4.22419
G1 X169.459 Y39.31 E4.2537
G1 X170.395 Y39.365 E4.28488
G1 X171.323 Y39.499 E4.31607
G1 X172.237 Y39.711 E4.34727
G1 X173.129 Y40.001 E4.37847
G1 X174.234 Y40.483 E4.41857
G1 X174.554 Y40.644 E4.43048
G1 X175.373 Y41.1 E4.46166
G1 X176.15 Y41.625 E4.49285
G1 X176.88 Y42.215 E4.52407
G1 X177.557 Y42.864 E4.55526
G1 X178.176 Y43.569 E4.58646
G1 X178.732 Y44.323 E4.61762
G1 X179.223 Y45.123 E4.64884
G1 X179.643 Y45.961 E4.68002
G1 X179.991 Y46.832 E4.71122
G1 X180.141 Y47.292 E4.72731
G1 X180.224 Y47.567 E4.73686
G1 X180.456 Y48.475 E4.76803
G1 X180.611 Y49.4 E4.79923
G1 X180.685 Y50.329 E4.83022
G1 X180.697 Y50.75 E4.84423
G1 X180.702 Y51.223 E4.85997
G1 X180.701 Y168.689 E8.7669
G1 X180.691 Y169.424 E8.79135
G1 X180.638 Y170.36 E8.82253
G1 X180.506 Y171.289 E8.85374
G1 X180.327 Y172.086 E8.88091
G1 X180.272 Y172.294 E8.88806
G1 X179.993 Y173.19 E8.91928
G1 X179.64 Y174.058 E8.95044
G1 X179.214 Y174.894 E8.98165
G1 X178.718 Y175.69 E9.01284
G1 X178.156 Y176.441 E9.04404
G1 X177.532 Y177.141 E9.07523
G1 X176.663 Y177.946 E9.11463
G1 X176.451 Y178.122 E9.12379
G1 X175.705 Y178.689 E9.15496
G1 X174.913 Y179.191 E9.18615
G1 X174.081 Y179.624 E9.21734
G1 X173.215 Y179.985 E9.24855
G1 X172.321 Y180.27 E9.27976
G1 X171.397 Y180.48 E9.31127
G1 X171.194 Y180.517 E9.31814
G1 X170.265 Y180.645 E9.34933
G1 X169.656 Y180.686 E9.36963
G1 X169.25 Y180.698 E9.38314
G1 X168.827 Y180.702 E9.39721
G1 X51.259 Y180.701 E13.30754
G1 X50.541 Y180.69 E13.33142
G1 X49.605 Y180.635 E13.3626
G1 X48.677 Y180.501 E13.39379
G1 X47.763 Y180.289 E13.425
G1 X46.871 Y179.999 E13.45619
G1 X45.742 Y179.505 E13.49718
G1 X45.422 Y179.343 E13.50911
G1 X44.604 Y178.884 E13.54031
G1 X43.828 Y178.357 E13.57151
G1 X43.1 Y177.766 E13.60269
G1 X42.424 Y177.115 E13.63391
G1 X41.807 Y176.409 E13.66509
G1 X41.252 Y175.653 E13.69629
G1 X40.764 Y174.852 E13.72748
G1 X40.345 Y174.013 E13.75868
G1 X39.863 Y172.721 E13.80454
G1 X39.779 Y172.444 E13.81417
G1 X39.546 Y171.536 E13.84535
G1 X39.39 Y170.611 E13.87655
G1 X39.311 Y169.591 E13.91057
G1 X39.302 Y169.195 E13.92375
G1 X39.298 Y168.777 E13.93765
G1 X39.299 Y51.238 E17.84701
G1 X39.31 Y50.547 E17.87
G1 X39.365 Y49.611 E17.90119
G1 X39.5 Y48.682 E17.93241
G1 X39.687 Y47.862 E17.96038
G1 X39.75 Y47.628 E17.96844
G1 X40.032 Y46.734 E17.99962
G1 X40.39 Y45.867 E18.03082
G1 X40.82 Y45.033 E18.06203
G1 X41.319 Y44.239 E18.09322
G1 X41.884 Y43.491 E18.1244
G1 X42.511 Y42.793 E18.1556
G0 F6000 X42.868 Y43.001
G1 F1200 X43.546 Y42.378 E18.18623
G1 X44.183 Y41.883 E18.21306
G1 X44.386 Y41.737 E18.22138
G1 X45.156 Y41.232 E18.252
G1 X45.967 Y40.796 E18.28263
G1 X46.813 Y40.432 E18.31326
G1 X47.687 Y40.143 E18.34388
G1 X48.674 Y39.914 E18.37758
G1 X48.877 Y39.877 E18.38444
G1 X49.789 Y39.751 E18.41506
G1 X50.36 Y39.713 E18.4341
G1 X50.754 Y39.702 E18.4472
G1 X51.177 Y39.698 E18.46127
G1 X168.572 Y39.698 E22.36585
G1 X169.452 Y39.71 E22.39512
G1 X170.371 Y39.764 E22.42574
G1 X171.282 Y39.898 E22.45636
G1 X172.178 Y40.11 E22.48699
G1 X173.052 Y40.399 E22.51761
G1 X174.054 Y40.84 E22.55402
G1 X174.374 Y41.001 E22.56593
G1 X175.178 Y41.45 E22.59656
G1 X175.939 Y41.967 E22.62716
G1 X176.653 Y42.548 E22.65778
G1 X177.314 Y43.19 E22.68842
G1 X177.917 Y43.886 E22.71905
G1 X178.457 Y44.631 E22.74966
G1 X178.93 Y45.421 E22.78028
G1 X179.333 Y46.249 E22.81091
G1 X179.758 Y47.407 E22.85194
G1 X179.841 Y47.682 E22.86149
G1 X180.068 Y48.574 E22.8921
G1 X180.218 Y49.483 E22.92275
G1 X180.285 Y50.344 E22.95147
G1 X180.297 Y50.754 E22.96511
G1 X180.302 Y51.223 E22.98071
G1 X180.301 Y168.683 E26.88745
G1 X180.291 Y169.418 E26.9119
G1 X180.239 Y170.337 E26.94251
G1 X180.106 Y171.248 E26.97313
G1 X179.94 Y171.984 E26.99823
G1 X179.885 Y172.192 E27.00538
G1 X179.611 Y173.071 E27.03601
G1 X179.262 Y173.923 E27.06663
G1 X178.84 Y174.741 E27.09724
G1 X178.349 Y175.52 E27.12787
G1 X177.793 Y176.253 E27.15847
G1 X177.174 Y176.935 E27.1891
G1 X176.408 Y177.638 E27.22368
G1 X176.196 Y177.814 E27.23285
G1 X175.463 Y178.37 E27.26345
G1 X174.684 Y178.862 E27.29409
G1 X173.865 Y179.283 E27.32472
G1 X173.013 Y179.632 E27.35534
G1 X172.134 Y179.906 E27.38597
G1 X171.326 Y180.086 E27.4135
G1 X171.123 Y180.123 E27.42036
G1 X170.211 Y180.249 E27.45098
G1 X169.64 Y180.287 E27.47002
G1 X169.246 Y180.298 E27.48313
G1 X168.823 Y180.302 E27.4972
G1 X51.266 Y180.301 E31.40716
G1 X50.548 Y180.29 E31.43104
G1 X49.629 Y180.236 E31.46166
G1 X48.718 Y180.102 E31.49229
G1 X47.822 Y179.89 E31.52291
G1 X46.948 Y179.601 E31.55353
G1 X45.922 Y179.148 E31.59083
G1 X45.602 Y178.986 E31.60276
G1 X44.8 Y178.535 E31.63336
G1 X44.039 Y178.016 E31.664
G1 X43.327 Y177.433 E31.69461
G1 X42.668 Y176.79 E31.72523
G1 X42.067 Y176.093 E31.75584
G1 X41.529 Y175.346 E31.78646
G1 X41.057 Y174.555 E31.8171
G1 X40.656 Y173.726 E31.84773
G1 X40.246 Y172.605 E31.88743
G1 X40.162 Y172.328 E31.89705
G1 X39.933 Y171.436 E31.92768
G1 X39.783 Y170.528 E31.95829
G1 X39.711 Y169.579 E31.98995
G1 X39.701 Y169.192 E32.00282
G1 X39.698 Y168.879 E32.01323
G1 X39.699 Y51.244 E35.92579
G1 X39.71 Y50.553 E35.94878
G1 X39.765 Y49.634 E35.9794
G1 X39.899 Y48.723 E36.01002
G1 X40.073 Y47.966 E36.03586
G1 X40.136 Y47.732 E36.04392
G1 X40.414 Y46.855 E36.07452
G1 X40.767 Y46.004 E36.10516
G1 X41.192 Y45.188 E36.13576
G1 X41.687 Y44.411 E36.1664
G1 X42.247 Y43.68 E36.19703
G1 X42.868 Y43.001 E36.22763
G0 F6000 X43.225 Y43.211
G1 F1200 X43.896 Y42.607 E36.25766
G1 X44.416 Y42.207 E36.27948
G1 X44.619 Y42.061 E36.2878
G1 X45.375 Y41.567 E36.31784
G1 X46.172 Y41.141 E36.34789
G1 X47.003 Y40.788 E36.37792
G1 X47.862 Y40.509 E36.40796
G1 X48.746 Y40.307 E36.43812
G1 X48.949 Y40.27 E36.44498
G1 X49.844 Y40.148 E36.47503
G1 X50.376 Y40.113 E36.49276
G1 X50.758 Y40.102 E36.50547
G1 X51.181 Y40.098 E36.51954
G1 X168.572 Y40.098 E40.42398
G1 X169.446 Y40.11 E40.45305
G1 X170.348 Y40.164 E40.48311
G1 X171.241 Y40.297 E40.51314
G1 X172.119 Y40.509 E40.54318
G1 X172.975 Y40.798 E40.57323
G1 X173.874 Y41.197 E40.60594
G1 X174.194 Y41.358 E40.61786
G1 X174.982 Y41.799 E40.64789
G1 X175.728 Y42.309 E40.67795
G1 X176.426 Y42.882 E40.70798
G1 X177.071 Y43.514 E40.73802
G1 X177.657 Y44.202 E40.76808
G1 X178.18 Y44.938 E40.79811
G1 X178.635 Y45.718 E40.82814
G1 X179.02 Y46.535 E40.85818
G1 X179.375 Y47.523 E40.8931
G1 X179.458 Y47.798 E40.90265
G1 X179.68 Y48.673 E40.93268
G1 X179.824 Y49.565 E40.96273
G1 X179.886 Y50.359 E40.98922
G1 X179.897 Y50.759 E41.00253
G1 X179.902 Y51.223 E41.01796
G1 X179.901 Y168.678 E44.92453
G1 X179.891 Y169.413 E44.94898
G1 X179.839 Y170.314 E44.97899
G1 X179.707 Y171.208 E45.00905
G1 X179.553 Y171.881 E45.03201
G1 X179.498 Y172.089 E45.03917
G1 X179.229 Y172.952 E45.06924
G1 X178.884 Y173.786 E45.09925
G1 X178.467 Y174.587 E45.12929
G1 X177.981 Y175.348 E45.15932
G1 X177.43 Y176.064 E45.18937
G1 X176.817 Y176.727 E45.2194
G1 X176.152 Y177.33 E45.24926
G1 X175.94 Y177.506 E45.25843
G1 X175.221 Y178.052 E45.28845
G1 X174.455 Y178.531 E45.3185
G1 X173.651 Y178.941 E45.34852
G1 X172.813 Y179.279 E45.37857
G1 X171.949 Y179.541 E45.4086
G1 X171.254 Y179.693 E45.43226
G1 X171.051 Y179.73 E45.43913
G1 X170.156 Y179.852 E45.46917
G1 X169.624 Y179.887 E45.4869
G1 X169.242 Y179.898 E45.49961
G1 X168.819 Y179.902 E45.51368
G1 X51.272 Y179.901 E49.42331
G1 X50.554 Y179.89 E49.4472
G1 X49.652 Y179.836 E49.47725
G1 X48.759 Y179.703 E49.50728
G1 X47.881 Y179.491 E49.53732
G1 X47.025 Y179.202 E49.56737
G1 X46.103 Y178.791 E49.60094
G1 X45.783 Y178.629 E49.61287
G1 X44.996 Y178.186 E49.64291
G1 X44.251 Y177.675 E49.67296
G1 X43.555 Y177.1 E49.70299
G1 X42.912 Y176.466 E49.73302
G1 X42.328 Y175.777 E49.76306
G1 X41.807 Y175.04 E49.79308
G1 X41.353 Y174.259 E49.82313
G1 X40.97 Y173.441 E49.85317
G1 X40.629 Y172.489 E49.8868
G1 X40.545 Y172.212 E49.89643
G1 X40.321 Y171.337 E49.92647
G1 X40.176 Y170.446 E49.95649
G1 X40.111 Y169.567 E49.98581
G1 X40.101 Y169.188 E49.99842
G1 X40.098 Y168.875 E50.00883
G1 X40.099 Y51.251 E53.92102
G1 X40.11 Y50.56 E53.94401
G1 X40.165 Y49.658 E53.97406
G1 X40.298 Y48.765 E54.00409
G1 X40.46 Y48.07 E54.02783
G1 X40.523 Y47.836 E54.03589
G1 X40.796 Y46.975 E54.06593
G1 X41.144 Y46.142 E54.09596
G1 X41.565 Y45.343 E54.12599
G1 X42.054 Y44.584 E54.15602
G1 X42.609 Y43.872 E54.18605
G1 X43.225 Y43.211 E54.2161
G1 F1500 E50.2161
;MESH:Body1.stl
G0 F6000 X50.295 Y49.752
G0 X50.788 Y50.718
G0 X169.102 Y50.898
;TYPE:WALL-INNER
G1 F1500 E54.2161
G1 F1200 X169.102 Y169.102 E58.14758
G1 X50.898 Y169.102 E62.07906
G1 X50.898 Y50.898 E66.01054
G1 X169.102 Y50.898 E69.94203
G0 F6000 X169.46 Y50.599
;TYPE:WALL-OUTER
G1 F1200 X169.502 Y50.748 E69.94717
G1 X169.502 Y169.25 E73.88857
G1 X169.459 Y169.403 E73.89385
G1 X169.265 Y169.502 E73.9011
G1 X50.739 Y169.502 E77.84329
G1 X50.54 Y169.401 E77.85071
G1 X50.498 Y169.252 E77.85586
G1 X50.498 Y50.75 E81.79725
G1 X50.541 Y50.597 E81.80254
G1 X50.735 Y50.498 E81.80978
G1 X169.261 Y50.498 E85.75197
G1 X169.46 Y50.599 E85.75939
G0 F6000 X169.215 Y50.801
G0 X168.712 Y51.008
G0 X168.712 Y51.288
;TYPE:SKIN
G1 F1200 X168.712 Y168.712 E89.66493
G1 X51.288 Y168.712 E93.57047
G1 X51.288 Y51.288 E97.47601
G1 X168.712 Y51.288 E101.38155
G0 F6000 X168.551 Y52.02
G1 F1200 X167.978 Y51.447 E101.4085
G0 F6000 X167.413 Y51.447
G1 F1200 X168.551 Y52.586 E101.46205
G0 F6000 X168.551 Y53.151
G1 F1200 X166.847 Y51.447 E101.5422
G0 F6000 X166.281 Y51.447
G1 F1200 X168.551 Y53.717 E101.64898
G0 F6000 X168.551 Y54.283
G1 F1200 X165.716 Y51.447 E101.78235
G0 F6000 X165.15 Y51.447
G1 F1200 X168.551 Y54.848 E101.94232
G0 F6000 X168.551 Y55.414
G1 F1200 X164.584 Y51.447 E102.12892
G0 F6000 X164.019 Y51.447
G1 F1200 X168.551 Y55.98 E102.34211
G0 F6000 X168.551 Y56.545
G1 F1200 X163.453 Y51.447 E102.58191
G0 F6000 X162.887 Y51.447
G1 F1200 X168.551 Y57.111 E102.84832
G0 F6000 X168.551 Y57.677
G1 F1200 X162.322 Y51.447 E103.14134
G0 F6000 X161.756 Y51.447
G1 F1200 X168.551 Y58.242 E103.46096
G0 F6000 X168.551 Y58.808
G1 F1200 X161.19 Y51.447 E103.80719
G0 F6000 X160.624 Y51.447
G1 F1200 X168.551 Y59.374 E104.18006
G0 F6000 X168.551 Y59.94
G1 F1200 X160.059 Y51.447 E104.57952
G0 F6000 X159.493 Y51.447
G1 F1200 X168.551 Y60.505 E105.00558
G0 F6000 X168.551 Y61.071
G1 F1200 X158.927 Y51.447 E105.45826
G0 F6000 X158.362 Y51.447
G1 F1200 X168.551 Y61.637 E105.93754
G0 F6000 X168.551 Y62.202
G1 F1200 X157.796 Y51.447 E106.44343
G0 F6000 X157.23 Y51.447
G1 F1200 X168.551 Y62.768 E106.97593
G0 F6000 X168.551 Y63.334
G1 F1200 X156.665 Y51.447 E107.53504
G0 F6000 X156.099 Y51.447
G1 F1200 X168.551 Y63.899 E108.12074
G0 F6000 X168.551 Y64.465
G1 F1200 X155.533 Y51.447 E108.73307
G0 F6000 X154.968 Y51.447
G1 F1200 X168.551 Y65.031 E109.37199
G0 F6000 X168.551 Y65.596
G1 F1200 X154.402 Y51.447 E110.03752
G0 F6000 X153.836 Y51.447
G1 F1200 X168.551 Y66.162 E110.72967
G0 F6000 X168.551 Y66.728
G1 F1200 X153.271 Y51.447 E111.44842
G0 F6000 X152.705 Y51.447
G1 F1200 X168.551 Y67.293 E112.19376
G0 F6000 X168.551 Y67.859
G1 F1200 X152.139 Y51.447 E112.96573
G0 F6000 X151.573 Y51.447
G1 F1200 X168.551 Y68.425 E113.76433
G0 F6000 X168.551 Y68.99
G1 F1200 X151.008 Y51.447 E114.58949
G0 F6000 X150.442 Y51.447
G1 F1200 X168.551 Y69.556 E115.44129
G0 F6000 X168.551 Y70.122
G1 F1200 X149.876 Y51.447 E116.3197
G0 F6000 X149.311 Y51.447
G1 F1200 X168.551 Y70.688 E117.22472
G0 F6000 X168.551 Y71.253
G1 F1200 X148.745 Y51.447 E118.15633
G0 F6000 X148.179 Y51.447
G1 F1200 X168.551 Y71.819 E119.11457
G0 F6000 X168.551 Y72.385
G1 F1200 X147.614 Y51.447 E120.0994
G0 F6000 X147.048 Y51.447
G1 F1200 X168.551 Y72.95 E121.11084
G0 F6000 X168.551 Y73.516
G1 F1200 X146.482 Y51.447 E122.14889
G0 F6000 X145.917 Y51.447
G1 F1200 X168.551 Y74.082 E123.21355
G0 F6000 X168.551 Y74.647
G1 F1200 X145.351 Y51.447 E124.30481
G0 F6000 X144.785 Y51.447
G1 F1200 X168.551 Y75.213 E125.42269
G0 F6000 X168.551 Y75.779
G1 F1200 X144.22 Y51.447 E126.56717
G0 F6000 X143.654 Y51.447
G1 F1200 X168.551 Y76.344 E127.73825
G0 F6000 X168.551 Y76.91
G1 F1200 X143.088 Y51.447 E128.93595
G0 F6000 X142.523 Y51.447
G1 F1200 X168.551 Y77.476 E130.16025
G0 F6000 X168.551 Y78.041
G1 F1200 X141.957 Y51.447 E131.41115
G0 F6000 X141.391 Y51.447
G1 F1200 X168.551 Y78.607 E132.68867
G0 F6000 X168.551 Y79.173
G1 F1200 X140.825 Y51.447 E133.99282
G0 F6000 X140.26 Y51.447
G1 F1200 X168.551 Y79.739 E135.32356
G0 F6000 X168.551 Y80.304
G1 F1200 X139.694 Y51.447 E136.68091
G0 F6000 X139.128 Y51.447
G1 F1200 X168.551 Y80.87 E138.06488
G0 F6000 X168.551 Y81.436
G1 F1200 X138.563 Y51.447 E139.47544
G0 F6000 X137.997 Y51.447
G1 F1200 X168.551 Y82.001 E140.91261
G0 F6000 X168.551 Y82.567
G1 F1200 X137.431 Y51.447 E142.3764
G0 F6000 X136.866 Y51.447
G1 F1200 X168.551 Y83.133 E143.86679
G0 F6000 X168.551 Y83.698
G1 F1200 X136.3 Y51.447 E145.38378
G0 F6000 X135.734 Y51.447
G1 F1200 X168.551 Y84.264 E146.92739
G0 F6000 X168.551 Y84.83
G1 F1200 X135.169 Y51.447 E148.4976
G0 F6000 X134.603 Y51.447
G1 F1200 X168.551 Y85.395 E150.09441
G0 F6000 X168.551 Y85.961
G1 F1200 X134.037 Y51.447 E151.71784
G0 F6000 X133.472 Y51.447
G1 F1200 X168.551 Y86.527 E153.36787
G0 F6000 X168.551 Y87.092
G1 F1200 X132.906 Y51.447 E155.0445
G0 F6000 X132.34 Y51.447
G1 F1200 X168.551 Y87.658 E156.74776
G0 F6000 X168.551 Y88.224
G1 F1200 X131.775 Y51.447 E158.47761
G0 F6000 X131.209 Y51.447
G1 F1200 X168.551 Y88.789 E160.23406
G0 F6000 X168.551 Y89.355
G1 F1200 X130.643 Y51.447 E162.01714
G0 F6000 X130.077 Y51.447
G1 F1200 X168.551 Y89.921 E163.82684
G0 F6000 X168.551 Y90.487
G1 F1200 X129.512 Y51.447 E165.66314
G0 F6000 X128.946 Y51.447
G1 F1200 X168.551 Y91.052 E167.52604
G0 F6000 X168.551 Y91.618
G1 F1200 X128.38 Y51.447 E169.41556
G0 F6000 X127.815 Y51.447
G1 F1200 X168.551 Y92.184 E171.33168
G0 F6000 X168.551 Y92.749
G1 F1200 X127.249 Y51.447 E173.2744
G0 F6000 X126.683 Y51.447
G1 F1200 X168.551 Y93.315 E175.24374
G0 F6000 X168.551 Y93.881
G1 F1200 X126.118 Y51.447 E177.23968
G0 F6000 X125.552 Y51.447
G1 F1200 X168.551 Y94.446 E179.26222
G0 F6000 X168.551 Y95.012
G1 F1200 X124.986 Y51.447 E181.31139
G0 F6000 X124.421 Y51.447
G1 F1200 X168.551 Y95.578 E183.38715
G0 F6000 X168.551 Y96.143
G1 F1200 X123.855 Y51.447 E185.48951
G0 F6000 X123.289 Y51.447
G1 F1200 X168.551 Y96.709 E187.6185
G0 F6000 X168.551 Y97.275
G1 F1200 X122.724 Y51.447 E189.77408
G0 F6000 X122.158 Y51.447
G1 F1200 X168.551 Y97.84 E191.95627
G0 F6000 X168.551 Y98.406
G1 F1200 X121.592 Y51.447 E194.16507
G0 F6000 X121.026 Y51.447
G1 F1200 X168.551 Y98.972 E196.4005
G0 F6000 X168.551 Y99.538
G1 F1200 X120.461 Y51.447 E198.66253
G0 F6000 X119.895 Y51.447
G1 F1200 X168.551 Y100.103 E200.95116
G0 F6000 X168.551 Y100.669
G1 F1200 X119.329 Y51.447 E203.26642
G0 F6000 X118.764 Y51.447
G1 F1200 X168.551 Y101.235 E205.60827
G0 F6000 X168.551 Y101.8
G1 F1200 X118.198 Y51.447 E207.97672
G0 F6000 X117.632 Y51.447
G1 F1200 X168.551 Y102.366 E210.37179
G0 F6000 X168.551 Y102.932
G1 F1200 X117.067 Y51.447 E212.79346
G0 F6000 X116.501 Y51.447
G1 F1200 X168.551 Y103.497 E215.24174
G0 F6000 X168.551 Y104.063
G1 F1200 X115.935 Y51.447 E217.71663
