; generated by PrusaSlicer 2.9.0 on 2025-09-17 at 06:57:59 UTC

; 

; external perimeters extrusion width = 0.68mm
; perimeters extrusion width = 0.68mm
; infill extrusion width = 0.68mm
; solid infill extrusion width = 0.68mm
; top infill extrusion width = 0.60mm
; support material extrusion width = 0.60mm
; first layer extrusion width = 0.60mm

M201 X500 Y500 Z100 E5000 ; sets maximum accelerations, mm/sec^2
M203 X500 Y500 Z10 E60 ; sets maximum feedrates, mm / sec
M204 P500 R1000 T500 ; sets acceleration (P, T) and retract acceleration (R), mm/sec^2
M205 X8.00 Y8.00 Z0.40 E5.00 ; sets the jerk limits, mm/sec
M205 S0 T0 ; sets the minimum extruding and travel feed rate, mm/sec
;TYPE:Custom
G90 ; use absolute coordinates
M83 ; extruder relative mode
M104 S200 ; set temporary nozzle temp to prevent oozing during homing and auto bed leveling
M140 S60 ; set final bed temp
G4 S30 ; allow partial nozzle warmup
G28 ; home all axis
G29 ; auto bed levelling
G1 Z50 F240
G1 X2.0 Y10 F3000
M104 S220 ; set final nozzle temp
M190 S60 ; wait for bed temp to stabilize
M109 S220 ; wait for nozzle temp to stabilize
G1 Z0.28 F240
G92 E0
G1 X2.0 Y140 E10 F1500 ; prime the nozzle
G1 X2.3 Y140 F5000
G92 E0
G1 X2.3 Y10 E10 F1200 ; prime the nozzle
G92 E0
G21 ; set units to millimeters
G90 ; use absolute coordinates
M83 ; use relative distances for extrusion
; Filament gcode
M107
;LAYER_CHANGE
;Z:0.6
;HEIGHT:0.6
G1 E-5 F3600
G1 Z.6 F4800
G1 X65.162 Y95.382
G1 Z.6
G1 E5 F2400
;TYPE:Skirt/Brim
;WIDTH:0.6
G1 F1800
G1 X66.897 Y94.29 E.28918
G1 X68.789 Y93.291 E.30181
G1 X107.494 Y74.754 E6.05364
G1 X109.129 Y74.066 E.25022
G1 X111.27 Y73.386 E.31688
G1 X113.401 Y72.986 E.30585
G1 X115.085 Y72.879 E.23803
G1 X116.788 Y72.978 E.24063
G1 X118.753 Y73.337 E.28177
G1 X120.429 Y73.891 E.249
G1 X122.161 Y74.746 E.27247
G1 X167.094 Y104.061 E7.56796
G1 X168.374 Y105.089 E.23158
G1 X169.783 Y106.494 E.28068
G1 X170.788 Y107.8 E.23246
G1 X171.638 Y109.166 E.22695
G1 X172.323 Y110.643 E.22966
G1 X172.843 Y112.225 E.23491
G1 X173.127 Y113.628 E.20192
G1 X173.264 Y115.401 E.25085
G1 X173.178 Y117.015 E.228
G1 X172.9 Y118.538 E.21839
G1 X172.318 Y120.36 E.26981
G1 X171.65 Y121.786 E.22213
G1 X170.926 Y122.995 E.19878
G1 X169.81 Y124.46 E.25979
G1 X168.54 Y125.751 E.25546
G1 X167.233 Y126.83 E.23908
G1 X122.329 Y156.161 E7.56577
G1 X120.712 Y156.987 E.25613
G1 X118.857 Y157.635 E.27717
G1 X117.071 Y157.989 E.25684
G1 X115.204 Y158.122 E.26403
G1 X113.605 Y158.039 E.22586
G1 X111.488 Y157.667 E.3032
G1 X109.562 Y157.088 E.2837
G1 X107.671 Y156.33 E.28738
G1 X68.419 Y137.588 E6.13573
G1 X66.455 Y136.516 E.31563
G1 X64.773 Y135.421 E.28311
G1 X62.774 Y133.797 E.36331
G1 X61.721 Y132.745 E.20996
G1 X60.902 Y131.796 E.17683
G1 X59.156 Y129.369 E.42174
G1 X57.706 Y126.731 E.42463
G1 X57.007 Y125.126 E.24694
G1 X56.502 Y123.672 E.21712
G1 X55.901 Y121.222 E.35585
G1 X55.471 Y118.238 E.42527
G1 X55.333 Y115.186 E.43096
G1 X55.507 Y112.436 E.38869
G1 X56.068 Y109.023 E.4879
G1 X56.874 Y106.275 E.40397
G1 X57.81 Y104.089 E.33544
G1 X59.154 Y101.671 E.39023
G1 X60.043 Y100.368 E.22251
G1 X61.058 Y99.107 E.22834
G1 X62.848 Y97.224 E.36648
G1 X63.962 Y96.262 E.20763
G1 X65.09 Y95.435 E.1973
G1 E-3.5 F3600
;WIPE_START
G1 F3840
G1 X65.162 Y95.382 E-.07963
G1 X66.511 Y94.532 E-1.42037
;WIPE_END
G1 X69.031 Y100.937 F4800
G1 E5 F2400
G1 F1800
G1 X69.359 Y100.702 E.05692
G1 X70.337 Y100.108 E.16141
G1 X72.745 Y98.884 E.38104
G1 X76.34 Y97.451 E.54592
G1 X78.21 Y96.877 E.27593
G1 X79.979 Y96.44 E.25704
G1 X83.424 Y95.818 E.49381
G1 X85.965 Y95.536 E.36064
G1 X87.686 Y95.449 E.24308
G1 X90.817 Y95.519 E.44177
G1 X92.017 Y95.648 E.17025
G1 X93.797 Y95.984 E.25552
G1 X95.478 Y96.605 E.25279
G1 X95.964 Y95.077 E.22618
G1 X96.3 Y94.29 E.12071
G1 X97.154 Y92.696 E.25509
G1 X97.716 Y91.836 E.14492
G1 X98.701 Y90.537 E.22996
G1 X100.658 Y88.282 E.42118
G1 X102.705 Y86.232 E.40866
G1 X103.938 Y85.12 E.23421
G1 X105.412 Y83.89 E.27081
G1 X107.538 Y82.382 E.36768
G1 X108.615 Y81.746 E.17644
G1 X110.243 Y80.929 E.25694
G1 X112.331 Y80.106 E.31659
G1 X113.356 Y79.838 E.14945
G1 X114.488 Y79.665 E.16154
G1 X115.769 Y79.666 E.1807
G1 X117.002 Y79.867 E.17622
G1 X118.195 Y80.284 E.17827
G1 X119.322 Y80.964 E.18567
G1 X120.259 Y81.836 E.18056
G1 X121.003 Y82.88 E.18084
G1 X121.394 Y83.663 E.12346
G1 X121.748 Y84.677 E.1515
G1 X121.975 Y85.752 E.15498
G1 X122.069 Y86.746 E.14084
G1 X122.057 Y87.645 E.12683
G1 X121.921 Y88.881 E.1754
G1 X121.607 Y90.176 E.18797
G1 X121.128 Y91.412 E.18699
G1 X120.462 Y92.716 E.20655
G1 X119.143 Y94.859 E.35496
G1 X118.739 Y95.703 E.13199
G1 X119.727 Y97.249 E.25881
G1 X120.368 Y98.74 E.22894
G1 X120.633 Y100.021 E.18453
G1 X120.658 Y101.076 E.14886
G1 X123.428 Y102.863 E.46499
G1 X125.786 Y104.746 E.42567
G1 X126.71 Y105.592 E.17672
G1 X127.505 Y104.657 E.17312
G1 X128.925 Y103.658 E.24491
G1 X130.043 Y103.214 E.16969
G1 X130.812 Y103.028 E.1116
G1 X131.628 Y102.931 E.11592
G1 X132.529 Y102.937 E.1271
G1 X133.42 Y103.03 E.12637
G1 X134.864 Y103.364 E.20907
G1 X135.815 Y103.677 E.14123
G1 X140.203 Y105.429 E.66649
G1 X142.104 Y106.079 E.2834
G1 X144.204 Y106.667 E.30762
G1 X145.621 Y106.946 E.20372
G1 X146.821 Y107.077 E.17028
G1 X148.352 Y107.043 E.21602
G1 X152.092 Y106.46 E.53394
G1 X153.869 Y106.34 E.25124
G1 X155.765 Y106.455 E.26794
G1 X157.716 Y106.864 E.28119
G1 X158.792 Y107.22 E.15987
G1 X160.947 Y108.199 E.33389
G1 X163.021 Y109.457 E.34217
G1 X163.925 Y110.178 E.16311
G1 X164.773 Y111.035 E.17007
G1 X165.68 Y112.36 E.2265
G1 X166.053 Y113.171 E.12592
G1 X166.329 Y114.039 E.12848
G1 X166.467 Y114.869 E.11869
G1 X166.506 Y115.729 E.12144
G1 X166.365 Y116.789 E.15084
G1 X166.084 Y117.742 E.14015
G1 X165.593 Y118.777 E.16159
G1 X164.791 Y119.924 E.19743
G1 X164.046 Y120.7 E.15174
G1 X163.289 Y121.34 E.13983
G1 X161.301 Y122.604 E.33231
G1 X159.221 Y123.59 E.3247
G1 X157.526 Y124.173 E.25285
G1 X155.569 Y124.547 E.28105
G1 X153.741 Y124.63 E.25813
G1 X152.011 Y124.499 E.24473
G1 X148.227 Y123.909 E.54023
G1 X146.55 Y123.914 E.23656
G1 X145.779 Y124.004 E.1095
G1 X144.201 Y124.297 E.2264
G1 X142.204 Y124.85 E.2923
G1 X139.329 Y125.857 E.42971
G1 X135.117 Y127.486 E.63704
G1 X134.004 Y127.785 E.16257
G1 X132.863 Y127.958 E.16279
G1 X131.611 Y127.986 E.17665
G1 X130.393 Y127.806 E.17368
G1 X129.164 Y127.391 E.18298
G1 X127.924 Y126.643 E.20428
G1 X127.09 Y125.864 E.16098
G1 X126.702 Y125.349 E.09096
G1 X125.383 Y126.589 E.25537
G1 X124.317 Y127.435 E.19197
G1 X122.477 Y128.719 E.3165
G1 X120.624 Y129.813 E.30354
G1 X120.668 Y130.378 E.07994
G1 X120.588 Y131.33 E.13476
G1 X120.338 Y132.367 E.15047
G1 X119.695 Y133.811 E.22297
G1 X118.728 Y135.283 E.24844
G1 X119.147 Y136.148 E.13558
G1 X120.463 Y138.28 E.35342
G1 X120.985 Y139.269 E.15775
G1 X121.43 Y140.32 E.161
G1 X121.745 Y141.31 E.14655
G1 X121.98 Y142.477 E.16792
G1 X122.077 Y143.77 E.1829
G1 X122.013 Y145.013 E.17557
G1 X121.766 Y146.276 E.18154
G1 X121.338 Y147.485 E.18091
G1 X120.513 Y148.857 E.22583
G1 X119.76 Y149.668 E.15611
G1 X118.857 Y150.358 E.16031
G1 X117.539 Y150.977 E.2054
G1 X116.238 Y151.28 E.18843
G1 X114.966 Y151.362 E.1798
G1 X114.058 Y151.284 E.12856
G1 X112.497 Y150.944 E.22536
G1 X110.196 Y150.051 E.34817
G1 X107.623 Y148.671 E.41186
G1 X106.217 Y147.71 E.24023
G1 X104.092 Y146.012 E.3837
G1 X102.822 Y144.874 E.24055
G1 X100.498 Y142.535 E.46512
G1 X98.178 Y139.794 E.50655
G1 X96.7 Y137.516 E.38305
G1 X96.054 Y136.135 E.21507
G1 X95.494 Y134.451 E.25034
G1 X94.562 Y134.828 E.14182
G1 X93.267 Y135.178 E.18923
G1 X92.184 Y135.369 E.15513
G1 X89.389 Y135.592 E.39552
G1 X86.456 Y135.539 E.4138
G1 X84.31 Y135.341 E.304
G1 X82.065 Y135.015 E.32
G1 X78.299 Y134.192 E.54377
G1 X75.163 Y133.169 E.46531
G1 X72.74 Y132.164 E.37003
G1 X71.021 Y131.328 E.26964
G1 X68.762 Y129.964 E.37224
G1 X67.445 Y128.911 E.23786
G1 X66.259 Y127.67 E.24214
G1 X64.862 Y125.745 E.33551
G1 X63.849 Y123.912 E.29542
G1 X63.298 Y122.656 E.19347
G1 X62.866 Y121.367 E.19177
G1 X62.495 Y119.725 E.23746
G1 X62.201 Y117.621 E.29968
G1 X62.092 Y115.361 E.31917
G1 X62.198 Y113.415 E.27491
G1 X62.697 Y110.356 E.43721
G1 X63.266 Y108.474 E.27735
G1 X64.156 Y106.517 E.30326
G1 X64.763 Y105.446 E.17365
G1 X65.614 Y104.205 E.21226
G1 X66.576 Y103.065 E.21042
G1 X68.144 Y101.572 E.30541
G1 X68.958 Y100.989 E.14124
G1 X68.958 Y100.989 F4800
G1 X69.232 Y101.372
G1 F1800
G1 X69.626 Y101.09 E.06835
G1 X70.576 Y100.515 E.15664
G1 X72.939 Y99.314 E.37391
G1 X76.484 Y97.899 E.53843
G1 X78.329 Y97.333 E.27223
G1 X80.087 Y96.899 E.25543
G1 X83.486 Y96.285 E.48723
G1 X86.003 Y96.006 E.35723
G1 X87.704 Y95.92 E.24025
G1 X90.774 Y95.988 E.43316
G1 X91.961 Y96.116 E.16841
G1 X93.661 Y96.435 E.24399
G1 X94.895 Y96.845 E.18343
G1 X95.779 Y97.284 E.13923
G1 X96.124 Y96.035 E.18278
G1 X96.73 Y94.481 E.23529
G1 X97.552 Y92.948 E.24537
G1 X98.105 Y92.1 E.14281
G1 X99.073 Y90.826 E.2257
G1 X101.007 Y88.599 E.41607
G1 X103.024 Y86.579 E.40267
G1 X104.251 Y85.473 E.23302
G1 X105.709 Y84.255 E.26799
G1 X107.798 Y82.775 E.36114
G1 X110.448 Y81.353 E.42423
G1 X112.461 Y80.56 E.3052
G1 X113.441 Y80.302 E.14295
G1 X114.507 Y80.136 E.15218
G1 X115.713 Y80.134 E.17012
G1 X116.905 Y80.329 E.17038
G1 X118.015 Y80.72 E.16601
G1 X119.056 Y81.354 E.17193
G1 X119.889 Y82.129 E.16049
G1 X120.608 Y83.138 E.17477
G1 X120.965 Y83.858 E.11336
G1 X121.298 Y84.817 E.1432
G1 X121.507 Y85.81 E.14314
G1 X121.586 Y87.627 E.25655
G1 X121.459 Y88.785 E.16433
G1 X121.162 Y90.021 E.17931
G1 X120.703 Y91.209 E.17965
G1 X120.056 Y92.477 E.2008
G1 X118.734 Y94.625 E.35579
G1 X118.215 Y95.758 E.17579
G1 X119.309 Y97.468 E.28636
G1 X119.919 Y98.886 E.21775
G1 X120.167 Y100.094 E.17396
G1 X120.154 Y101.326 E.1738
G1 X121.263 Y101.976 E.18133
G1 X124.044 Y103.912 E.47799
G1 X125.481 Y105.105 E.26346
G1 X126.731 Y106.303 E.24423
G1 X127.804 Y105.023 E.23561
G1 X129.126 Y104.086 E.22857
G1 X130.201 Y103.658 E.16322
G1 X130.908 Y103.49 E.10251
G1 X132.515 Y103.408 E.22698
G1 X133.338 Y103.494 E.11673
G1 X134.724 Y103.814 E.20065
G1 X140.042 Y105.872 E.80438
G1 X141.96 Y106.528 E.28594
G1 X144.099 Y107.127 E.31334
G1 X145.55 Y107.412 E.20859
G1 X146.789 Y107.547 E.17581
G1 X148.393 Y107.513 E.22631
G1 X152.152 Y106.927 E.53665
G1 X153.878 Y106.812 E.24401
G1 X155.695 Y106.922 E.25678
G1 X156.673 Y107.089 E.13995
G1 X158.634 Y107.665 E.28831
G1 X160.72 Y108.613 E.32321
G1 X162.736 Y109.832 E.33232
G1 X163.62 Y110.538 E.15959
G1 X164.427 Y111.355 E.16199
G1 X165.274 Y112.6 E.21241
G1 X165.867 Y114.134 E.23199
G1 X166.034 Y115.728 E.22608
G1 X165.901 Y116.707 E.13937
G1 X165.638 Y117.589 E.12983
G1 X165.176 Y118.556 E.15117
G1 X164.416 Y119.638 E.18652
G1 X163.716 Y120.364 E.14226
G1 X163.014 Y120.957 E.12963
G1 X161.951 Y121.677 E.18111
G1 X160.052 Y122.709 E.30488
G1 X158.309 Y123.438 E.26651
G1 X156.492 Y123.927 E.26543
G1 X155.506 Y124.08 E.14075
G1 X153.743 Y124.158 E.24893
G1 X152.074 Y124.032 E.2361
G1 X148.261 Y123.439 E.54433
G1 X146.514 Y123.444 E.24643
G1 X145.716 Y123.537 E.11333
G1 X144.093 Y123.838 E.23285
G1 X142.064 Y124.4 E.29699
G1 X139.159 Y125.418 E.43422
G1 X134.972 Y127.038 E.63329
G1 X133.919 Y127.321 E.15381
G1 X132.836 Y127.488 E.15457
G1 X131.66 Y127.516 E.16594
G1 X130.483 Y127.343 E.16781
G1 X129.34 Y126.953 E.17036
G1 X128.228 Y126.282 E.18321
G1 X127.428 Y125.536 E.1543
G1 X126.753 Y124.621 E.16039
G1 X125.868 Y125.529 E.17886
G1 X124.036 Y127.057 E.33651
G1 X122.223 Y128.322 E.31184
G1 X120.128 Y129.55 E.34255
G1 X120.196 Y130.359 E.11452
G1 X120.12 Y131.272 E.12923
G1 X119.893 Y132.212 E.13641
G1 X119.28 Y133.587 E.21236
G1 X118.218 Y135.191 E.27136
G1 X118.739 Y136.384 E.18363
G1 X120.057 Y138.521 E.35417
G1 X120.563 Y139.48 E.15295
G1 X121.285 Y141.417 E.2916
G1 X121.511 Y142.527 E.15979
G1 X121.606 Y143.791 E.1788
G1 X121.544 Y144.971 E.16668
G1 X121.315 Y146.135 E.16734
G1 X120.911 Y147.284 E.17181
G1 X120.155 Y148.55 E.208
G1 X119.457 Y149.306 E.14515
G1 X118.591 Y149.968 E.15376
G1 X117.406 Y150.524 E.18464
G1 X116.186 Y150.812 E.17682
G1 X114.988 Y150.891 E.16936
G1 X114.13 Y150.818 E.12147
G1 X112.624 Y150.49 E.21742
G1 X110.402 Y149.627 E.33625
G1 X107.882 Y148.277 E.40327
G1 X106.497 Y147.331 E.23659
G1 X104.397 Y145.653 E.37918
G1 X103.146 Y144.533 E.23686
G1 X100.842 Y142.213 E.46123
G1 X98.558 Y139.516 E.49854
G1 X97.474 Y137.923 E.2718
G1 X96.793 Y136.65 E.20365
G1 X96.18 Y135.126 E.23172
G1 X95.785 Y133.758 E.20086
G1 X94.425 Y134.377 E.21078
G1 X93.174 Y134.716 E.18283
G1 X90.429 Y135.074 E.39049
G1 X88.144 Y135.126 E.32241
G1 X86.492 Y135.069 E.23317
G1 X83.396 Y134.748 E.43907
G1 X80.251 Y134.185 E.45069
G1 X78.417 Y133.736 E.26635
G1 X75.332 Y132.729 E.45777
G1 X72.935 Y131.735 E.36604
G1 X71.232 Y130.907 E.26712
G1 X69.029 Y129.575 E.36315
G1 X67.769 Y128.568 E.22753
G1 X66.624 Y127.372 E.23356
G1 X65.258 Y125.49 E.32804
G1 X64.278 Y123.716 E.28589
G1 X63.742 Y122.496 E.18797
G1 X63.317 Y121.228 E.18865
G1 X62.957 Y119.631 E.23093
G1 X62.671 Y117.578 E.2924
G1 X62.563 Y115.371 E.31169
G1 X62.666 Y113.47 E.26855
G1 X63.158 Y110.455 E.43093
G1 X63.705 Y108.646 E.26659
G1 X64.074 Y107.745 E.13734
G1 X65.157 Y105.704 E.32593
G1 X65.996 Y104.482 E.20909
G1 X67.663 Y102.618 E.35275
G1 X68.445 Y101.935 E.14646
G1 X69.159 Y101.424 E.12385
G1 X69.159 Y101.424 F4800
G1 X69.432 Y101.808
G1 F1800
G1 X69.893 Y101.479 E.07989
G1 X70.804 Y100.927 E.15026
G1 X73.142 Y99.739 E.36994
G1 X76.639 Y98.344 E.53109
G1 X78.461 Y97.785 E.26884
G1 X80.194 Y97.358 E.25177
G1 X83.556 Y96.751 E.48192
G1 X86.042 Y96.475 E.35283
G1 X87.722 Y96.391 E.23728
G1 X90.745 Y96.458 E.42653
G1 X91.893 Y96.582 E.16288
G1 X93.549 Y96.893 E.23768
G1 X94.729 Y97.287 E.17549
G1 X96.122 Y97.984 E.21972
G1 X96.363 Y96.894 E.15747
G1 X96.842 Y95.419 E.21876
G1 X97.503 Y93.983 E.22299
G1 X98.486 Y92.379 E.26537
G1 X99.438 Y91.123 E.22232
G1 X101.355 Y88.916 E.41237
G1 X103.349 Y86.92 E.39798
G1 X105.997 Y84.628 E.49402
G1 X108.057 Y83.169 E.35609
G1 X109.066 Y82.573 E.16531
G1 X111.659 Y81.343 E.40484
G1 X113.549 Y80.76 E.279
G1 X114.528 Y80.607 E.13978
G1 X115.658 Y80.602 E.1594
G1 X116.769 Y80.78 E.15872
G1 X117.835 Y81.156 E.15945
G1 X118.754 Y81.717 E.15188
G1 X119.52 Y82.422 E.14685
G1 X120.213 Y83.396 E.16862
G1 X120.525 Y84.027 E.0993
G1 X120.84 Y84.93 E.13491
G1 X121.039 Y85.868 E.13526
G1 X121.115 Y87.608 E.24568
G1 X120.998 Y88.69 E.15352
G1 X120.707 Y89.896 E.175
G1 X120.278 Y91.005 E.16773
G1 X119.64 Y92.254 E.19784
G1 X117.975 Y95.055 E.45965
G1 X117.719 Y95.858 E.11889
G1 X118.891 Y97.686 E.30631
G1 X119.471 Y99.032 E.20675
G1 X119.696 Y100.125 E.15741
G1 X119.715 Y101.066 E.13277
G1 X119.621 Y101.585 E.0744
G1 X121.004 Y102.371 E.22439
G1 X123.757 Y104.286 E.47305
G1 X125.167 Y105.456 E.25845
G1 X126.874 Y107.127 E.33696
G1 X127.27 Y106.394 E.11752
G1 X128.103 Y105.388 E.18424
G1 X129.327 Y104.513 E.21224
G1 X130.359 Y104.103 E.15664
G1 X131.003 Y103.951 E.09334
G1 X132.5 Y103.879 E.21141
G1 X133.257 Y103.958 E.10736
G1 X134.584 Y104.264 E.1921
G1 X139.881 Y106.315 E.80126
G1 X141.817 Y106.977 E.28862
G1 X143.994 Y107.586 E.31888
G1 X145.472 Y107.877 E.21249
G1 X146.765 Y108.018 E.18347
G1 X148.435 Y107.983 E.23562
G1 X152.213 Y107.395 E.53935
G1 X153.886 Y107.283 E.23652
G1 X155.643 Y107.39 E.2483
G1 X156.568 Y107.548 E.13237
G1 X158.477 Y108.109 E.28067
G1 X160.508 Y109.033 E.31475
G1 X162.468 Y110.22 E.32323
G1 X163.295 Y110.88 E.14925
G1 X164.06 Y111.652 E.15331
G1 X164.854 Y112.813 E.19841
G1 X165.405 Y114.229 E.21433
G1 X165.562 Y115.726 E.21233
G1 X165.437 Y116.623 E.12775
G1 X165.192 Y117.435 E.11964
G1 X164.76 Y118.334 E.1407
G1 X164.042 Y119.351 E.17561
G1 X162.739 Y120.574 E.25208
G1 X161.693 Y121.283 E.17825
G1 X159.844 Y122.285 E.29666
G1 X158.161 Y122.99 E.25739
G1 X156.411 Y123.463 E.25572
G1 X155.443 Y123.613 E.13818
G1 X153.746 Y123.687 E.23961
G1 X152.137 Y123.565 E.22762
G1 X148.295 Y122.969 E.54844
G1 X146.478 Y122.973 E.25631
G1 X145.652 Y123.07 E.11732
G1 X143.985 Y123.38 E.23918
G1 X141.924 Y123.95 E.30164
G1 X138.989 Y124.978 E.43868
G1 X134.827 Y126.589 E.62954
G1 X133.834 Y126.858 E.14512
G1 X132.807 Y127.017 E.1466
