;FLAVOR:Marlin
;TIME:1448
;Filament used: 0.897759m
;Layer height: 0.2
;MINX:92.243
;MINY:74.943
;MINZ:0.2
;MAXX:127.757
;MAXY:145.041
;MAXZ:5
;Generated with Creality Slicer 4.8.2-291
M140 S60
M105
M190 S60
M104 S200
M105
M109 S200
M82 ;absolute extrusion mode

G28 ;Home

G92 E0 ;Reset Extruder
G1 Z2.0 F3000 ;Move Z Axis up
G1 X10.1 Y20 Z0.28 F5000.0 ;Move to start position
G1 X10.1 Y200.0 Z0.28 F1500.0 E15 ;Draw the first line
G1 X10.4 Y200.0 Z0.28 F5000.0 ;Move to side a little
G1 X10.4 Y20 Z0.28 F1500.0 E30 ;Draw the second line
G92 E0 ;Reset Extruder
G1 Z2.0 F3000 ;Move Z Axis up

G92 E0
G92 E0
G1 F1500 E-4
;LAYER_COUNT:25
;LAYER:0
M107
G0 F6000 X95.155 Y79.486 Z0.2
;TYPE:SKIRT
G1 F1500 E0
G1 F1200 X95.777 Y78.784 E0.0312
G1 X96.117 Y78.445 E0.04716
G1 X96.178 Y78.387 E0.04996
G1 X96.867 Y77.785 E0.0804
G1 X97.025 Y77.658 E0.08714
G1 X97.78 Y77.102 E0.11832
G1 X98.605 Y76.599 E0.15046
G1 X98.897 Y76.438 E0.16155
G1 X99.737 Y76.021 E0.19274
G1 X100.644 Y75.664 E0.22516
G1 X100.717 Y75.639 E0.22773
G1 X101.22 Y75.48 E0.24527
G1 X101.434 Y75.418 E0.25269
G1 X102.345 Y75.196 E0.28387
G1 X103.161 Y75.065 E0.31136
G1 X103.292 Y75.049 E0.31575
G1 X104.397 Y74.97 E0.3526
G1 X105.596 Y74.945 E0.39248
G1 X105.825 Y74.943 E0.4001
G1 X114.493 Y74.943 E0.6884
G1 X115.213 Y74.952 E0.71235
G1 X115.878 Y74.982 E0.73449
G1 X116.319 Y75.015 E0.7492
G1 X117.25 Y75.124 E0.78037
G1 X118.612 Y75.434 E0.82683
G1 X118.9 Y75.519 E0.83682
G1 X119.787 Y75.822 E0.868
G1 X120.609 Y76.183 E0.89786
G1 X120.691 Y76.223 E0.90089
G1 X121.189 Y76.481 E0.91954
G1 X121.379 Y76.586 E0.92676
G1 X122.179 Y77.075 E0.95795
G1 X122.999 Y77.68 E0.99184
G1 X123.224 Y77.863 E1.00149
G1 X124.255 Y78.817 E1.04821
G1 X124.313 Y78.878 E1.05101
G1 X124.898 Y79.546 E1.08054
G1 X125.024 Y79.702 E1.08721
G1 X125.582 Y80.456 E1.11841
G1 X126.109 Y81.319 E1.15204
G1 X126.271 Y81.614 E1.16324
G1 X126.687 Y82.455 E1.19444
G1 X127.02 Y83.301 E1.22468
G1 X127.045 Y83.373 E1.22722
G1 X127.216 Y83.907 E1.24587
G1 X127.278 Y84.12 E1.25324
G1 X127.501 Y85.031 E1.28444
G1 X127.628 Y85.808 E1.31063
G1 X127.644 Y85.934 E1.31485
G1 X127.73 Y87.092 E1.35347
G1 X127.755 Y88.297 E1.39356
G1 X127.757 Y88.525 E1.40114
G1 X127.756 Y126.951 E2.6792
G1 X127.749 Y127.574 E2.69992
G1 X127.742 Y127.861 E2.70947
G1 X127.729 Y128.209 E2.72105
G1 X127.705 Y128.641 E2.73544
G1 X127.685 Y128.898 E2.74401
G1 X127.659 Y129.184 E2.75356
G1 X127.585 Y129.8 E2.7742
G1 X127.537 Y130.124 E2.78509
G1 X127.448 Y130.642 E2.80258
G1 X127.373 Y131.022 E2.81546
G1 X127.236 Y131.627 E2.83609
G1 X127.159 Y131.927 E2.84639
G1 X127.005 Y132.466 E2.86504
G1 X126.894 Y132.822 E2.87744
G1 X126.722 Y133.332 E2.89534
G1 X126.611 Y133.635 E2.90607
G1 X126.374 Y134.228 E2.92731
G1 X126.23 Y134.56 E2.93935
G1 X126.001 Y135.053 E2.95743
G1 X125.842 Y135.375 E2.96937
G1 X125.556 Y135.917 E2.98976
G1 X125.391 Y136.209 E3.00091
G1 X125.123 Y136.657 E3.01827
G1 X124.931 Y136.962 E3.03026
G1 X124.602 Y137.455 E3.04998
G1 X124.411 Y137.725 E3.06098
G1 X124.052 Y138.204 E3.08088
G1 X123.823 Y138.493 E3.09315
G1 X123.493 Y138.89 E3.11032
G1 X123.282 Y139.132 E3.121
G1 X122.842 Y139.608 E3.14256
G1 X122.578 Y139.877 E3.15509
G1 X122.225 Y140.221 E3.17149
G1 X122.006 Y140.425 E3.18144
G1 X121.569 Y140.81 E3.20081
G1 X121.268 Y141.062 E3.21387
G1 X120.736 Y141.481 E3.23639
G1 X120.435 Y141.703 E3.24883
G1 X120 Y142.008 E3.2665
G1 X119.734 Y142.185 E3.27713
G1 X119.266 Y142.479 E3.29551
G1 X118.972 Y142.654 E3.30689
G1 X118.453 Y142.944 E3.32667
G1 X118.123 Y143.117 E3.33906
G1 X117.61 Y143.37 E3.35808
G1 X117.325 Y143.501 E3.36852
G1 X116.787 Y143.731 E3.38798
G1 X116.429 Y143.873 E3.40079
G1 X115.893 Y144.069 E3.41977
G1 X115.594 Y144.17 E3.43026
G1 X115.067 Y144.334 E3.44862
G1 X114.724 Y144.431 E3.46048
G1 X114.15 Y144.577 E3.48018
G1 X113.804 Y144.655 E3.49197
G1 X113.203 Y144.773 E3.51234
G1 X112.851 Y144.832 E3.52421
G1 X112.305 Y144.909 E3.54255
G1 X111.97 Y144.948 E3.55377
G1 X111.379 Y145.001 E3.57351
G1 X111.121 Y145.017 E3.58211
G1 X110.523 Y145.038 E3.60201
G1 X110.127 Y145.041 E3.61518
G1 X109.697 Y145.036 E3.62948
G1 X108.937 Y145.012 E3.65477
G1 X108.317 Y144.974 E3.67543
G1 X107.893 Y144.931 E3.68961
G1 X107.604 Y144.896 E3.69929
G1 X107.059 Y144.816 E3.71761
G1 X106.734 Y144.76 E3.72858
G1 X106.159 Y144.645 E3.74808
G1 X105.799 Y144.563 E3.76036
G1 X105.231 Y144.418 E3.77986
G1 X104.964 Y144.342 E3.78909
G1 X104.489 Y144.195 E3.80563
G1 X104.079 Y144.058 E3.82001
G1 X103.429 Y143.818 E3.84305
G1 X103.116 Y143.691 E3.85429
G1 X102.604 Y143.468 E3.87286
G1 X102.293 Y143.323 E3.88428
G1 X101.784 Y143.069 E3.9032
G1 X101.475 Y142.905 E3.91483
G1 X100.997 Y142.636 E3.93307
G1 X100.712 Y142.466 E3.94411
G1 X100.211 Y142.148 E3.96385
G1 X99.906 Y141.943 E3.97607
G1 X99.474 Y141.638 E3.99366
G1 X99.251 Y141.472 E4.00291
G1 X98.91 Y141.208 E4.01725
G1 X98.692 Y141.031 E4.02659
G1 X98.441 Y140.821 E4.03747
G1 X98.04 Y140.468 E4.05524
G1 X97.794 Y140.241 E4.06638
G1 X97.356 Y139.814 E4.08672
G1 X97.102 Y139.552 E4.09886
G1 X96.766 Y139.189 E4.11531
G1 X96.634 Y139.04 E4.12193
G1 X96.413 Y138.783 E4.1332
G1 X96.274 Y138.616 E4.14043
G1 X95.969 Y138.235 E4.15666
G1 X95.609 Y137.755 E4.17662
G1 X95.38 Y137.431 E4.18982
G1 X95.064 Y136.958 E4.20874
G1 X94.882 Y136.67 E4.22007
G1 X94.573 Y136.15 E4.24019
G1 X94.408 Y135.854 E4.25146
G1 X94.164 Y135.391 E4.26886
G1 X94.017 Y135.095 E4.27986
G1 X93.764 Y134.549 E4.29987
G1 X93.613 Y134.198 E4.31258
G1 X93.385 Y133.624 E4.33312
G1 X93.274 Y133.32 E4.34389
G1 X93.099 Y132.799 E4.36217
G1 X92.991 Y132.45 E4.37432
G1 X92.833 Y131.888 E4.39373
G1 X92.749 Y131.555 E4.40516
G1 X92.624 Y130.999 E4.42411
G1 X92.553 Y130.64 E4.43628
G1 X92.455 Y130.066 E4.45565
G1 X92.409 Y129.745 E4.46644
G1 X92.346 Y129.212 E4.48429
G1 X92.322 Y128.956 E4.49284
G1 X92.28 Y128.305 E4.51454
G1 X92.249 Y127.399 E4.54469
G1 X92.243 Y127.023 E4.55719
G1 X92.244 Y88.008 E5.85484
G1 X92.252 Y87.478 E5.87247
G1 X92.281 Y86.829 E5.89408
G1 X92.314 Y86.385 E5.90888
G1 X92.424 Y85.453 E5.9401
G1 X92.612 Y84.534 E5.9713
G1 X92.744 Y84.053 E5.98789
G1 X92.83 Y83.765 E5.99788
G1 X93.136 Y82.878 E6.02909
G1 X93.461 Y82.136 E6.05603
G1 X93.501 Y82.053 E6.0591
G1 X93.789 Y81.496 E6.07995
G1 X93.891 Y81.312 E6.08695
G1 X94.381 Y80.512 E6.11815
G1 X94.97 Y79.714 E6.15114
G1 X95.155 Y79.486 E6.16091
G0 F6000 X95.466 Y79.738
G1 F1200 X96.393 Y78.735 E6.20633
G1 X96.454 Y78.677 E6.20913
G1 X97.117 Y78.097 E6.23843
G1 X97.275 Y77.97 E6.24517
G1 X98.017 Y77.425 E6.27579
G1 X98.798 Y76.949 E6.30622
G1 X99.09 Y76.788 E6.31731
G1 X99.915 Y76.379 E6.34793
G1 X100.774 Y76.043 E6.37861
G1 X100.847 Y76.018 E6.38118
G1 X101.331 Y75.865 E6.39806
G1 X101.545 Y75.803 E6.40547
G1 X102.44 Y75.585 E6.43611
G1 X103.21 Y75.462 E6.46204
G1 X103.341 Y75.446 E6.46643
G1 X104.405 Y75.37 E6.50191
G1 X105.604 Y75.345 E6.5418
G1 X105.825 Y75.343 E6.54915
G1 X114.493 Y75.343 E6.83745
G1 X115.207 Y75.352 E6.8612
G1 X115.848 Y75.381 E6.88254
G1 X116.289 Y75.414 E6.89725
G1 X117.203 Y75.522 E6.92786
G1 X118.499 Y75.818 E6.97208
G1 X118.787 Y75.903 E6.98206
G1 X119.657 Y76.201 E7.01265
G1 X120.433 Y76.542 E7.04084
G1 X120.515 Y76.582 E7.04388
G1 X120.995 Y76.831 E7.06186
G1 X121.185 Y76.936 E7.06908
G1 X121.971 Y77.416 E7.09971
G1 X122.746 Y77.991 E7.13181
G1 X122.971 Y78.174 E7.14146
G1 X123.965 Y79.093 E7.18648
G1 X124.023 Y79.154 E7.18928
G1 X124.587 Y79.798 E7.21775
G1 X124.713 Y79.954 E7.22442
G1 X125.26 Y80.694 E7.25503
G1 X125.758 Y81.512 E7.28688
G1 X125.92 Y81.807 E7.29808
G1 X126.328 Y82.632 E7.32869
G1 X126.643 Y83.432 E7.35728
G1 X126.668 Y83.504 E7.35982
G1 X126.832 Y84.019 E7.3778
G1 X126.894 Y84.232 E7.38517
G1 X127.112 Y85.126 E7.41578
G1 X127.232 Y85.859 E7.44048
G1 X127.248 Y85.985 E7.44471
G1 X127.33 Y87.1 E7.48189
G1 X127.355 Y88.305 E7.52198
G1 X127.357 Y88.525 E7.5293
G1 X127.356 Y126.946 E8.80719
G1 X127.349 Y127.569 E8.82791
G1 X127.343 Y127.846 E8.83712
G1 X127.33 Y128.194 E8.84871
G1 X127.306 Y128.614 E8.8627
G1 X127.26 Y129.148 E8.88052
G1 X127.19 Y129.741 E8.90038
G1 X127.142 Y130.065 E8.91128
G1 X127.055 Y130.565 E8.92816
G1 X126.98 Y130.945 E8.94104
G1 X126.848 Y131.527 E8.96089
G1 X126.771 Y131.827 E8.97119
G1 X126.624 Y132.347 E8.98917
G1 X126.513 Y132.703 E9.00157
G1 X126.346 Y133.194 E9.01882
G1 X126.235 Y133.497 E9.02955
G1 X126.007 Y134.069 E9.05003
G1 X125.863 Y134.401 E9.06207
G1 X125.642 Y134.876 E9.07949
G1 X125.483 Y135.198 E9.09144
G1 X125.208 Y135.72 E9.11106
G1 X125.043 Y136.012 E9.12221
G1 X124.785 Y136.444 E9.13895
G1 X124.593 Y136.749 E9.15094
G1 X124.276 Y137.224 E9.16993
G1 X124.085 Y137.494 E9.18093
G1 X123.739 Y137.955 E9.2001
G1 X123.51 Y138.244 E9.21237
G1 X123.192 Y138.627 E9.22892
G1 X122.981 Y138.869 E9.2396
G1 X122.556 Y139.328 E9.26041
G1 X122.292 Y139.597 E9.27294
G1 X121.952 Y139.928 E9.28873
G1 X121.733 Y140.132 E9.29868
G1 X121.313 Y140.504 E9.31734
G1 X121.012 Y140.756 E9.3304
G1 X120.499 Y141.159 E9.3521
G1 X120.198 Y141.381 E9.36454
G1 X119.778 Y141.675 E9.38159
G1 X119.512 Y141.852 E9.39221
G1 X119.062 Y142.136 E9.40991
G1 X118.768 Y142.311 E9.42129
G1 X118.268 Y142.59 E9.44034
G1 X117.938 Y142.763 E9.45273
G1 X117.443 Y143.006 E9.47107
G1 X117.158 Y143.137 E9.4815
G1 X116.639 Y143.359 E9.50028
G1 X116.281 Y143.501 E9.51309
G1 X115.765 Y143.691 E9.53138
G1 X115.466 Y143.792 E9.54187
G1 X114.959 Y143.949 E9.55953
G1 X114.616 Y144.046 E9.57138
G1 X114.062 Y144.187 E9.59039
G1 X113.716 Y144.265 E9.60219
G1 X113.137 Y144.378 E9.62181
G1 X112.785 Y144.437 E9.63368
G1 X112.259 Y144.512 E9.65135
G1 X111.924 Y144.551 E9.66257
G1 X111.354 Y144.602 E9.68161
G1 X111.096 Y144.618 E9.6902
G1 X110.52 Y144.638 E9.70937
G1 X110.124 Y144.641 E9.72254
G1 X109.709 Y144.636 E9.73635
G1 X108.949 Y144.612 E9.76164
G1 X108.352 Y144.576 E9.78153
G1 X107.942 Y144.534 E9.79524
G1 X107.653 Y144.499 E9.80492
G1 X107.127 Y144.422 E9.8226
G1 X106.802 Y144.366 E9.83357
G1 X106.248 Y144.255 E9.85236
G1 X105.888 Y144.173 E9.86464
G1 X105.34 Y144.033 E9.88346
G1 X105.073 Y143.957 E9.89269
G1 X104.616 Y143.816 E9.9086
G1 X104.206 Y143.679 E9.92297
G1 X103.58 Y143.447 E9.94518
G1 X103.267 Y143.32 E9.95641
G1 X102.773 Y143.105 E9.97433
G1 X102.462 Y142.96 E9.98575
G1 X101.972 Y142.716 E10.00395
G1 X101.663 Y142.552 E10.01559
G1 X101.202 Y142.292 E10.03319
G1 X100.917 Y142.122 E10.04423
G1 X100.434 Y141.816 E10.06325
G1 X100.129 Y141.611 E10.07547
G1 X99.713 Y141.317 E10.09241
G1 X99.49 Y141.151 E10.10166
G1 X99.159 Y140.895 E10.11558
G1 X98.949 Y140.724 E10.12458
G1 X98.698 Y140.514 E10.13547
G1 X98.312 Y140.174 E10.15258
G1 X98.066 Y139.947 E10.16371
G1 X97.643 Y139.535 E10.18335
G1 X97.389 Y139.273 E10.19549
G1 X97.066 Y138.924 E10.2113
G1 X96.934 Y138.775 E10.21792
G1 X96.721 Y138.527 E10.2288
G1 X96.419 Y138.16 E10.2446
G1 X96.282 Y137.987 E10.25194
G1 X95.936 Y137.524 E10.27117
G1 X95.707 Y137.2 E10.28436
G1 X95.402 Y136.745 E10.30258
G1 X95.22 Y136.457 E10.31391
G1 X94.922 Y135.955 E10.33333
G1 X94.757 Y135.659 E10.3446
G1 X94.522 Y135.213 E10.36137
G1 X94.375 Y134.917 E10.37236
G1 X94.132 Y134.391 E10.39163
G1 X93.981 Y134.04 E10.40434
G1 X93.761 Y133.487 E10.42414
G1 X93.65 Y133.183 E10.4349
G1 X93.481 Y132.681 E10.45252
G1 X93.373 Y132.332 E10.46467
G1 X93.221 Y131.791 E10.48336
G1 X93.137 Y131.458 E10.49478
G1 X93.016 Y130.922 E10.51306
G1 X92.945 Y130.563 E10.52523
G1 X92.851 Y130.01 E10.54389
G1 X92.805 Y129.689 E10.55467
G1 X92.744 Y129.174 E10.57192
G1 X92.72 Y128.918 E10.58047
G1 X92.68 Y128.291 E10.60137
G1 X92.649 Y127.385 E10.63152
G1 X92.643 Y127.023 E10.64356
G1 X92.644 Y88.014 E11.94101
G1 X92.652 Y87.484 E11.95864
G1 X92.68 Y86.858 E11.97948
G1 X92.713 Y86.414 E11.99429
G1 X92.821 Y85.5 E12.0249
G1 X93.127 Y84.167 E12.07039
G1 X93.213 Y83.879 E12.08038
G1 X93.515 Y83.009 E12.11101
G1 X93.821 Y82.31 E12.13639
G1 X93.861 Y82.227 E12.13946
G1 X94.139 Y81.69 E12.15957
G1 X94.241 Y81.506 E12.16657
G1 X94.722 Y80.721 E12.19719
G1 X95.281 Y79.966 E12.22843
G1 X95.466 Y79.738 E12.2382
G0 F6000 X95.776 Y79.99
G1 F1200 X96.669 Y79.025 E12.28193
G1 X96.73 Y78.967 E12.28473
G1 X97.368 Y78.409 E12.31292
G1 X97.526 Y78.282 E12.31966
G1 X98.254 Y77.748 E12.34969
G1 X98.991 Y77.3 E12.37838
G1 X99.283 Y77.139 E12.38947
G1 X100.092 Y76.738 E12.4195
G1 X100.903 Y76.421 E12.44846
G1 X100.976 Y76.396 E12.45103
G1 X101.443 Y76.249 E12.46731
G1 X101.657 Y76.187 E12.47472
G1 X102.534 Y75.974 E12.50474
G1 X103.258 Y75.859 E12.52912
G1 X103.389 Y75.843 E12.53351
G1 X104.413 Y75.77 E12.56765
G1 X105.612 Y75.745 E12.60754
G1 X105.825 Y75.743 E12.61463
G1 X114.493 Y75.743 E12.90293
G1 X115.202 Y75.752 E12.92651
G1 X115.818 Y75.779 E12.94702
G1 X116.259 Y75.812 E12.96173
G1 X117.156 Y75.92 E12.99178
G1 X118.385 Y76.201 E13.03371
G1 X118.673 Y76.286 E13.04369
G1 X119.527 Y76.58 E13.07373
G1 X120.258 Y76.902 E13.1003
G1 X120.34 Y76.942 E13.10334
G1 X120.802 Y77.182 E13.12065
G1 X120.992 Y77.287 E13.12787
G1 X121.762 Y77.758 E13.15789
G1 X122.494 Y78.301 E13.18821
G1 X122.719 Y78.484 E13.19785
G1 X123.675 Y79.369 E13.24118
G1 X123.733 Y79.43 E13.24398
G1 X124.276 Y80.049 E13.27137
G1 X124.402 Y80.205 E13.27804
G1 X124.938 Y80.932 E13.30808
G1 X125.408 Y81.704 E13.33814
G1 X125.57 Y81.999 E13.34934
G1 X125.969 Y82.809 E13.37937
G1 X126.265 Y83.563 E13.40631
G1 X126.29 Y83.635 E13.40884
G1 X126.448 Y84.13 E13.42613
G1 X126.51 Y84.343 E13.4335
G1 X126.723 Y85.221 E13.46355
G1 X126.835 Y85.909 E13.48674
G1 X126.851 Y86.035 E13.49096
G1 X126.93 Y87.108 E13.52675
G1 X126.955 Y88.313 E13.56683
G1 X126.957 Y88.525 E13.57389
G1 X126.956 Y126.942 E14.85164
G1 X126.949 Y127.565 E14.87236
G1 X126.943 Y127.831 E14.88121
G1 X126.93 Y128.179 E14.8928
G1 X126.907 Y128.587 E14.90639
G1 X126.888 Y128.825 E14.91433
G1 X126.862 Y129.111 E14.92388
G1 X126.794 Y129.683 E14.94304
G1 X126.746 Y130.007 E14.95393
G1 X126.663 Y130.487 E14.97013
G1 X126.588 Y130.867 E14.98302
G1 X126.461 Y131.428 E15.00215
G1 X126.384 Y131.728 E15.01245
G1 X126.242 Y132.228 E15.02974
G1 X126.131 Y132.584 E15.04214
G1 X125.971 Y133.057 E15.05875
G1 X125.86 Y133.36 E15.06948
G1 X125.64 Y133.91 E15.08918
G1 X125.496 Y134.242 E15.10122
G1 X125.284 Y134.699 E15.11797
G1 X125.125 Y135.021 E15.12992
G1 X124.859 Y135.523 E15.14881
G1 X124.694 Y135.815 E15.15997
G1 X124.446 Y136.231 E15.17608
G1 X124.254 Y136.536 E15.18807
G1 X123.949 Y136.993 E15.20634
G1 X123.758 Y137.263 E15.21734
G1 X123.425 Y137.707 E15.2358
G1 X123.196 Y137.996 E15.24806
G1 X122.89 Y138.364 E15.26398
G1 X122.679 Y138.606 E15.27466
G1 X122.271 Y139.048 E15.29467
G1 X122.007 Y139.317 E15.3072
G1 X121.679 Y139.636 E15.32242
G1 X121.46 Y139.84 E15.33238
G1 X121.056 Y140.197 E15.35031
G1 X120.755 Y140.449 E15.36336
G1 X120.261 Y140.837 E15.38426
G1 X119.96 Y141.059 E15.3967
G1 X119.557 Y141.342 E15.41307
G1 X119.291 Y141.519 E15.4237
G1 X118.857 Y141.792 E15.44075
G1 X118.563 Y141.967 E15.45213
G1 X118.082 Y142.236 E15.47046
G1 X117.752 Y142.409 E15.48286
G1 X117.276 Y142.643 E15.5005
G1 X116.991 Y142.774 E15.51093
G1 X116.492 Y142.987 E15.52898
G1 X116.134 Y143.129 E15.54179
G1 X115.637 Y143.312 E15.5594
G1 X115.338 Y143.413 E15.5699
G1 X114.85 Y143.564 E15.58689
G1 X114.507 Y143.661 E15.59874
G1 X113.974 Y143.796 E15.61703
G1 X113.628 Y143.874 E15.62883
G1 X113.071 Y143.984 E15.64771
G1 X112.719 Y144.043 E15.65958
G1 X112.212 Y144.115 E15.67661
G1 X111.877 Y144.154 E15.68783
G1 X111.329 Y144.202 E15.70613
G1 X111.071 Y144.218 E15.71473
G1 X110.517 Y144.238 E15.73316
G1 X110.121 Y144.241 E15.74634
G1 X109.722 Y144.236 E15.75961
G1 X108.962 Y144.212 E15.7849
G1 X108.387 Y144.178 E15.80406
G1 X107.99 Y144.137 E15.81733
G1 X107.701 Y144.102 E15.82701
G1 X107.195 Y144.028 E15.84402
G1 X106.87 Y143.972 E15.85499
G1 X106.337 Y143.865 E15.87307
G1 X105.977 Y143.783 E15.88535
G1 X105.45 Y143.648 E15.90345
G1 X105.183 Y143.572 E15.91268
G1 X104.742 Y143.436 E15.92803
G1 X104.332 Y143.299 E15.94241
G1 X103.73 Y143.077 E15.96375
G1 X103.417 Y142.95 E15.97498
G1 X102.942 Y142.743 E15.99222
G1 X102.631 Y142.598 E16.00363
G1 X102.159 Y142.363 E16.02117
G1 X101.85 Y142.199 E16.0328
G1 X101.407 Y141.949 E16.04972
