;FLAVOR:Marlin
;TIME:8611
;Filament used: 4.3284m
;Layer height: 0.2
;MINX:3.749
;MINY:72.75
;MINZ:0.2
;MAXX:201.591
;MAXY:181.528
;MAXZ:52.2
;TARGET_MACHINE.NAME:Creality Ender-3
;Generated with Cura_SteamEngine 5.5.0
M140 S50
M105
M190 S50
M104 S200
M105
M109 S200
M82 ;absolute extrusion mode
G28 ;Home

G92 E0 ;Reset extruder

G1 Z2.0 F3000 ;Move Z Axis up

G1 X10.1 Y20 Z0.28 F5000.0 ;Move to start position

G1 X10.1 Y200.0 Z0.28 F1500.0 E15 ;Draw the first line

G1 X10.4 Y200.0 Z0.28 F5000.0 ;Move to side a little

G1 X10.4 Y20 Z0.28 F1500.0 E30 ;Draw the second line

G92 E0 ;Reset extruder

G1 Z2.0 F3000 ;Move Z Axis up
G92 E0
G92 E0
G1 F2700 E-5
;LAYER_COUNT:261
;LAYER:0
M107
G0 F6000 X13.265 Y72.861 Z0.2
;TYPE:SKIRT
G1 F2700 E0
G1 F1200 X14.404 Y72.765 E0.03802
G1 X15.061 Y72.75 E0.05988
G1 X66.556 Y72.75 E1.77261
G1 X67.774 Y72.772 E1.81312
G1 X69.543 Y72.857 E1.87203
G1 X72.104 Y72.927 E1.95724
G1 X74.564 Y72.925 E2.03906
G1 X79.159 Y72.757 E2.19199
G1 X79.547 Y72.75 E2.2049
G1 X131.179 Y72.751 E3.92219
G1 X131.946 Y72.764 E3.9477
G1 X133.3 Y72.874 E3.99288
G1 X136.356 Y73.316 E4.09558
G1 X138.85 Y73.599 E4.17907
G1 X141.386 Y73.818 E4.26373
G1 X143.834 Y73.956 E4.34528
G1 X146.426 Y74.031 E4.43152
G1 X147.747 Y74.04 E4.47546
G1 X190.058 Y74.041 E5.88273
G1 X190.791 Y74.054 E5.90712
G1 X191.763 Y74.115 E5.93951
G1 X192.726 Y74.262 E5.97191
G1 X193.672 Y74.494 E6.0043
G1 X194.594 Y74.809 E6.03671
G1 X195.483 Y75.203 E6.06905
G1 X196.306 Y75.657 E6.10031
G1 X197.141 Y76.222 E6.13385
G1 X197.898 Y76.837 E6.16629
G1 X198.595 Y77.516 E6.19865
G1 X199.23 Y78.254 E6.23103
G1 X199.779 Y79.016 E6.26227
G1 X200.293 Y79.885 E6.29585
G1 X200.684 Y80.699 E6.32589
G1 X201.051 Y81.677 E6.36063
G1 X201.3 Y82.581 E6.39182
G1 X201.483 Y83.582 E6.42566
G1 X201.577 Y84.721 E6.46367
G1 X201.591 Y85.37 E6.48526
G1 X201.59 Y119.2 E7.61045
G1 X201.578 Y119.937 E7.63497
G1 X201.519 Y120.909 E7.66736
G1 X201.373 Y121.872 E7.69975
G1 X201.142 Y122.819 E7.73217
G1 X200.829 Y123.74 E7.76453
G1 X200.435 Y124.632 E7.79696
G1 X199.964 Y125.485 E7.82937
G1 X199.42 Y126.291 E7.86171
G1 X198.807 Y127.048 E7.89411
G1 X198.136 Y127.74 E7.92617
G1 X197.612 Y128.206 E7.94949
G1 X195.417 Y130.029 E8.04439
G1 X193.512 Y131.709 E8.12887
G1 X191.669 Y133.427 E8.21267
G1 X189.909 Y135.166 E8.29497
G1 X188.145 Y137.008 E8.37979
G1 X186.458 Y138.874 E8.46346
G1 X184.769 Y140.851 E8.54995
G1 X183.831 Y141.985 E8.59889
G1 X183.177 Y142.705 E8.63125
G1 X182.488 Y143.342 E8.66246
G1 X181.688 Y143.959 E8.69606
G1 X180.891 Y144.467 E8.72749
G1 X179.629 Y145.096 E8.77439
G1 X178.803 Y145.442 E8.80418
G1 X176.409 Y146.486 E8.89104
G1 X174.147 Y147.548 E8.97416
G1 X171.906 Y148.681 E9.05768
G1 X169.674 Y149.887 E9.14206
G1 X167.497 Y151.145 E9.22569
G1 X165.377 Y152.453 E9.30854
G1 X163.266 Y153.839 E9.39253
G1 X161.19 Y155.288 E9.47673
G1 X159.183 Y156.773 E9.55977
G1 X157.179 Y158.345 E9.64449
G1 X155.272 Y159.931 E9.72698
G1 X153.366 Y161.612 E9.81151
G1 X151.508 Y163.344 E9.89599
G1 X149.756 Y165.072 E9.97784
G1 X147.979 Y166.928 E10.0633
G1 X146.3 Y168.783 E10.14652
G1 X144.651 Y170.712 E10.23093
G1 X143.102 Y172.63 E10.31293
G1 X141.571 Y174.644 E10.39707
G1 X139.908 Y176.96 E10.4919
G1 X139.303 Y177.723 E10.52429
G1 X138.634 Y178.431 E10.55669
G1 X137.959 Y179.031 E10.58672
G1 X137.119 Y179.653 E10.62149
G1 X136.288 Y180.159 E10.65385
G1 X135.415 Y180.591 E10.68624
G1 X134.574 Y180.92 E10.71628
G1 X133.57 Y181.212 E10.75106
G1 X132.642 Y181.393 E10.7825
G1 X131.294 Y181.515 E10.82752
G1 X130.67 Y181.528 E10.84828
G1 X90.55 Y181.527 E12.18268
G1 X89.813 Y181.515 E12.20719
G1 X88.841 Y181.456 E12.23958
G1 X87.878 Y181.31 E12.27198
G1 X86.931 Y181.079 E12.3044
G1 X86.01 Y180.766 E12.33675
G1 X85.118 Y180.372 E12.36918
G1 X84.265 Y179.901 E12.40159
G1 X83.459 Y179.358 E12.43392
G1 X82.756 Y178.792 E12.46393
G1 X81.861 Y177.912 E12.50568
G1 X81.187 Y177.168 E12.53907
G1 X80.595 Y176.497 E12.56883
G1 X78.878 Y174.655 E12.65259
G1 X77.101 Y172.853 E12.73676
G1 X75.278 Y171.107 E12.82072
G1 X73.419 Y169.424 E12.90412
G1 X71.525 Y167.805 E12.987
G1 X69.543 Y166.203 E13.07176
G1 X67.553 Y164.689 E13.15493
G1 X65.5 Y163.215 E13.23899
G1 X63.439 Y161.824 E13.32169
G1 X61.272 Y160.446 E13.4071
G1 X59.136 Y159.173 E13.4898
G1 X56.946 Y157.949 E13.57325
G1 X54.695 Y156.774 E13.6577
G1 X52.436 Y155.675 E13.74126
G1 X50.177 Y154.653 E13.82372
G1 X47.784 Y153.653 E13.90998
G1 X45.482 Y152.764 E13.99206
G1 X43.113 Y151.929 E14.0756
G1 X40.688 Y151.148 E14.16034
G1 X38.306 Y150.453 E14.24287
G1 X35.857 Y149.816 E14.32703
G1 X33.361 Y149.242 E14.41222
G1 X30.957 Y148.759 E14.49377
G1 X28.443 Y148.326 E14.57862
G1 X25.982 Y147.975 E14.6613
G1 X23.463 Y147.689 E14.74562
G1 X20.924 Y147.47 E14.83038
G1 X18.473 Y147.331 E14.91203
G1 X15.802 Y147.256 E15.00091
G1 X14.558 Y147.236 E15.04229
G1 X13.588 Y147.176 E15.07461
G1 X12.623 Y147.03 E15.10707
G1 X11.678 Y146.798 E15.13944
G1 X10.756 Y146.484 E15.17183
G1 X9.866 Y146.09 E15.20421
G1 X9.013 Y145.619 E15.23661
G1 X8.206 Y145.074 E15.269
G1 X7.476 Y144.483 E15.30024
G1 X6.751 Y143.781 E15.33381
G1 X6.138 Y143.072 E15.36498
G1 X5.547 Y142.253 E15.39857
G1 X5.085 Y141.477 E15.42861
G1 X4.632 Y140.535 E15.46338
G1 X4.292 Y139.623 E15.49575
G1 X4.042 Y138.719 E15.52694
G1 X3.858 Y137.717 E15.56083
G1 X3.763 Y136.558 E15.59951
G1 X3.749 Y135.908 E15.62113
G1 X3.75 Y84.273 E17.33852
G1 X3.761 Y83.575 E17.36174
G1 X3.819 Y82.602 E17.39415
G1 X3.965 Y81.639 E17.42655
G1 X4.195 Y80.692 E17.45896
G1 X4.508 Y79.77 E17.49135
G1 X4.9 Y78.879 E17.52372
G1 X5.352 Y78.056 E17.55495
G1 X5.914 Y77.218 E17.58851
G1 X6.48 Y76.515 E17.61853
G1 X7.206 Y75.762 E17.65332
G1 X7.942 Y75.126 E17.68567
G1 X8.673 Y74.596 E17.71571
G1 X9.571 Y74.06 E17.75049
G1 X10.449 Y73.639 E17.78287
G1 X11.361 Y73.298 E17.81526
G1 X12.299 Y73.039 E17.84762
G1 X13.265 Y72.861 E17.88029
G0 F6000 X13.299 Y73.26
G1 F1200 X14.438 Y73.164 E17.91831
G1 X15.07 Y73.15 E17.93934
G1 X66.549 Y73.15 E19.65154
G1 X67.755 Y73.172 E19.69165
G1 X69.524 Y73.257 E19.75056
G1 X72.093 Y73.327 E19.83604
G1 X74.579 Y73.325 E19.91872
G1 X79.166 Y73.157 E20.07139
G1 X79.547 Y73.15 E20.08406
G1 X131.173 Y73.151 E21.80115
G1 X131.914 Y73.163 E21.8258
G1 X133.243 Y73.27 E21.87014
G1 X136.299 Y73.712 E21.97285
G1 X138.816 Y73.998 E22.0571
G1 X141.352 Y74.216 E22.14176
G1 X143.822 Y74.356 E22.22404
G1 X146.414 Y74.431 E22.31029
G1 X147.744 Y74.44 E22.35453
G1 X190.051 Y74.441 E23.76166
G1 X190.767 Y74.453 E23.78548
G1 X191.703 Y74.51 E23.81667
G1 X192.631 Y74.651 E23.84789
G1 X193.543 Y74.873 E23.87911
G1 X194.432 Y75.175 E23.91034
G1 X195.29 Y75.554 E23.94153
G1 X196.082 Y75.989 E23.97159
G1 X196.889 Y76.533 E24.00396
G1 X197.619 Y77.124 E24.0352
G1 X198.292 Y77.777 E24.06639
G1 X198.905 Y78.488 E24.09761
G1 X199.454 Y79.25 E24.12885
G1 X199.932 Y80.058 E24.16007
G1 X200.323 Y80.872 E24.19011
G1 X200.665 Y81.783 E24.22247
G1 X200.914 Y82.687 E24.25366
G1 X201.084 Y83.615 E24.28504
G1 X201.178 Y84.754 E24.32305
G1 X201.191 Y85.37 E24.34354
G1 X201.19 Y119.194 E25.46853
G1 X201.179 Y119.913 E25.49245
G1 X201.123 Y120.85 E25.52367
G1 X200.984 Y121.778 E25.55488
G1 X200.763 Y122.691 E25.58612
G1 X200.463 Y123.579 E25.6173
G1 X200.085 Y124.439 E25.64854
G1 X199.632 Y125.262 E25.67979
G1 X199.109 Y126.04 E25.71097
G1 X198.519 Y126.77 E25.74219
G1 X197.87 Y127.441 E25.77324
G1 X197.356 Y127.898 E25.79611
G1 X195.161 Y129.721 E25.89101
G1 X193.247 Y131.409 E25.97589
G1 X191.396 Y133.134 E26.06005
G1 X189.628 Y134.881 E26.14272
G1 X187.856 Y136.731 E26.22792
G1 X186.161 Y138.606 E26.31199
G1 X184.465 Y140.591 E26.39882
G1 X183.535 Y141.716 E26.44737
G1 X182.905 Y142.411 E26.47857
G1 X182.216 Y143.048 E26.50978
G1 X181.472 Y143.622 E26.54104
G1 X180.712 Y144.109 E26.57106
G1 X179.474 Y144.727 E26.61708
G1 X178.648 Y145.073 E26.64686
G1 X176.249 Y146.119 E26.73391
G1 X173.977 Y147.186 E26.8174
G1 X171.716 Y148.329 E26.90166
G1 X169.484 Y149.535 E26.98604
G1 X167.297 Y150.799 E27.07006
G1 X165.167 Y152.113 E27.1533
G1 X163.037 Y153.511 E27.23804
G1 X160.952 Y154.966 E27.3226
G1 X158.945 Y156.451 E27.40564
G1 X156.932 Y158.03 E27.49073
G1 X155.016 Y159.624 E27.57363
G1 X153.093 Y161.319 E27.65889
G1 X151.235 Y163.051 E27.74337
G1 X149.475 Y164.787 E27.82559
G1 X147.69 Y166.651 E27.91143
G1 X146.003 Y168.515 E27.99505
G1 X144.347 Y170.452 E28.07981
G1 X142.791 Y172.379 E28.16219
G1 X141.246 Y174.411 E28.24709
G1 X139.594 Y176.712 E28.3413
G1 X139.012 Y177.449 E28.37254
G1 X138.368 Y178.132 E28.40376
G1 X137.693 Y178.732 E28.4338
G1 X136.911 Y179.312 E28.46618
G1 X136.11 Y179.801 E28.49739
G1 X135.269 Y180.218 E28.52861
G1 X134.428 Y180.547 E28.55865
G1 X133.493 Y180.819 E28.59104
G1 X132.565 Y181 E28.62248
G1 X131.286 Y181.115 E28.6652
G1 X130.67 Y181.128 E28.68569
G1 X90.556 Y181.127 E30.01989
G1 X89.837 Y181.116 E30.0438
G1 X88.9 Y181.06 E30.07502
G1 X87.972 Y180.921 E30.10623
G1 X87.059 Y180.7 E30.13748
G1 X86.171 Y180.4 E30.16865
G1 X85.311 Y180.022 E30.1999
G1 X84.488 Y179.569 E30.23114
G1 X83.71 Y179.046 E30.26232
G1 X83.007 Y178.48 E30.29234
G1 X82.158 Y177.644 E30.33197
G1 X81.487 Y176.903 E30.36522
G1 X80.895 Y176.232 E30.39498
G1 X79.171 Y174.382 E30.47909
G1 X77.386 Y172.572 E30.56364
G1 X75.555 Y170.818 E30.64797
G1 X73.687 Y169.127 E30.73178
G1 X71.785 Y167.501 E30.815
G1 X69.794 Y165.892 E30.90014
G1 X67.786 Y164.364 E30.98407
G1 X65.733 Y162.89 E31.06813
G1 X63.654 Y161.486 E31.15157
G1 X61.487 Y160.108 E31.23698
G1 X59.341 Y158.829 E31.32007
G1 X57.131 Y157.594 E31.40428
G1 X54.88 Y156.419 E31.48873
G1 X52.611 Y155.315 E31.57266
G1 X50.331 Y154.284 E31.65588
G1 X47.938 Y153.284 E31.74214
G1 X45.626 Y152.391 E31.82458
G1 X43.236 Y151.548 E31.90887
G1 X40.811 Y150.767 E31.99361
G1 X38.414 Y150.068 E32.07665
G1 X35.947 Y149.426 E32.16144
G1 X33.451 Y148.852 E32.24662
G1 X31.032 Y148.366 E32.32868
G1 X28.499 Y147.93 E32.41417
G1 X26.038 Y147.579 E32.49685
G1 X23.497 Y147.29 E32.58191
G1 X20.958 Y147.072 E32.66667
G1 X18.484 Y146.931 E32.74909
G1 X15.813 Y146.856 E32.83796
G1 X14.582 Y146.837 E32.87891
G1 X13.647 Y146.78 E32.91007
G1 X12.718 Y146.641 E32.94131
G1 X11.806 Y146.419 E32.97253
G1 X10.917 Y146.118 E33.00374
G1 X10.059 Y145.74 E33.03493
G1 X9.236 Y145.287 E33.06617
G1 X8.458 Y144.763 E33.09737
G1 X7.728 Y144.172 E33.12861
G1 X7.054 Y143.519 E33.15982
G1 X6.441 Y142.81 E33.191
G1 X5.891 Y142.048 E33.22225
G1 X5.429 Y141.272 E33.25229
G1 X5.007 Y140.395 E33.28466
G1 X4.678 Y139.516 E33.31588
G1 X4.428 Y138.612 E33.34707
G1 X4.257 Y137.684 E33.37846
G1 X4.162 Y136.525 E33.41714
G1 X4.149 Y135.908 E33.43766
G1 X4.15 Y84.279 E35.15485
G1 X4.16 Y83.598 E35.1775
G1 X4.215 Y82.661 E35.20872
G1 X4.354 Y81.733 E35.23993
G1 X4.574 Y80.82 E35.27117
G1 X4.874 Y79.931 E35.30237
G1 X5.251 Y79.072 E35.33358
G1 X5.703 Y78.249 E35.3648
G1 X6.226 Y77.469 E35.39604
G1 X6.792 Y76.766 E35.42606
G1 X7.468 Y76.064 E35.45847
G1 X8.177 Y75.45 E35.48967
G1 X8.908 Y74.92 E35.5197
G1 X9.744 Y74.42 E35.5521
G1 X10.59 Y74.013 E35.58332
G1 X11.468 Y73.683 E35.61452
G1 X12.372 Y73.432 E35.64572
G1 X13.299 Y73.26 E35.67708
G0 F6000 X13.333 Y73.659
G1 F1200 X14.472 Y73.563 E35.7151
G1 X15.079 Y73.55 E35.73529
G1 X66.542 Y73.55 E37.44696
G1 X67.736 Y73.572 E37.48668
G1 X69.505 Y73.657 E37.54558
G1 X72.082 Y73.727 E37.63133
G1 X74.594 Y73.725 E37.71488
G1 X79.173 Y73.557 E37.86728
G1 X79.547 Y73.55 E37.87972
G1 X131.167 Y73.551 E39.59661
G1 X131.882 Y73.562 E39.62039
G1 X133.186 Y73.666 E39.6639
G1 X136.242 Y74.108 E39.7666
G1 X138.782 Y74.397 E39.85163
G1 X141.318 Y74.614 E39.93628
G1 X143.81 Y74.756 E40.0193
G1 X146.402 Y74.831 E40.10555
G1 X147.741 Y74.84 E40.15008
G1 X190.045 Y74.841 E41.55712
G1 X190.743 Y74.852 E41.58034
G1 X191.644 Y74.906 E41.61036
G1 X192.537 Y75.04 E41.64039
G1 X193.415 Y75.252 E41.67044
G1 X194.271 Y75.541 E41.70049
G1 X195.097 Y75.905 E41.73051
G1 X195.889 Y76.34 E41.76056
G1 X196.638 Y76.844 E41.79059
G1 X197.341 Y77.412 E41.82065
G1 X197.99 Y78.039 E41.85066
G1 X198.581 Y78.722 E41.8807
G1 X199.11 Y79.454 E41.91074
G1 X199.571 Y80.231 E41.94079
G1 X199.962 Y81.045 E41.97083
G1 X200.28 Y81.89 E42.00085
G1 X200.521 Y82.76 E42.03088
G1 X200.685 Y83.648 E42.06092
G1 X200.778 Y84.763 E42.09813
G1 X200.791 Y85.37 E42.11832
G1 X200.79 Y119.188 E43.24311
G1 X200.78 Y119.89 E43.26646
G1 X200.727 Y120.792 E43.29652
G1 X200.595 Y121.685 E43.32654
G1 X200.384 Y122.563 E43.35657
G1 X200.096 Y123.419 E43.38661
G1 X199.734 Y124.247 E43.41667
G1 X199.3 Y125.039 E43.44671
G1 X198.797 Y125.789 E43.47674
G1 X198.231 Y126.492 E43.50676
G1 X197.604 Y127.142 E43.5368
G1 X197.1 Y127.59 E43.55923
G1 X194.905 Y129.414 E43.65415
G1 X192.974 Y131.116 E43.73976
G1 X191.123 Y132.841 E43.82392
G1 X189.347 Y134.596 E43.90696
G1 X187.567 Y136.454 E43.99254
G1 X185.864 Y138.338 E44.07701
G1 X184.161 Y140.331 E44.1642
G1 X183.238 Y141.448 E44.2124
G1 X182.633 Y142.118 E44.24242
G1 X181.971 Y142.732 E44.27245
G1 X181.256 Y143.285 E44.30252
G1 X180.496 Y143.772 E44.33254
G1 X179.319 Y144.358 E44.37627
G1 X178.493 Y144.704 E44.40605
G1 X176.089 Y145.752 E44.49328
G1 X173.807 Y146.824 E44.57714
G1 X171.526 Y147.977 E44.66214
G1 X169.294 Y149.183 E44.74652
G1 X167.097 Y150.453 E44.83093
G1 X164.957 Y151.773 E44.91456
G1 X162.808 Y153.183 E45.00004
G1 X160.714 Y154.644 E45.08497
G1 X158.707 Y156.129 E45.168
G1 X156.685 Y157.715 E45.25348
G1 X154.76 Y159.317 E45.33677
G1 X152.82 Y161.026 E45.42276
G1 X150.962 Y162.758 E45.50725
G1 X149.194 Y164.502 E45.58985
G1 X147.401 Y166.374 E45.67606
G1 X145.706 Y168.247 E45.76008
G1 X144.043 Y170.192 E45.84519
G1 X142.48 Y172.128 E45.92795
G1 X140.921 Y174.178 E46.01361
G1 X139.28 Y176.465 E46.10723
G1 X138.721 Y177.175 E46.13729
G1 X138.102 Y177.833 E46.16733
G1 X137.427 Y178.433 E46.19737
G1 X136.702 Y178.971 E46.2274
G1 X135.932 Y179.443 E46.25744
G1 X135.123 Y179.845 E46.28749
G1 X134.282 Y180.174 E46.31752
G1 X133.415 Y180.427 E46.34756
G1 X132.529 Y180.602 E46.3776
G1 X131.277 Y180.715 E46.41941
G1 X130.67 Y180.728 E46.4396
G1 X90.562 Y180.727 E47.7736
G1 X89.86 Y180.717 E47.79695
G1 X88.958 Y180.664 E47.827
G1 X88.065 Y180.532 E47.85703
G1 X87.187 Y180.321 E47.88706
G1 X86.331 Y180.033 E47.9171
G1 X85.503 Y179.671 E47.94716
G1 X84.711 Y179.237 E47.97719
G1 X83.961 Y178.734 E48.00723
G1 X83.258 Y178.168 E48.03725
G1 X82.454 Y177.375 E48.07481
G1 X81.787 Y176.639 E48.10785
G1 X81.188 Y175.959 E48.13799
G1 X79.464 Y174.109 E48.22209
G1 X77.671 Y172.291 E48.30702
G1 X75.832 Y170.529 E48.39173
G1 X73.955 Y168.83 E48.47594
G1 X72.045 Y167.197 E48.55952
G1 X70.045 Y165.581 E48.64504
G1 X68.019 Y164.039 E48.72972
G1 X65.966 Y162.565 E48.81378
G1 X63.869 Y161.148 E48.89796
G1 X61.702 Y159.77 E48.98337
G1 X59.546 Y158.485 E49.06685
G1 X57.316 Y157.239 E49.15181
G1 X55.065 Y156.064 E49.23627
G1 X52.786 Y154.955 E49.32056
G1 X50.485 Y153.915 E49.40455
G1 X48.092 Y152.915 E49.49081
G1 X45.77 Y152.018 E49.5736
G1 X43.359 Y151.167 E49.65864
G1 X40.934 Y150.386 E49.74338
G1 X38.522 Y149.683 E49.82694
G1 X36.037 Y149.036 E49.91235
G1 X33.541 Y148.462 E49.99753
G1 X31.107 Y147.973 E50.0801
G1 X28.555 Y147.534 E50.16623
G1 X26.094 Y147.183 E50.24891
G1 X23.531 Y146.891 E50.33471
G1 X20.992 Y146.674 E50.41946
G1 X18.495 Y146.531 E50.50265
G1 X15.824 Y146.456 E50.59152
G1 X14.606 Y146.438 E50.63204
G1 X13.705 Y146.384 E50.66206
G1 X12.812 Y146.252 E50.69208
G1 X11.934 Y146.04 E50.72213
G1 X11.078 Y145.752 E50.75216
G1 X10.251 Y145.389 E50.7822
G1 X9.459 Y144.955 E50.81224
G1 X8.709 Y144.452 E50.84228
G1 X8.006 Y143.884 E50.87234
G1 X7.356 Y143.257 E50.90237
G1 X6.765 Y142.575 E50.93239
G1 X6.235 Y141.843 E50.96245
G1 X5.773 Y141.067 E50.99249
G1 X5.381 Y140.254 E51.02251
G1 X5.063 Y139.409 E51.05253
G1 X4.821 Y138.539 E51.08257
G1 X4.656 Y137.651 E51.11261
G1 X4.562 Y136.516 E51.15049
G1 X4.549 Y135.908 E51.17072
G1 X4.55 Y84.284 E52.88774
G1 X4.559 Y83.621 E52.90979
G1 X4.611 Y82.719 E52.93984
G1 X4.743 Y81.826 E52.96987
G1 X4.953 Y80.947 E52.99992
G1 X5.24 Y80.091 E53.02995
G1 X5.602 Y79.264 E53.05998
G1 X6.036 Y78.471 E53.09005
G1 X6.538 Y77.72 E53.12009
G1 X7.104 Y77.017 E53.15011
