;FLAVOR:Marlin
;TIME:15293
;Filament used: 15.1074m
;Layer height: 0.28
;MINX:33
;MINY:-1
;MINZ:0.28
;MAXX:187
;MAXY:221
;MAXZ:19.88
;Generated with Creality Slicer 4.8.2-291
M140 S60
M105
M190 S60
M104 S200
M105
M109 S200
M82 ;absolute extrusion mode

G28 ;Home

G92 E0 ;Reset Extruder
G1 Z2.0 F3000 ;Move Z Axis up
G1 X10.1 Y20 Z0.28 F5000.0 ;Move to start position
G1 X10.1 Y200.0 Z0.28 F1500.0 E15 ;Draw the first line
G1 X10.4 Y200.0 Z0.28 F5000.0 ;Move to side a little
G1 X10.4 Y20 Z0.28 F1500.0 E30 ;Draw the second line
G92 E0 ;Reset Extruder
G1 Z2.0 F3000 ;Move Z Axis up

G92 E0
G92 E0
G1 F1500 E-4
;LAYER_COUNT:71
;LAYER:0
M107
G0 F6000 X33.195 Y7.995 Z0.28
;TYPE:SKIRT
G1 F1500 E0
G1 F1200 X33.406 Y7.081 E0.04368
G1 X33.694 Y6.189 E0.08733
G1 X34.057 Y5.324 E0.13101
G1 X34.492 Y4.493 E0.17468
G1 X34.996 Y3.703 E0.21832
G1 X35.566 Y2.958 E0.262
G1 X36.198 Y2.264 E0.3057
G1 X36.886 Y1.627 E0.34936
G1 X37.626 Y1.051 E0.39303
G1 X38.412 Y0.539 E0.43671
G1 X39.239 Y0.097 E0.48037
G1 X40.101 Y-.273 E0.52405
G1 X40.991 Y-.569 E0.56772
G1 X41.903 Y-.787 E0.61139
G1 X42.83 Y-.928 E0.65505
G1 X43.701 Y-.987 E0.6957
G1 X44.022 Y-.996 E0.71065
G1 X44.33 Y-1 E0.725
G1 X175.293 Y-1 E6.82318
G1 X176.149 Y-.989 E6.86304
G1 X177.085 Y-.935 E6.9067
G1 X178.013 Y-.803 E6.95035
G1 X178.927 Y-.591 E6.99404
G1 X179.819 Y-.302 E7.0377
G1 X180.684 Y0.061 E7.08138
G1 X181.514 Y0.497 E7.12503
G1 X182.305 Y1.002 E7.16873
G1 X183.049 Y1.573 E7.2124
G1 X183.742 Y2.205 E7.25608
G1 X184.379 Y2.893 E7.29974
G1 X184.954 Y3.634 E7.34341
G1 X185.465 Y4.42 E7.38706
G1 X185.907 Y5.248 E7.43077
G1 X186.276 Y6.11 E7.47443
G1 X186.571 Y7 E7.51809
G1 X186.789 Y7.912 E7.56175
G1 X186.929 Y8.84 E7.60545
G1 X186.987 Y9.701 E7.64563
G1 X186.996 Y10.021 E7.66054
G1 X187 Y10.33 E7.67493
G1 X186.999 Y209.4 E16.94446
G1 X186.99 Y210.127 E16.97832
G1 X186.939 Y211.064 E17.02201
G1 X186.807 Y211.992 E17.06566
G1 X186.598 Y212.906 E17.10932
G1 X186.311 Y213.799 E17.15299
G1 X185.949 Y214.665 E17.1967
G1 X185.515 Y215.496 E17.24035
G1 X185.011 Y216.287 E17.28403
G1 X184.442 Y217.032 E17.32768
G1 X183.811 Y217.727 E17.37139
G1 X183.124 Y218.365 E17.41505
G1 X182.385 Y218.942 E17.4587
G1 X181.599 Y219.454 E17.50238
G1 X180.773 Y219.897 E17.54603
G1 X179.911 Y220.269 E17.58974
G1 X179.022 Y220.565 E17.63337
G1 X178.11 Y220.785 E17.67706
G1 X177.183 Y220.926 E17.72072
G1 X176.299 Y220.987 E17.76198
G1 X175.978 Y220.996 E17.77693
G1 X175.67 Y221 E17.79128
G1 X44.565 Y220.999 E23.89608
G1 X43.867 Y220.99 E23.92858
G1 X42.931 Y220.938 E23.97223
G1 X42.002 Y220.806 E24.01592
G1 X41.088 Y220.596 E24.05959
G1 X40.195 Y220.309 E24.10327
G1 X39.33 Y219.946 E24.14695
G1 X38.499 Y219.512 E24.1906
G1 X37.708 Y219.008 E24.23428
G1 X36.963 Y218.438 E24.27796
G1 X36.269 Y217.807 E24.32163
G1 X35.632 Y217.12 E24.36526
G1 X35.055 Y216.38 E24.40895
G1 X34.543 Y215.594 E24.45263
G1 X34.1 Y214.767 E24.49632
G1 X33.729 Y213.906 E24.53997
G1 X33.433 Y213.016 E24.58365
G1 X33.214 Y212.104 E24.62732
G1 X33.073 Y211.177 E24.67098
G1 X33.013 Y210.288 E24.71247
G1 X33.004 Y209.955 E24.72798
G1 X33 Y209.658 E24.74181
G1 X33.001 Y10.525 E34.01428
G1 X33.01 Y9.86 E34.04525
G1 X33.063 Y8.924 E34.0889
G1 X33.195 Y7.995 E34.13259
G0 F6000 X33.594 Y8.035
G1 F1200 X33.805 Y7.139 E34.17546
G1 X34.092 Y6.264 E34.21834
G1 X34.455 Y5.418 E34.2612
G1 X34.889 Y4.606 E34.30408
G1 X35.392 Y3.835 E34.34694
G1 X35.961 Y3.111 E34.38982
G1 X36.589 Y2.439 E34.43265
G1 X37.274 Y1.823 E34.47554
G1 X38.01 Y1.27 E34.51841
G1 X38.791 Y0.782 E34.56129
G1 X39.611 Y0.364 E34.60415
G1 X40.465 Y0.019 E34.64704
G1 X41.345 Y-.251 E34.6899
G1 X42.245 Y-.443 E34.73275
G1 X43.159 Y-.557 E34.77564
G1 X43.712 Y-.587 E34.80143
G1 X44.033 Y-.596 E34.81638
G1 X44.33 Y-.6 E34.83021
G1 X175.293 Y-.6 E40.9284
G1 X176.143 Y-.589 E40.96798
G1 X177.062 Y-.536 E41.01084
G1 X177.973 Y-.403 E41.05371
G1 X178.869 Y-.192 E41.09658
G1 X179.743 Y0.096 E41.13943
G1 X180.59 Y0.459 E41.18234
G1 X181.401 Y0.894 E41.22519
G1 X182.171 Y1.398 E41.26804
G1 X182.895 Y1.967 E41.31092
G1 X183.567 Y2.597 E41.35381
G1 X184.182 Y3.282 E41.39668
G1 X184.735 Y4.018 E41.43954
G1 X185.222 Y4.799 E41.4824
G1 X185.639 Y5.62 E41.52528
G1 X185.984 Y6.474 E41.56817
G1 X186.253 Y7.354 E41.61101
G1 X186.445 Y8.255 E41.65391
G1 X186.558 Y9.168 E41.69675
G1 X186.587 Y9.712 E41.72212
G1 X186.596 Y10.032 E41.73702
G1 X186.6 Y10.33 E41.7509
G1 X186.599 Y209.395 E51.0202
G1 X186.59 Y210.122 E51.05405
G1 X186.539 Y211.041 E51.09691
G1 X186.408 Y211.953 E51.13982
G1 X186.198 Y212.849 E51.18267
G1 X185.912 Y213.724 E51.22553
G1 X185.551 Y214.571 E51.2684
G1 X185.117 Y215.383 E51.31128
G1 X184.615 Y216.155 E51.35416
G1 X184.047 Y216.88 E51.39704
G1 X183.419 Y217.553 E51.4399
G1 X182.735 Y218.169 E51.48277
G1 X182 Y218.723 E51.52562
G1 X181.22 Y219.212 E51.56849
G1 X180.4 Y219.631 E51.61137
G1 X179.547 Y219.977 E51.65423
G1 X178.667 Y220.248 E51.69711
G1 X177.767 Y220.441 E51.73997
G1 X176.853 Y220.556 E51.78286
G1 X176.288 Y220.587 E51.80921
G1 X175.967 Y220.596 E51.82416
G1 X175.67 Y220.6 E51.838
G1 X44.57 Y220.599 E57.94256
G1 X43.872 Y220.59 E57.97507
G1 X42.953 Y220.538 E58.01793
G1 X42.042 Y220.407 E58.06078
G1 X41.146 Y220.197 E58.10363
G1 X40.271 Y219.91 E58.14651
G1 X39.424 Y219.548 E58.18941
G1 X38.612 Y219.114 E58.23228
G1 X37.841 Y218.612 E58.27512
G1 X37.116 Y218.044 E58.318
G1 X36.443 Y217.415 E58.3609
G1 X35.828 Y216.731 E58.40373
G1 X35.274 Y215.996 E58.44659
G1 X34.786 Y215.215 E58.48947
G1 X34.367 Y214.395 E58.53235
G1 X34.021 Y213.542 E58.57521
G1 X33.751 Y212.662 E58.61807
G1 X33.558 Y211.761 E58.66098
G1 X33.444 Y210.848 E58.70382
G1 X33.413 Y210.277 E58.73045
G1 X33.404 Y209.944 E58.74596
G1 X33.4 Y209.658 E58.75928
G1 X33.401 Y10.531 E68.03146
G1 X33.41 Y9.866 E68.06243
G1 X33.462 Y8.946 E68.10534
G1 X33.594 Y8.035 E68.1482
G0 F6000 X33.994 Y8.076
G1 F1200 X34.204 Y7.198 E68.19024
G1 X34.491 Y6.341 E68.23232
G1 X34.853 Y5.514 E68.27436
G1 X35.286 Y4.722 E68.31639
G1 X35.788 Y3.971 E68.35845
G1 X36.355 Y3.267 E68.40054
G1 X36.981 Y2.617 E68.44257
G1 X37.662 Y2.024 E68.48461
G1 X38.394 Y1.494 E68.52669
G1 X39.169 Y1.031 E68.56873
G1 X39.982 Y0.638 E68.61078
G1 X40.827 Y0.318 E68.65285
G1 X41.696 Y0.075 E68.69487
G1 X42.584 Y-0.091 E68.73693
G1 X43.723 Y-.187 E68.79016
G1 X44.044 Y-.196 E68.80511
G1 X44.33 Y-.2 E68.81843
G1 X175.293 Y-.2 E74.91662
G1 X176.137 Y-.189 E74.95592
G1 X177.039 Y-.136 E74.99799
G1 X177.932 Y-0.004 E75.04003
G1 X178.81 Y0.207 E75.08207
G1 X179.666 Y0.495 E75.12413
G1 X180.493 Y0.857 E75.16616
G1 X181.285 Y1.292 E75.20824
G1 X182.036 Y1.794 E75.2503
G1 X182.739 Y2.361 E75.29236
G1 X183.389 Y2.988 E75.33441
G1 X183.981 Y3.67 E75.37646
G1 X184.511 Y4.401 E75.41851
G1 X184.973 Y5.177 E75.46056
G1 X185.366 Y5.99 E75.50261
G1 X185.684 Y6.835 E75.54465
G1 X185.927 Y7.705 E75.58671
G1 X186.092 Y8.593 E75.62877
G1 X186.187 Y9.723 E75.68157
G1 X186.196 Y10.043 E75.69648
G1 X186.2 Y10.33 E75.70984
G1 X186.199 Y209.39 E84.97891
G1 X186.19 Y210.117 E85.01276
G1 X186.139 Y211.019 E85.05483
G1 X186.008 Y211.913 E85.0969
G1 X185.799 Y212.791 E85.13893
G1 X185.513 Y213.648 E85.181
G1 X185.152 Y214.476 E85.22306
G1 X184.72 Y215.268 E85.26507
G1 X184.219 Y216.02 E85.30714
G1 X183.653 Y216.724 E85.3492
G1 X183.028 Y217.375 E85.39123
G1 X182.347 Y217.969 E85.4333
G1 X181.616 Y218.5 E85.47538
G1 X180.842 Y218.964 E85.5174
G1 X180.029 Y219.358 E85.55946
G1 X179.185 Y219.678 E85.60149
G1 X178.315 Y219.923 E85.64358
G1 X177.428 Y220.089 E85.6856
G1 X176.277 Y220.187 E85.73939
G1 X175.956 Y220.196 E85.75434
G1 X175.67 Y220.2 E85.76766
G1 X44.575 Y220.199 E91.87199
G1 X43.877 Y220.19 E91.9045
G1 X42.976 Y220.139 E91.94652
G1 X42.082 Y220.007 E91.9886
G1 X41.204 Y219.798 E92.03063
G1 X40.347 Y219.511 E92.07271
G1 X39.52 Y219.15 E92.11473
G1 X38.727 Y218.717 E92.1568
G1 X37.976 Y218.216 E92.19884
G1 X37.272 Y217.65 E92.2409
G1 X36.621 Y217.024 E92.28295
G1 X36.028 Y216.343 E92.325
G1 X35.498 Y215.612 E92.36704
G1 X35.034 Y214.837 E92.4091
G1 X34.64 Y214.024 E92.45117
G1 X34.32 Y213.18 E92.4932
G1 X34.076 Y212.31 E92.53528
G1 X33.91 Y211.422 E92.57734
G1 X33.813 Y210.267 E92.63131
G1 X33.804 Y209.934 E92.64682
G1 X33.8 Y209.658 E92.65968
G1 X33.801 Y10.536 E101.93163
G1 X33.81 Y9.871 E101.9626
G1 X33.862 Y8.969 E102.00467
G1 X33.994 Y8.076 E102.0467
G1 F1500 E98.0467
;MESH:Body2.stl
G0 F6000 X66.327 Y32.625
G0 X66.327 Y31.19
G0 X64.4 Y31.36
;TYPE:WALL-INNER
G1 F1500 E102.0467
G1 F1200 X64.4 Y186.56 E109.27347
G1 X151.6 Y186.56 E113.33386
G1 X151.6 Y31.36 E120.56062
G1 X64.4 Y31.36 E124.62102
G0 F6000 X64.8 Y31.76
;TYPE:WALL-OUTER
G1 F1200 X64.8 Y186.16 E131.81053
G1 X151.2 Y186.16 E135.83368
G1 X151.2 Y31.76 E143.02319
G1 X64.8 Y31.76 E147.04634
G1 F1500 E143.04634
G0 F6000 X64.8 Y31.46
G0 X64.572 Y186.388
G0 X141.125 Y186.73
G0 X141.125 Y185.295
G0 X151.79 Y210.665
G0 X151.79 Y209.19
G0 X175.4 Y209.4
;TYPE:WALL-INNER
G1 F1500 E147.04634
G1 F1200 X44.6 Y209.4 E153.13693
G1 X44.6 Y10.6 E162.39389
G1 X175.4 Y10.6 E168.48449
G1 X175.4 Y209.4 E177.74145
G0 F6000 X175.8 Y209.8
;TYPE:WALL-OUTER
G1 F1200 X44.2 Y209.8 E183.8693
G1 X44.2 Y10.2 E193.16351
G1 X175.8 Y10.2 E199.29136
G1 X175.8 Y209.8 E208.58557
G0 F6000 X175.53 Y209.53
G0 X175.29 Y209.01
G0 X175.01 Y209.01
;TYPE:SKIN
G1 F1200 X44.99 Y209.01 E214.63984
G1 X44.99 Y10.99 E223.86048
G1 X175.01 Y10.99 E229.91476
G1 X175.01 Y209.01 E239.1354
G1 F1500 E235.1354
G0 F6000 X175.29 Y209.01
G0 X151.71 Y209.19
G0 X151.71 Y210.665
G0 X150.347 Y185.307
G0 X151.71 Y186.75
G0 X151.99 Y186.95
G1 F1500 E239.1354
G1 F1200 X151.99 Y30.97 E246.39848
G1 X64.01 Y30.97 E250.4952
G1 X64.01 Y186.95 E257.75828
G1 X151.99 Y186.95 E261.855
G1 F1500 E257.855
G0 F6000 X151.71 Y186.7
G0 X104.796 Y186.73
G0 X104.796 Y185.295
G0 X43.335 Y186.75
G0 X44.81 Y186.75
G0 X44.782 Y209.218
G0 X45.365 Y209.29
G0 X45.365 Y208.848
G1 F1500 E261.855
G1 F1200 X45.149 Y208.632 E261.86922
G0 F6000 X45.149 Y208.066
G1 F1200 X45.931 Y208.848 E261.92072
G0 F6000 X46.497 Y208.848
G1 F1200 X45.149 Y207.501 E262.00946
G0 F6000 X45.149 Y206.935
G1 F1200 X47.062 Y208.848 E262.13543
G0 F6000 X47.628 Y208.848
G1 F1200 X45.149 Y206.369 E262.29868
G0 F6000 X45.149 Y205.804
G1 F1200 X48.194 Y208.848 E262.49916
G0 F6000 X48.759 Y208.848
G1 F1200 X45.149 Y205.238 E262.73689
G0 F6000 X45.149 Y204.672
G1 F1200 X49.325 Y208.848 E263.01188
G0 F6000 X49.891 Y208.848
G1 F1200 X45.149 Y204.107 E263.32412
G0 F6000 X45.149 Y203.541
G1 F1200 X50.457 Y208.848 E263.67363
G0 F6000 X51.022 Y208.848
G1 F1200 X45.149 Y202.975 E264.06037
G0 F6000 X45.149 Y202.41
G1 F1200 X51.588 Y208.848 E264.48436
G0 F6000 X52.154 Y208.848
G1 F1200 X45.149 Y201.844 E264.94562
G0 F6000 X45.149 Y201.278
G1 F1200 X52.719 Y208.848 E265.44412
G0 F6000 X53.285 Y208.848
G1 F1200 X45.149 Y200.712 E265.97989
G0 F6000 X45.149 Y200.147
G1 F1200 X53.851 Y208.848 E266.55289
G0 F6000 X54.416 Y208.848
G1 F1200 X45.149 Y199.581 E267.16314
G0 F6000 X45.149 Y199.015
G1 F1200 X54.982 Y208.848 E267.81066
G0 F6000 X55.548 Y208.848
G1 F1200 X45.149 Y198.45 E268.49542
G0 F6000 X45.149 Y197.884
G1 F1200 X56.113 Y208.848 E269.21742
G0 F6000 X56.679 Y208.848
G1 F1200 X45.149 Y197.318 E269.97669
G0 F6000 X45.149 Y196.753
G1 F1200 X57.245 Y208.848 E270.7732
G0 F6000 X57.81 Y208.848
G1 F1200 X45.149 Y196.187 E271.60695
G0 F6000 X45.149 Y195.621
G1 F1200 X58.376 Y208.848 E272.47797
G0 F6000 X58.942 Y208.848
G1 F1200 X45.149 Y195.056 E273.38623
G0 F6000 X45.149 Y194.49
G1 F1200 X59.507 Y208.848 E274.33173
G0 F6000 X60.073 Y208.848
G1 F1200 X45.149 Y193.924 E275.3145
G0 F6000 X45.149 Y193.359
G1 F1200 X60.639 Y208.848 E276.33451
G0 F6000 X61.205 Y208.848
G1 F1200 X45.149 Y192.793 E277.39179
G0 F6000 X45.149 Y192.227
G1 F1200 X61.77 Y208.848 E278.48631
G0 F6000 X62.336 Y208.848
G1 F1200 X45.149 Y191.662 E279.61807
G0 F6000 X45.149 Y191.096
G1 F1200 X62.902 Y208.848 E280.7871
G0 F6000 X63.467 Y208.848
G1 F1200 X45.149 Y190.53 E281.99337
G0 F6000 X45.149 Y189.964
G1 F1200 X64.033 Y208.848 E283.23692
G0 F6000 X64.599 Y208.848
G1 F1200 X45.149 Y189.399 E284.5177
G0 F6000 X45.149 Y188.833
G1 F1200 X65.164 Y208.848 E285.83572
G0 F6000 X65.73 Y208.848
G1 F1200 X45.149 Y188.267 E287.19102
G0 F6000 X45.149 Y187.702
G1 F1200 X66.296 Y208.848 E288.58355
G0 F6000 X66.861 Y208.848
G1 F1200 X45.149 Y187.136 E290.01332
G0 F6000 X45.149 Y186.57
G1 F1200 X67.427 Y208.848 E291.48037
G0 F6000 X67.993 Y208.848
G1 F1200 X45.149 Y186.005 E292.98465
G0 F6000 X45.149 Y185.439
G1 F1200 X68.558 Y208.848 E294.52617
G0 F6000 X69.124 Y208.848
G1 F1200 X45.149 Y184.873 E296.10497
G0 F6000 X45.149 Y184.308
G1 F1200 X69.69 Y208.848 E297.721
G0 F6000 X70.256 Y208.848
G1 F1200 X45.149 Y183.742 E299.37431
G0 F6000 X45.149 Y183.176
G1 F1200 X70.821 Y208.848 E301.06485
G0 F6000 X71.387 Y208.848
G1 F1200 X45.149 Y182.611 E302.79264
G0 F6000 X45.149 Y182.045
G1 F1200 X71.953 Y208.848 E304.55769
G0 F6000 X72.518 Y208.848
G1 F1200 X45.149 Y181.479 E306.35999
G0 F6000 X45.149 Y180.913
G1 F1200 X73.084 Y208.848 E308.19956
G0 F6000 X73.65 Y208.848
G1 F1200 X45.149 Y180.348 E310.07636
G0 F6000 X45.149 Y179.782
G1 F1200 X74.215 Y208.848 E311.99041
G0 F6000 X74.781 Y208.848
G1 F1200 X45.149 Y179.216 E313.94173
G0 F6000 X45.149 Y178.651
G1 F1200 X75.347 Y208.848 E315.93028
G0 F6000 X75.912 Y208.848
G1 F1200 X45.149 Y178.085 E317.95608
G0 F6000 X45.149 Y177.519
G1 F1200 X76.478 Y208.848 E320.01915
G0 F6000 X77.044 Y208.848
G1 F1200 X45.149 Y176.954 E322.11945
G0 F6000 X45.149 Y176.388
G1 F1200 X77.609 Y208.848 E324.257
G0 F6000 X78.175 Y208.848
G1 F1200 X45.149 Y175.822 E326.43182
G0 F6000 X45.149 Y175.257
G1 F1200 X78.741 Y208.848 E328.64388
G0 F6000 X79.306 Y208.848
G1 F1200 X45.149 Y174.691 E330.89317
G0 F6000 X45.149 Y174.125
G1 F1200 X79.872 Y208.848 E333.17974
G0 F6000 X80.438 Y208.848
G1 F1200 X45.149 Y173.56 E335.50355
G0 F6000 X45.149 Y172.994
G1 F1200 X81.004 Y208.848 E337.86463
G0 F6000 X81.569 Y208.848
G1 F1200 X45.149 Y172.428 E340.26295
G0 F6000 X45.149 Y171.863
G1 F1200 X82.135 Y208.848 E342.69851
G0 F6000 X82.701 Y208.848
G1 F1200 X45.149 Y171.297 E345.17134
G0 F6000 X45.149 Y170.731
G1 F1200 X83.266 Y208.848 E347.68141
G0 F6000 X83.832 Y208.848
G1 F1200 X45.149 Y170.165 E350.22875
G0 F6000 X45.149 Y169.6
G1 F1200 X84.398 Y208.848 E352.81333
G0 F6000 X84.963 Y208.848
G1 F1200 X45.149 Y169.034 E355.43515
G0 F6000 X45.149 Y168.468
G1 F1200 X85.529 Y208.848 E358.09424
G0 F6000 X86.095 Y208.848
G1 F1200 X64.355 Y187.109 E359.52582
G0 F6000 X64.921 Y187.109
G1 F1200 X86.66 Y208.848 E360.95737
G0 F6000 X87.226 Y208.848
G1 F1200 X65.487 Y187.109 E362.38893
G0 F6000 X66.052 Y187.109
G1 F1200 X87.792 Y208.848 E363.82051
G0 F6000 X88.357 Y208.848
G1 F1200 X66.618 Y187.109 E365.25206
G0 F6000 X67.184 Y187.109
G1 F1200 X88.923 Y208.848 E366.68361
G0 F6000 X89.489 Y208.848
G1 F1200 X67.75 Y187.109 E368.11516
G0 F6000 X68.315 Y187.109
G1 F1200 X90.054 Y208.848 E369.54671
G0 F6000 X90.62 Y208.848
G1 F1200 X68.881 Y187.109 E370.97826
G0 F6000 X69.447 Y187.109
G1 F1200 X91.186 Y208.848 E372.40981
G0 F6000 X91.752 Y208.848
G1 F1200 X70.012 Y187.109 E373.84139
G0 F6000 X70.578 Y187.109
G1 F1200 X92.317 Y208.848 E375.27294
G0 F6000 X92.883 Y208.848
G1 F1200 X71.144 Y187.109 E376.70449
G0 F6000 X71.709 Y187.109
G1 F1200 X93.449 Y208.848 E378.13608
G0 F6000 X94.014 Y208.848
G1 F1200 X72.275 Y187.109 E379.56763
G0 F6000 X72.841 Y187.109
G1 F1200 X94.58 Y208.848 E380.99918
G0 F6000 X95.146 Y208.848
G1 F1200 X73.406 Y187.109 E382.43076
G0 F6000 X73.972 Y187.109
G1 F1200 X95.711 Y208.848 E383.86231
G0 F6000 X96.277 Y208.848
G1 F1200 X74.538 Y187.109 E385.29386
G0 F6000 X75.103 Y187.109
G1 F1200 X96.843 Y208.848 E386.72544
G0 F6000 X97.408 Y208.848
G1 F1200 X75.669 Y187.109 E388.15699
G0 F6000 X76.235 Y187.109
G1 F1200 X97.974 Y208.848 E389.58855
G0 F6000 X98.54 Y208.848
G1 F1200 X76.8 Y187.109 E391.02013
G0 F6000 X77.366 Y187.109
G1 F1200 X99.105 Y208.848 E392.45168
G0 F6000 X99.671 Y208.848
G1 F1200 X77.932 Y187.109 E393.88323
G0 F6000 X78.498 Y187.109
G1 F1200 X100.237 Y208.848 E395.31478
G0 F6000 X100.803 Y208.848
G1 F1200 X79.063 Y187.109 E396.74636
