; generated by PrusaSlicer 2.9.0 on 2025-09-19 at 12:21:34 UTC

; 

; external perimeters extrusion width = 0.68mm
; perimeters extrusion width = 0.68mm
; infill extrusion width = 0.68mm
; solid infill extrusion width = 0.68mm
; top infill extrusion width = 0.60mm
; support material extrusion width = 0.60mm
; first layer extrusion width = 0.60mm

M201 X500 Y500 Z100 E5000 ; sets maximum accelerations, mm/sec^2
M203 X500 Y500 Z10 E60 ; sets maximum feedrates, mm / sec
M204 P500 R1000 T500 ; sets acceleration (P, T) and retract acceleration (R), mm/sec^2
M205 X8.00 Y8.00 Z0.40 E5.00 ; sets the jerk limits, mm/sec
M205 S0 T0 ; sets the minimum extruding and travel feed rate, mm/sec
;TYPE:Custom
G90 ; use absolute coordinates
M83 ; extruder relative mode
M104 S200 ; set temporary nozzle temp to prevent oozing during homing and auto bed leveling
M140 S60 ; set final bed temp
G4 S30 ; allow partial nozzle warmup
G28 ; home all axis
G29 ; auto bed levelling
G1 Z50 F240
G1 X2.0 Y10 F3000
M104 S205 ; set final nozzle temp
M190 S60 ; wait for bed temp to stabilize
M109 S205 ; wait for nozzle temp to stabilize
G1 Z0.28 F240
G92 E0
G1 X2.0 Y140 E10 F1500 ; prime the nozzle
G1 X2.3 Y140 F5000
G92 E0
G1 X2.3 Y10 E10 F1200 ; prime the nozzle
G92 E0
G21 ; set units to millimeters
G90 ; use absolute coordinates
M83 ; use relative distances for extrusion
; Filament gcode
M107
;LAYER_CHANGE
;Z:0.6
;HEIGHT:0.6
G1 E-5 F3600
G1 Z.6 F4800
G1 X56.257 Y71.486
G1 Z.6
G1 E5 F2400
;TYPE:Skirt/Brim
;WIDTH:0.6
G1 F1800
G1 X57.271 Y70.711 E.18003
G1 X64.641 Y66.265 E1.21414
G1 X101.369 Y44.998 E5.98677
G1 X103.788 Y43.792 E.38128
G1 X105.836 Y42.968 E.3114
G1 X107.87 Y42.524 E.29367
G1 X110.598 Y42.394 E.38525
G1 X112.199 Y42.525 E.22659
G1 X114.558 Y43.03 E.3403
G1 X116.331 Y43.705 E.26761
G1 X156.373 Y66.617 E6.50768
G1 X163.542 Y71.129 E1.19489
G1 X164.871 Y72.268 E.2469
G1 X166.215 Y73.795 E.28695
G1 X167.844 Y76.088 E.39677
G1 X168.62 Y77.648 E.24578
G1 X169.335 Y79.796 E.31934
G1 X169.646 Y81.46 E.23879
G1 X169.781 Y84.213 E.38881
G1 X169.789 Y133.291 E6.923
G1 X169.452 Y138.461 E.73083
G1 X169.096 Y140.159 E.24473
G1 X168.338 Y142.254 E.31427
G1 X167.163 Y144.245 E.32611
G1 X165.824 Y145.772 E.28648
G1 X164.03 Y147.546 E.3559
G1 X162.899 Y148.419 E.20154
G1 X121.567 Y173.326 E6.80713
G1 X119.462 Y174.517 E.34117
G1 X115.654 Y176.563 E.60979
G1 X113.502 Y177.245 E.31844
G1 X110.956 Y177.564 E.36195
G1 X109.601 Y177.586 E.19116
G1 X106.979 Y177.341 E.37147
G1 X104.742 Y176.696 E.32841
G1 X102.602 Y175.606 E.33877
G1 X98.875 Y173.514 E.60289
G1 X93.201 Y170.178 E.92847
G1 X56.915 Y148.109 E5.99089
G1 X56.102 Y147.504 E.14295
G1 X54.576 Y146.164 E.28647
G1 X53.545 Y145 E.21934
G1 X52.382 Y143.301 E.29043
G1 X51.634 Y141.814 E.2348
G1 X50.898 Y139.68 E.31843
G1 X50.614 Y138.488 E.17285
G1 X50.211 Y135.107 E.4803
G1 X50.231 Y83.414 E7.29188
G1 X50.349 Y82.248 E.16532
G1 X50.824 Y79.844 E.34567
G1 X51.215 Y78.585 E.18596
G1 X52.078 Y76.58 E.30791
G1 X52.853 Y75.259 E.21604
G1 X54.097 Y73.632 E.28891
G1 X54.776 Y72.88 E.14292
G1 X56.192 Y71.548 E.27423
G1 E-3.5 F3600
;WIPE_START
G1 F3840
G1 X56.257 Y71.486 E-.08
G1 X57.271 Y70.711 E-1.13666
G1 X57.543 Y70.547 E-.28334
;WIPE_END
G1 X109.393 Y95.418 F4800
G1 E5 F2400
;TYPE:Perimeter
;WIDTH:0.599999
G1 F1800
G1 X109.4 Y95.415 E.00107
G1 X109.944 Y95.367 E.07704
G1 X110.326 Y95.428 E.05457
G1 X111.237 Y95.961 E.14889
G1 X119.723 Y101.27 E1.412
G1 X120.029 Y101.546 E.05813
G1 X120.248 Y101.914 E.06041
G1 X120.349 Y102.175 E.03948
G1 X120.385 Y102.461 E.04066
G1 X120.407 Y113.944 E1.61981
G1 X120.357 Y114.285 E.04862
G1 X120.145 Y114.719 E.06813
G1 X119.943 Y114.982 E.04678
G1 X119.725 Y115.151 E.03891
G1 X111.638 Y119.996 E1.32982
G1 X110.505 Y120.674 E.18625
G1 X110.261 Y120.785 E.03781
G1 X109.901 Y120.842 E.05141
G1 X109.4 Y120.808 E.07083
G1 X109.075 Y120.676 E.04948
G1 X99.966 Y115.245 E1.49598
G1 X99.724 Y115.054 E.04349
G1 X99.435 Y114.62 E.07355
G1 X99.289 Y114.163 E.06767
G1 X99.319 Y102.601 E1.63095
G1 X99.358 Y102.305 E.04211
G1 X99.572 Y101.841 E.07208
G1 X99.809 Y101.54 E.05404
G1 X100.778 Y100.897 E.16404
G1 X109.092 Y95.555 E1.394
G1 X109.311 Y95.455 E.03396
G1 X109.311 Y95.455 F4800
G1 X109.526 Y95.87
G1 F1800
G1 X109.531 Y95.867 E.00082
G1 X109.99 Y95.839 E.06487
G1 X110.325 Y95.946 E.04961
G1 X119.473 Y101.669 E1.52214
G1 X119.687 Y101.878 E.0422
G1 X119.892 Y102.29 E.06491
G1 X119.913 Y102.462 E.02444
G1 X119.936 Y113.945 E1.61981
G1 X119.906 Y114.15 E.02923
G1 X119.735 Y114.488 E.05343
G1 X119.483 Y114.746 E.05087
G1 X111.396 Y119.591 E1.32982
G1 X110.263 Y120.27 E.18632
G1 X110.011 Y120.361 E.03779
G1 X109.511 Y120.351 E.07054
G1 X109.316 Y120.271 E.02973
G1 X100.208 Y114.841 E1.49578
G1 X99.955 Y114.582 E.05107
G1 X99.786 Y114.25 E.05255
G1 X99.754 Y114.038 E.03024
G1 X99.79 Y102.602 E1.61318
G1 X99.878 Y102.264 E.04927
G1 X100.128 Y101.887 E.06381
G1 X109.347 Y95.951 E1.5467
G1 X109.445 Y95.907 E.01515
G1 X109.445 Y95.907 F4800
G1 X109.668 Y96.337
;TYPE:External perimeter
G1 F1800
G1 X109.841 Y96.31 E.0247
G1 X110.075 Y96.345 E.03338
G1 X119.223 Y102.069 E1.52222
G1 X119.415 Y102.354 E.04847
G1 X119.442 Y102.463 E.01584
G1 X119.465 Y113.945 E1.61967
G1 X119.325 Y114.256 E.04811
G1 X119.241 Y114.342 E.01696
G1 X111.153 Y119.187 E1.32994
G1 X110.021 Y119.866 E.1862
G1 X109.9 Y119.899 E.01769
G1 X109.575 Y119.876 E.04596
G1 X100.449 Y114.436 E1.49869
G1 X100.256 Y114.156 E.04797
G1 X100.225 Y114.039 E.01707
G1 X100.262 Y102.604 E1.61304
G1 X100.398 Y102.295 E.04762
G1 X100.477 Y102.211 E.01627
G1 X109.582 Y96.36 E1.52669
G1 E-3.5 F3600
;WIPE_START
G1 F3840
G1 X109.668 Y96.337 E-.07929
G1 X109.841 Y96.31 E-.15594
G1 X110.075 Y96.345 E-.21072
G1 X111.078 Y96.973 E-1.05405
;WIPE_END
G1 X147.336 Y142.918 F4800
G1 E5 F2400
;TYPE:Perimeter
G1 F1800
G1 X147.332 Y142.919 E.00058
G1 X146.931 Y142.893 E.05668
G1 X144.703 Y142.357 E.32325
G1 X144.402 Y142.239 E.04561
G1 X142.49 Y141.165 E.30935
G1 X140.646 Y140.083 E.30159
G1 X137.037 Y137.917 E.59374
G1 X135.149 Y136.932 E.30039
G1 X133.344 Y135.728 E.30606
G1 X131.503 Y134.746 E.29433
G1 X129.622 Y133.642 E.30766
G1 X125.978 Y131.457 E.59935
G1 X122.304 Y129.316 E.59984
G1 X120.705 Y128.346 E.26381
G1 X118.599 Y127.068 E.34749
G1 X118.34 Y126.855 E.0473
G1 X118.123 Y126.514 E.05702
G1 X117.291 Y124.369 E.32454
G1 X117.217 Y124.057 E.04523
G1 X117.243 Y123.591 E.06584
G1 X117.339 Y123.24 E.05133
G1 X117.435 Y123.066 E.02803
G1 X118.612 Y121.303 E.29902
G1 X118.927 Y120.985 E.06314
G1 X120.806 Y119.707 E.32055
G1 X122.698 Y118.693 E.3028
G1 X124.557 Y117.642 E.30124
G1 X126.798 Y116.714 E.34215
G1 X127.168 Y116.629 E.05355
G1 X127.977 Y116.621 E.11412
G1 X128.373 Y116.686 E.05661
G1 X129.631 Y117.226 E.19311
G1 X131.536 Y118.401 E.31573
G1 X135.151 Y120.569 E.59461
G1 X137.053 Y121.647 E.30839
G1 X138.807 Y122.762 E.29318
G1 X140.665 Y123.813 E.30112
G1 X142.49 Y124.908 E.30022
G1 X144.268 Y126.039 E.29725
G1 X146.125 Y127.09 E.30099
G1 X149.755 Y129.267 E.59708
G1 X151.6 Y130.319 E.29959
G1 X153.394 Y131.45 E.29916
G1 X155.297 Y132.471 E.30463
G1 X155.541 Y132.645 E.04227
G1 X155.752 Y132.907 E.04745
G1 X156.85 Y134.752 E.30286
G1 X156.995 Y135.136 E.0579
G1 X157.014 Y135.656 E.0734
G1 X156.905 Y136.077 E.06134
G1 X155.759 Y138.042 E.32088
G1 X155.615 Y138.238 E.03431
G1 X155.351 Y138.455 E.04821
G1 X149.843 Y141.774 E.90712
G1 X147.72 Y142.808 E.3331
G1 X147.423 Y142.893 E.04358
G1 X147.423 Y142.893 F4800
G1 X147.283 Y142.445
G1 F1800
G1 X147.252 Y142.453 E.00452
G1 X147.041 Y142.435 E.02987
G1 X144.813 Y141.899 E.32325
G1 X144.632 Y141.828 E.02743
G1 X142.729 Y140.759 E.30789
G1 X140.887 Y139.678 E.30127
G1 X137.267 Y137.506 E.5955
G1 X135.367 Y136.515 E.30228
G1 X133.587 Y135.323 E.30219
G1 X131.725 Y134.331 E.29761
G1 X129.855 Y133.232 E.30597
G1 X126.218 Y131.052 E.59814
G1 X122.542 Y128.909 E.60022
G1 X120.949 Y127.943 E.2628
G1 X118.843 Y126.665 E.34749
G1 X118.615 Y126.442 E.04499
G1 X117.731 Y124.198 E.34022
G1 X117.687 Y123.866 E.04724
G1 X117.769 Y123.432 E.0623
G1 X119.004 Y121.565 E.31577
G1 X119.193 Y121.374 E.0379
G1 X121.029 Y120.122 E.31347
G1 X122.925 Y119.105 E.3035
G1 X124.789 Y118.052 E.30199
G1 X126.976 Y117.15 E.33371
G1 X127.239 Y117.097 E.03784
G1 X127.98 Y117.092 E.10453
G1 X128.266 Y117.15 E.04116
G1 X129.444 Y117.659 E.18102
G1 X131.29 Y118.803 E.30635
G1 X134.914 Y120.976 E.59606
G1 X136.8 Y122.044 E.30574
G1 X138.564 Y123.167 E.29498
G1 X140.422 Y124.217 E.30105
G1 X142.247 Y125.312 E.30022
G1 X144.025 Y126.443 E.29725
G1 X145.883 Y127.494 E.30112
G1 X149.517 Y129.674 E.59778
G1 X151.367 Y130.728 E.30034
G1 X153.156 Y131.857 E.29841
G1 X155.074 Y132.886 E.30703
G1 X155.288 Y133.062 E.03908
G1 X155.347 Y133.147 E.0146
G1 X156.445 Y134.993 E.30298
G1 X156.532 Y135.223 E.03469
G1 X156.528 Y135.73 E.07152
G1 X156.448 Y135.933 E.03078
G1 X155.353 Y137.804 E.3058
G1 X155.108 Y138.052 E.04918
G1 X149.601 Y141.37 E.90693
G1 X147.515 Y142.384 E.32718
G1 X147.37 Y142.422 E.02114
G1 X147.37 Y142.422 F4800
G1 X147.23 Y141.968
;TYPE:External perimeter
G1 F1800
G1 X147.151 Y141.977 E.01122
G1 X144.863 Y141.417 E.33227
G1 X142.967 Y140.352 E.30676
G1 X141.127 Y139.273 E.30089
G1 X137.497 Y137.095 E.59715
G1 X135.585 Y136.097 E.30424
G1 X133.83 Y134.919 E.29816
G1 X131.947 Y133.915 E.30102
G1 X130.098 Y132.828 E.30255
G1 X126.458 Y130.646 E.59865
G1 X122.779 Y128.502 E.60066
G1 X121.194 Y127.54 E.26154
G1 X119.088 Y126.262 E.34749
G1 X118.99 Y126.146 E.02142
G1 X118.17 Y124.028 E.32038
G1 X118.186 Y123.66 E.05196
G1 X118.218 Y123.589 E.01099
G1 X119.396 Y121.827 E.29898
G1 X119.459 Y121.763 E.01267
G1 X121.252 Y120.538 E.30632
G1 X123.153 Y119.518 E.30432
G1 X125.021 Y118.462 E.30269
G1 X127.155 Y117.586 E.3254
G1 X127.984 Y117.563 E.11698
G1 X128.079 Y117.583 E.01369
G1 X129.258 Y118.092 E.18115
G1 X131.044 Y119.205 E.29685
G1 X134.676 Y121.384 E.59746
G1 X136.547 Y122.442 E.3032
G1 X138.322 Y123.571 E.29674
G1 X140.18 Y124.621 E.30105
G1 X142.005 Y125.716 E.30022
G1 X143.782 Y126.847 E.29713
G1 X145.641 Y127.898 E.30124
G1 X149.279 Y130.081 E.59848
G1 X151.134 Y131.138 E.30117
G1 X152.919 Y132.264 E.29771
G1 X154.851 Y133.301 E.30931
G1 X154.942 Y133.388 E.01776
G1 X156.04 Y135.234 E.30298
G1 X156.074 Y135.575 E.04834
G1 X156.042 Y135.695 E.01752
G1 X154.946 Y137.565 E.30575
G1 X154.441 Y137.903 E.08572
G1 X149.358 Y140.966 E.83713
G1 X147.319 Y141.955 E.31967
G1 E-3.5 F3600
;WIPE_START
G1 F3840
G1 X147.23 Y141.968 E-.08011
G1 X147.151 Y141.977 E-.07081
G1 X145.68 Y141.617 E-1.34908
;WIPE_END
G1 X126.693 Y97.367 F4800
G1 E5 F2400
;TYPE:Perimeter
G1 F1800
G1 X126.926 Y97.11 E.04893
G1 X128.84 Y95.851 E.32316
G1 X132.531 Y93.636 E.60721
G1 X134.494 Y92.632 E.31102
G1 X138.057 Y90.494 E.58614
G1 X139.881 Y89.252 E.31128
G1 X141.775 Y88.264 E.30134
G1 X143.522 Y87.238 E.28579
G1 X144.649 Y86.42 E.19644
G1 X144.837 Y84.449 E.27929
G1 X144.837 Y81.592 E.40301
G1 X145.095 Y78.824 E.39215
G1 X145.155 Y78.549 E.0397
G1 X145.426 Y78.081 E.07629
G1 X145.625 Y77.86 E.04195
G1 X145.878 Y77.693 E.04276
G1 X147.725 Y76.791 E.28995
G1 X148.137 Y76.676 E.06034
G1 X148.523 Y76.678 E.05445
G1 X148.996 Y76.802 E.06898
G1 X150.897 Y77.835 E.30519
G1 X154.594 Y80.065 E.60903
G1 X156.428 Y81.398 E.31982
G1 X156.705 Y81.683 E.05606
G1 X156.865 Y82.021 E.05275
G1 X157.412 Y84.616 E.3741
G1 X157.437 Y84.858 E.03432
G1 X157.429 Y90.837 E.8434
G1 X157.282 Y92.227 E.19717
G1 X157.18 Y92.598 E.05428
G1 X157.018 Y92.856 E.04297
G1 X155.635 Y94.523 E.30554
G1 X155.334 Y94.782 E.05601
G1 X151.659 Y96.987 E.60455
G1 X149.74 Y98.018 E.30729
G1 X142.485 Y102.371 E1.19348
G1 X140.605 Y103.433 E.30458
G1 X138.785 Y104.501 E.29767
G1 X133.264 Y107.812 E.90811
G1 X131.321 Y108.825 E.30909
G1 X131.045 Y108.927 E.04151
G1 X128.753 Y109.464 E.33207
G1 X128.352 Y109.488 E.05667
G1 X127.844 Y109.33 E.07504
G1 X127.612 Y109.205 E.03717
G1 X127.296 Y108.881 E.06384
G1 X126.104 Y107.059 E.30713
G1 X125.935 Y106.647 E.06282
G1 X125.911 Y106.415 E.0329
G1 X125.907 Y100.51 E.83297
G1 X125.937 Y100.245 E.03762
G1 X126.505 Y97.773 E.35779
G1 X126.644 Y97.44 E.0509
G1 X126.644 Y97.44 F4800
G1 X127.078 Y97.638
G1 F1800
G1 X127.094 Y97.604 E.0053
G1 X127.266 Y97.446 E.03295
G1 X129.098 Y96.245 E.309
G1 X132.773 Y94.04 E.60455
G1 X134.722 Y93.044 E.30875
G1 X138.312 Y90.891 E.5905
G1 X140.099 Y89.67 E.3053
G1 X142.003 Y88.676 E.30298
G1 X143.781 Y87.633 E.29077
G1 X145.098 Y86.676 E.22965
G1 X145.308 Y84.471 E.31245
G1 X145.308 Y81.592 E.40611
G1 X145.564 Y78.868 E.38594
G1 X145.687 Y78.533 E.05034
G1 X145.933 Y78.217 E.05649
G1 X146.085 Y78.117 E.02567
G1 X147.932 Y77.214 E.29001
G1 X148.258 Y77.143 E.04706
G1 X148.693 Y77.185 E.06165
G1 X150.671 Y78.249 E.31682
G1 X154.348 Y80.467 E.60574
G1 X156.15 Y81.779 E.31443
G1 X156.366 Y82.035 E.04725
G1 X156.614 Y83.105 E.15494
G1 X156.95 Y84.713 E.23172
G1 X156.965 Y84.857 E.02042
G1 X156.961 Y90.788 E.83663
G1 X156.814 Y92.178 E.19717
G1 X156.752 Y92.4 E.03251
G1 X155.272 Y94.223 E.33123
G1 X155.092 Y94.377 E.03342
G1 X151.417 Y96.583 E.60462
G1 X149.507 Y97.608 E.30577
G1 X142.243 Y101.967 E1.195
G1 X140.369 Y103.025 E.30357
G1 X138.545 Y104.096 E.29837
G1 X133.046 Y107.394 E.90451
G1 X131.103 Y108.407 E.30909
G1 X130.248 Y108.63 E.12464
G1 X128.646 Y109.005 E.23209
G1 X128.405 Y109.02 E.03406
G1 X127.944 Y108.857 E.06897
G1 X127.88 Y108.817 E.01065
G1 X127.69 Y108.623 E.0383
G1 X126.498 Y106.801 E.30713
G1 X126.394 Y106.538 E.03989
G1 X126.383 Y106.415 E.01742
G1 X126.378 Y100.51 E.83297
G1 X126.964 Y97.879 E.38023
G1 X127.039 Y97.72 E.0248
G1 X127.039 Y97.72 F4800
G1 X127.474 Y97.912
;TYPE:External perimeter
G1 F1800
G1 X127.524 Y97.84 E.01237
G1 X129.357 Y96.639 E.30912
G1 X133.015 Y94.445 E.6017
G1 X134.951 Y93.457 E.3066
G1 X138.567 Y91.287 E.59488
G1 X140.317 Y90.088 E.29924
G1 X142.232 Y89.088 E.30474
G1 X144.039 Y88.028 E.29552
G1 X145.547 Y86.933 E.26288
G1 X145.779 Y84.494 E.3456
G1 X145.779 Y81.592 E.40936
G1 X146.033 Y78.913 E.3796
G1 X146.201 Y78.618 E.04789
G1 X146.291 Y78.54 E.0168
G1 X148.139 Y77.638 E.29008
G1 X148.478 Y77.619 E.04789
G1 X148.579 Y77.647 E.01478
G1 X150.446 Y78.663 E.29983
G1 X154.101 Y80.868 E.60213
G1 X155.873 Y82.16 E.30935
G1 X155.964 Y82.302 E.02379
G1 X156.494 Y84.857 E.36808
G1 X156.492 Y90.738 E.82958
G1 X156.345 Y92.128 E.19717
G1 X156.292 Y92.254 E.01928
G1 X154.91 Y93.922 E.30556
G1 X154.849 Y93.973 E.01122
G1 X151.174 Y96.179 E.60462
G1 X149.274 Y97.198 E.30413
G1 X142 Y101.563 E1.19665
G1 X140.134 Y102.616 E.30224
G1 X138.304 Y103.691 E.29939
G1 X132.828 Y106.976 E.90078
G1 X130.885 Y107.989 E.30909
G1 X128.538 Y108.547 E.3403
G1 X128.397 Y108.536 E.01995
G1 X128.148 Y108.43 E.03817
G1 X128.085 Y108.365 E.01277
G1 X126.892 Y106.543 E.30721
G1 X126.854 Y106.415 E.01883
G1 X126.849 Y100.509 E.83311
G1 X127.423 Y97.986 E.36499
G1 E-3.5 F3600
;WIPE_START
G1 F3840
G1 X127.474 Y97.912 E-.08004
G1 X127.524 Y97.84 E-.07807
G1 X128.784 Y97.014 E-1.34189
;WIPE_END
G1 X107.908 Y128.803 F4800
G1 E5 F2400
;TYPE:Perimeter
G1 F1800
G1 X108.188 Y128.777 E.03967
G1 X108.732 Y128.889 E.07835
G1 X110.587 Y129.334 E.26909
G1 X110.957 Y129.494 E.05686
G1 X111.339 Y129.863 E.07492
G1 X111.544 Y130.19 E.05444
G1 X111.627 Y130.512 E.04691
G1 X111.932 Y133.285 E.39352
G1 X111.932 Y149.721 E2.31848
G1 X112.568 Y151.02 E.20402
G1 X114.102 Y151.944 E.25261
G1 X115.76 Y153.082 E.28367
G1 X117.625 Y154.033 E.29531
G1 X117.804 Y154.146 E.02986
G1 X119.538 Y155.469 E.30766
G1 X119.824 Y155.786 E.06023
G1 X119.988 Y156.232 E.06703
G1 X120.281 Y158.191 E.27941
G1 X120.291 Y158.451 E.0367
G1 X120.15 Y158.973 E.07627
G1 X120.013 Y159.241 E.04246
G1 X119.727 Y159.543 E.05867
G1 X118.295 Y160.836 E.27216
G1 X118.085 Y160.987 E.03649
G1 X116.221 Y162.041 E.30206
G1 X112.563 Y164.234 E.60162
G1 X112.18 Y164.381 E.05787
G1 X109.669 Y164.865 E.36072
G1 X109.337 Y164.881 E.04689
G1 X108.941 Y164.773 E.0579
G1 X106.78 Y163.74 E.33787
G1 X103.163 Y161.593 E.59333
G1 X101.246 Y160.57 E.30651
G1 X101.011 Y160.403 E.04067
G1 X100.789 Y160.138 E.04876
G1 X99.569 Y158.414 E.29792
G1 X99.392 Y158.035 E.059
