; generated by PrusaSlicer 2.9.0 on 2025-09-15 at 07:12:51 UTC

; 

; external perimeters extrusion width = 1.12mm
; perimeters extrusion width = 1.12mm
; infill extrusion width = 1.12mm
; solid infill extrusion width = 1.12mm
; top infill extrusion width = 1.00mm
; support material extrusion width = 1.00mm
; first layer extrusion width = 0.60mm

M201 X500 Y500 Z100 E5000 ; sets maximum accelerations, mm/sec^2
M203 X500 Y500 Z10 E60 ; sets maximum feedrates, mm / sec
M204 S500 T1000 ; sets acceleration (S) and retract acceleration (R), mm/sec^2
M205 X8.00 Y8.00 Z0.40 E5.00 ; sets the jerk limits, mm/sec
M205 S0 T0 ; sets the minimum extruding and travel feed rate, mm/sec
;TYPE:Custom
G90 ; use absolute coordinates
M83 ; extruder relative mode
M104 S200 ; set temporary nozzle temp to prevent oozing during homing
M140 S60 ; set final bed temp
G4 S30 ; allow partial nozzle warmup
G28 ; home all axis
G1 Z50 F240
G1 X2.0 Y10 F3000
M104 S220 ; set final nozzle temp
M190 S60 ; wait for bed temp to stabilize
M109 S220 ; wait for nozzle temp to stabilize
G1 Z0.28 F240
G92 E0
G1 X2.0 Y140 E10 F1500 ; prime the nozzle
G1 X2.3 Y140 F5000
G92 E0
G1 X2.3 Y10 E10 F1200 ; prime the nozzle
G92 E0
G21 ; set units to millimeters
G90 ; use absolute coordinates
M83 ; use relative distances for extrusion
; Filament gcode
M107
;LAYER_CHANGE
;Z:0.6
;HEIGHT:0.6
G1 E-5 F3600
G1 Z.6 F4800
G1 X74.854 Y72.169
G1 Z.6
G1 E5 F2400
;TYPE:Skirt/Brim
;WIDTH:0.6
G1 F1800
G1 X76.592 Y70.78 E.31384
G1 X79.553 Y70.032 E.4308
G1 X151.447 Y70.032 E10.14146
G1 X153.635 Y70.429 E.31368
G1 X155.546 Y71.569 E.31389
G1 X156.934 Y73.307 E.31375
G1 X157.682 Y76.268 E.4308
G1 X157.682 Y154.732 E11.06823
G1 X157.285 Y156.921 E.31382
G1 X156.146 Y158.831 E.3137
G1 X154.408 Y160.22 E.31384
G1 X151.447 Y160.968 E.4308
G1 X79.553 Y160.968 E10.14146
G1 X77.365 Y160.571 E.31368
G1 X75.454 Y159.431 E.31389
G1 X74.066 Y157.693 E.31375
G1 X73.318 Y154.732 E.4308
G1 X73.318 Y76.268 E11.06823
G1 X73.715 Y74.079 E.31382
G1 X74.778 Y72.298 E.29258
G1 E-3.5 F3600
;WIPE_START
G1 F3840
G1 X74.854 Y72.169 E-.13335
G1 X76.053 Y71.211 E-1.36665
;WIPE_END
G1 X151.447 Y85.739 F4800
G1 E5 F2400
;TYPE:Support material
G1 F1800
G1 X146.362 Y85.739 E.7173
G1 X146.362 Y81.843 E.54957
G1 X145.857 Y81.338 E.10074
G1 X85.143 Y81.338 E8.56439
G1 X84.637 Y81.843 E.10084
G1 X84.637 Y85.739 E.54957
G1 X79.553 Y85.739 E.71716
G1 X79.553 Y76.268 E1.33599
G1 X151.447 Y76.268 E10.14146
G1 X151.447 Y85.668 E1.32598
G1 X151.447 Y85.668 F4800
G1 X150.581 Y85.527
G1 F1800
G1 X150.581 Y76.692 E1.24628
G1 X150.057 Y76.692 E.07392
G1 X150.057 Y85.315 E1.21637
G1 X149.534 Y85.315 E.07378
G1 X149.534 Y76.692 E1.21637
G1 X149.01 Y76.692 E.07392
G1 X149.01 Y85.315 E1.21637
G1 X148.487 Y85.315 E.07378
G1 X148.487 Y76.692 E1.21637
G1 X147.963 Y76.692 E.07392
G1 X147.963 Y85.315 E1.21637
G1 X147.439 Y85.315 E.07392
G1 X147.439 Y76.692 E1.21637
G1 X146.916 Y76.692 E.07378
G1 X146.916 Y85.315 E1.21637
G1 X146.787 Y85.315 E.0182
G1 X146.787 Y81.667 E.51459
G1 X146.392 Y81.273 E.0787
G1 X146.392 Y76.692 E.6462
G1 X145.869 Y76.692 E.07378
G1 X145.869 Y80.913 E.59542
G1 X145.345 Y80.913 E.07392
G1 X145.345 Y76.692 E.59542
G1 X144.821 Y76.692 E.07392
G1 X144.821 Y80.913 E.59542
G1 X144.298 Y80.913 E.07378
G1 X144.298 Y76.692 E.59542
G1 X143.774 Y76.692 E.07392
G1 X143.774 Y80.913 E.59542
G1 X143.251 Y80.913 E.07378
G1 X143.251 Y76.692 E.59542
G1 X142.727 Y76.692 E.07392
G1 X142.727 Y80.913 E.59542
G1 X142.203 Y80.913 E.07392
G1 X142.203 Y76.692 E.59542
G1 X141.68 Y76.692 E.07378
G1 X141.68 Y80.913 E.59542
G1 X141.156 Y80.913 E.07392
G1 X141.156 Y76.692 E.59542
G1 X140.633 Y76.692 E.07378
G1 X140.633 Y80.913 E.59542
G1 X140.109 Y80.913 E.07392
G1 X140.109 Y76.692 E.59542
G1 X139.586 Y76.692 E.07378
G1 X139.586 Y80.913 E.59542
G1 X139.062 Y80.913 E.07392
G1 X139.062 Y76.692 E.59542
G1 X138.538 Y76.692 E.07392
G1 X138.538 Y80.913 E.59542
G1 X138.015 Y80.913 E.07378
G1 X138.015 Y76.692 E.59542
G1 X137.491 Y76.692 E.07392
G1 X137.491 Y80.913 E.59542
G1 X136.968 Y80.913 E.07378
G1 X136.968 Y76.692 E.59542
G1 X136.444 Y76.692 E.07392
G1 X136.444 Y80.913 E.59542
G1 X135.92 Y80.913 E.07392
G1 X135.92 Y76.692 E.59542
G1 X135.397 Y76.692 E.07378
G1 X135.397 Y80.913 E.59542
G1 X134.873 Y80.913 E.07392
G1 X134.873 Y76.692 E.59542
G1 X134.35 Y76.692 E.07378
G1 X134.35 Y80.913 E.59542
G1 X133.826 Y80.913 E.07392
G1 X133.826 Y76.692 E.59542
G1 X133.302 Y76.692 E.07392
G1 X133.302 Y80.913 E.59542
G1 X132.779 Y80.913 E.07378
G1 X132.779 Y76.692 E.59542
G1 X132.255 Y76.692 E.07392
G1 X132.255 Y80.913 E.59542
G1 X131.732 Y80.913 E.07378
G1 X131.732 Y76.692 E.59542
G1 X131.208 Y76.692 E.07392
G1 X131.208 Y80.913 E.59542
G1 X130.684 Y80.913 E.07392
G1 X130.684 Y76.692 E.59542
G1 X130.161 Y76.692 E.07378
G1 X130.161 Y80.913 E.59542
G1 X129.637 Y80.913 E.07392
G1 X129.637 Y76.692 E.59542
G1 X129.114 Y76.692 E.07378
G1 X129.114 Y80.913 E.59542
G1 X128.59 Y80.913 E.07392
G1 X128.59 Y76.692 E.59542
G1 X128.066 Y76.692 E.07392
G1 X128.066 Y80.913 E.59542
G1 X127.543 Y80.913 E.07378
G1 X127.543 Y76.692 E.59542
G1 X127.019 Y76.692 E.07392
G1 X127.019 Y80.913 E.59542
G1 X126.496 Y80.913 E.07378
G1 X126.496 Y76.692 E.59542
G1 X125.972 Y76.692 E.07392
G1 X125.972 Y80.913 E.59542
G1 X125.448 Y80.913 E.07392
G1 X125.448 Y76.692 E.59542
G1 X124.925 Y76.692 E.07378
G1 X124.925 Y80.913 E.59542
G1 X124.401 Y80.913 E.07392
G1 X124.401 Y76.692 E.59542
G1 X123.878 Y76.692 E.07378
G1 X123.878 Y80.913 E.59542
G1 X123.354 Y80.913 E.07392
G1 X123.354 Y76.692 E.59542
G1 X122.83 Y76.692 E.07392
G1 X122.83 Y80.913 E.59542
G1 X122.307 Y80.913 E.07378
G1 X122.307 Y76.692 E.59542
G1 X121.783 Y76.692 E.07392
G1 X121.783 Y80.913 E.59542
G1 X121.26 Y80.913 E.07378
G1 X121.26 Y76.692 E.59542
G1 X120.736 Y76.692 E.07392
G1 X120.736 Y80.913 E.59542
G1 X120.212 Y80.913 E.07392
G1 X120.212 Y76.692 E.59542
G1 X119.689 Y76.692 E.07378
G1 X119.689 Y80.913 E.59542
G1 X119.165 Y80.913 E.07392
G1 X119.165 Y76.692 E.59542
G1 X118.642 Y76.692 E.07378
G1 X118.642 Y80.913 E.59542
G1 X118.118 Y80.913 E.07392
G1 X118.118 Y76.692 E.59542
G1 X117.594 Y76.692 E.07392
G1 X117.594 Y80.913 E.59542
G1 X117.071 Y80.913 E.07378
G1 X117.071 Y76.692 E.59542
G1 X116.547 Y76.692 E.07392
G1 X116.547 Y80.913 E.59542
G1 X116.024 Y80.913 E.07378
G1 X116.024 Y76.692 E.59542
G1 X115.5 Y76.692 E.07392
G1 X115.5 Y80.913 E.59542
G1 X114.976 Y80.913 E.07392
G1 X114.976 Y76.692 E.59542
G1 X114.453 Y76.692 E.07378
G1 X114.453 Y80.913 E.59542
G1 X113.929 Y80.913 E.07392
G1 X113.929 Y76.692 E.59542
G1 X113.406 Y76.692 E.07378
G1 X113.406 Y80.913 E.59542
G1 X112.882 Y80.913 E.07392
G1 X112.882 Y76.692 E.59542
G1 X112.358 Y76.692 E.07392
G1 X112.358 Y80.913 E.59542
G1 X111.835 Y80.913 E.07378
G1 X111.835 Y76.692 E.59542
G1 X111.311 Y76.692 E.07392
G1 X111.311 Y80.913 E.59542
G1 X110.788 Y80.913 E.07378
G1 X110.788 Y76.692 E.59542
G1 X110.264 Y76.692 E.07392
G1 X110.264 Y80.913 E.59542
G1 X109.74 Y80.913 E.07392
G1 X109.74 Y76.692 E.59542
G1 X109.217 Y76.692 E.07378
G1 X109.217 Y80.913 E.59542
G1 X108.693 Y80.913 E.07392
G1 X108.693 Y76.692 E.59542
G1 X108.17 Y76.692 E.07378
G1 X108.17 Y80.913 E.59542
G1 X107.646 Y80.913 E.07392
G1 X107.646 Y76.692 E.59542
G1 X107.122 Y76.692 E.07392
G1 X107.122 Y80.913 E.59542
G1 X106.599 Y80.913 E.07378
G1 X106.599 Y76.692 E.59542
G1 X106.075 Y76.692 E.07392
G1 X106.075 Y80.913 E.59542
G1 X105.552 Y80.913 E.07378
G1 X105.552 Y76.692 E.59542
G1 X105.028 Y76.692 E.07392
G1 X105.028 Y80.913 E.59542
G1 X104.504 Y80.913 E.07392
G1 X104.504 Y76.692 E.59542
G1 X103.981 Y76.692 E.07378
G1 X103.981 Y80.913 E.59542
G1 X103.457 Y80.913 E.07392
G1 X103.457 Y76.692 E.59542
G1 X102.934 Y76.692 E.07378
G1 X102.934 Y80.913 E.59542
G1 X102.41 Y80.913 E.07392
G1 X102.41 Y76.692 E.59542
G1 X101.886 Y76.692 E.07392
G1 X101.886 Y80.913 E.59542
G1 X101.363 Y80.913 E.07378
G1 X101.363 Y76.692 E.59542
G1 X100.839 Y76.692 E.07392
G1 X100.839 Y80.913 E.59542
G1 X100.316 Y80.913 E.07378
G1 X100.316 Y76.692 E.59542
G1 X99.792 Y76.692 E.07392
G1 X99.792 Y80.913 E.59542
G1 X99.268 Y80.913 E.07392
G1 X99.268 Y76.692 E.59542
G1 X98.745 Y76.692 E.07378
G1 X98.745 Y80.913 E.59542
G1 X98.221 Y80.913 E.07392
G1 X98.221 Y76.692 E.59542
G1 X97.698 Y76.692 E.07378
G1 X97.698 Y80.913 E.59542
G1 X97.174 Y80.913 E.07392
G1 X97.174 Y76.692 E.59542
G1 X96.65 Y76.692 E.07392
G1 X96.65 Y80.913 E.59542
G1 X96.127 Y80.913 E.07378
G1 X96.127 Y76.692 E.59542
G1 X95.603 Y76.692 E.07392
G1 X95.603 Y80.913 E.59542
G1 X95.08 Y80.913 E.07378
G1 X95.08 Y76.692 E.59542
G1 X94.556 Y76.692 E.07392
G1 X94.556 Y80.913 E.59542
G1 X94.032 Y80.913 E.07392
G1 X94.032 Y76.692 E.59542
G1 X93.509 Y76.692 E.07378
G1 X93.509 Y80.913 E.59542
G1 X92.985 Y80.913 E.07392
G1 X92.985 Y76.692 E.59542
G1 X92.462 Y76.692 E.07378
G1 X92.462 Y80.913 E.59542
G1 X91.938 Y80.913 E.07392
G1 X91.938 Y76.692 E.59542
G1 X91.414 Y76.692 E.07392
G1 X91.414 Y80.913 E.59542
G1 X90.891 Y80.913 E.07378
G1 X90.891 Y76.692 E.59542
G1 X90.367 Y76.692 E.07392
G1 X90.367 Y80.913 E.59542
G1 X89.844 Y80.913 E.07378
G1 X89.844 Y76.692 E.59542
G1 X89.32 Y76.692 E.07392
G1 X89.32 Y80.913 E.59542
G1 X88.797 Y80.913 E.07378
G1 X88.797 Y76.692 E.59542
G1 X88.273 Y76.692 E.07392
G1 X88.273 Y80.913 E.59542
G1 X87.749 Y80.913 E.07392
G1 X87.749 Y76.692 E.59542
G1 X87.226 Y76.692 E.07378
G1 X87.226 Y80.913 E.59542
G1 X86.702 Y80.913 E.07392
G1 X86.702 Y76.692 E.59542
G1 X86.179 Y76.692 E.07378
G1 X86.179 Y80.913 E.59542
G1 X85.655 Y80.913 E.07392
G1 X85.655 Y76.692 E.59542
G1 X85.131 Y76.692 E.07392
G1 X85.131 Y80.913 E.59542
G1 X84.967 Y80.913 E.02313
G1 X84.608 Y81.273 E.07172
G1 X84.608 Y76.692 E.6462
G1 X84.084 Y76.692 E.07392
G1 X84.084 Y85.315 E1.21637
G1 X83.561 Y85.315 E.07378
G1 X83.561 Y76.692 E1.21637
G1 X83.037 Y76.692 E.07392
G1 X83.037 Y85.315 E1.21637
G1 X82.513 Y85.315 E.07392
G1 X82.513 Y76.692 E1.21637
G1 X81.99 Y76.692 E.07378
G1 X81.99 Y85.315 E1.21637
G1 X81.466 Y85.315 E.07392
G1 X81.466 Y76.692 E1.21637
G1 X80.943 Y76.692 E.07378
G1 X80.943 Y85.315 E1.21637
G1 X80.419 Y85.315 E.07392
G1 X80.419 Y76.48 E1.24628
G1 E-3.5 F3600
;WIPE_START
G1 F3840
G1 X80.419 Y78.164 E-1.5
;WIPE_END
G1 X84.637 Y122.786 F4800
G1 E5 F2400
G1 F1800
G1 X85.143 Y123.291 E.10084
G1 X145.857 Y123.291 E8.56439
G1 X146.362 Y122.786 E.10074
G1 X146.362 Y118.978 E.53716
G1 X151.447 Y118.978 E.7173
G1 X151.447 Y154.732 E5.0435
G1 X79.553 Y154.732 E10.14146
G1 X79.553 Y118.978 E5.0435
G1 X84.637 Y118.978 E.71716
G1 X84.637 Y122.715 E.52715
G1 X84.637 Y122.715 F4800
G1 X89.024 Y128.449
G1 F1800
G1 X141.976 Y128.449 E7.46947
G1 X141.976 Y136.427 E1.12539
G1 X145.857 Y136.427 E.54746
G1 X146.362 Y136.933 E.10084
G1 X146.362 Y149.157 E1.72433
G1 X145.857 Y149.663 E.10084
G1 X85.143 Y149.663 E8.56439
G1 X84.637 Y149.157 E.10094
G1 X84.637 Y136.933 E1.72433
G1 X85.143 Y136.427 E.10094
G1 X89.024 Y136.427 E.54746
G1 X89.024 Y128.519 E1.11551
G1 E-3.5 F3600
;WIPE_START
G1 F3840
G1 X89.024 Y130.203 E-1.5
;WIPE_END
G1 X150.581 Y154.52 F4800
G1 E5 F2400
G1 F1800
G1 X150.581 Y119.402 E4.95379
G1 X150.057 Y119.402 E.07392
G1 X150.057 Y154.308 E4.92388
G1 X149.534 Y154.308 E.07378
G1 X149.534 Y119.402 E4.92388
G1 X149.01 Y119.402 E.07392
G1 X149.01 Y154.308 E4.92388
G1 X148.487 Y154.308 E.07378
G1 X148.487 Y119.402 E4.92388
G1 X147.963 Y119.402 E.07392
G1 X147.963 Y154.308 E4.92388
G1 X147.439 Y154.308 E.07392
G1 X147.439 Y119.402 E4.92388
G1 X146.916 Y119.402 E.07378
G1 X146.916 Y154.308 E4.92388
G1 X146.392 Y154.308 E.07392
G1 X146.392 Y149.727 E.6462
G1 X146.033 Y150.087 E.07172
G1 X145.869 Y150.087 E.02313
G1 X145.869 Y154.308 E.59542
G1 X145.345 Y154.308 E.07392
G1 X145.345 Y150.087 E.59542
G1 X144.821 Y150.087 E.07392
G1 X144.821 Y154.308 E.59542
G1 X144.298 Y154.308 E.07378
G1 X144.298 Y150.087 E.59542
G1 X143.774 Y150.087 E.07392
G1 X143.774 Y154.308 E.59542
G1 X143.251 Y154.308 E.07378
G1 X143.251 Y150.087 E.59542
G1 X142.727 Y150.087 E.07392
G1 X142.727 Y154.308 E.59542
G1 X142.203 Y154.308 E.07392
G1 X142.203 Y150.087 E.59542
G1 X141.68 Y150.087 E.07378
G1 X141.68 Y154.308 E.59542
G1 X141.156 Y154.308 E.07392
G1 X141.156 Y150.087 E.59542
G1 X140.633 Y150.087 E.07378
G1 X140.633 Y154.308 E.59542
G1 X140.109 Y154.308 E.07392
G1 X140.109 Y150.087 E.59542
G1 X139.586 Y150.087 E.07378
G1 X139.586 Y154.308 E.59542
G1 X139.062 Y154.308 E.07392
G1 X139.062 Y150.087 E.59542
G1 X138.538 Y150.087 E.07392
G1 X138.538 Y154.308 E.59542
G1 X138.015 Y154.308 E.07378
G1 X138.015 Y150.087 E.59542
G1 X137.491 Y150.087 E.07392
G1 X137.491 Y154.308 E.59542
G1 X136.968 Y154.308 E.07378
G1 X136.968 Y150.087 E.59542
G1 X136.444 Y150.087 E.07392
G1 X136.444 Y154.308 E.59542
G1 X135.92 Y154.308 E.07392
G1 X135.92 Y150.087 E.59542
G1 X135.397 Y150.087 E.07378
G1 X135.397 Y154.308 E.59542
G1 X134.873 Y154.308 E.07392
G1 X134.873 Y150.087 E.59542
G1 X134.35 Y150.087 E.07378
G1 X134.35 Y154.308 E.59542
G1 X133.826 Y154.308 E.07392
G1 X133.826 Y150.087 E.59542
G1 X133.302 Y150.087 E.07392
G1 X133.302 Y154.308 E.59542
G1 X132.779 Y154.308 E.07378
G1 X132.779 Y150.087 E.59542
G1 X132.255 Y150.087 E.07392
G1 X132.255 Y154.308 E.59542
G1 X131.732 Y154.308 E.07378
G1 X131.732 Y150.087 E.59542
G1 X131.208 Y150.087 E.07392
G1 X131.208 Y154.308 E.59542
G1 X130.684 Y154.308 E.07392
G1 X130.684 Y150.087 E.59542
G1 X130.161 Y150.087 E.07378
G1 X130.161 Y154.308 E.59542
G1 X129.637 Y154.308 E.07392
G1 X129.637 Y150.087 E.59542
G1 X129.114 Y150.087 E.07378
G1 X129.114 Y154.308 E.59542
G1 X128.59 Y154.308 E.07392
G1 X128.59 Y150.087 E.59542
G1 X128.066 Y150.087 E.07392
G1 X128.066 Y154.308 E.59542
G1 X127.543 Y154.308 E.07378
G1 X127.543 Y150.087 E.59542
G1 X127.019 Y150.087 E.07392
G1 X127.019 Y154.308 E.59542
G1 X126.496 Y154.308 E.07378
G1 X126.496 Y150.087 E.59542
G1 X125.972 Y150.087 E.07392
G1 X125.972 Y154.308 E.59542
G1 X125.448 Y154.308 E.07392
G1 X125.448 Y150.087 E.59542
G1 X124.925 Y150.087 E.07378
G1 X124.925 Y154.308 E.59542
G1 X124.401 Y154.308 E.07392
G1 X124.401 Y150.087 E.59542
G1 X123.878 Y150.087 E.07378
G1 X123.878 Y154.308 E.59542
G1 X123.354 Y154.308 E.07392
G1 X123.354 Y150.087 E.59542
G1 X122.83 Y150.087 E.07392
G1 X122.83 Y154.308 E.59542
G1 X122.307 Y154.308 E.07378
G1 X122.307 Y150.087 E.59542
G1 X121.783 Y150.087 E.07392
G1 X121.783 Y154.308 E.59542
G1 X121.26 Y154.308 E.07378
G1 X121.26 Y150.087 E.59542
G1 X120.736 Y150.087 E.07392
G1 X120.736 Y154.308 E.59542
G1 X120.212 Y154.308 E.07392
G1 X120.212 Y150.087 E.59542
G1 X119.689 Y150.087 E.07378
G1 X119.689 Y154.308 E.59542
G1 X119.165 Y154.308 E.07392
G1 X119.165 Y150.087 E.59542
G1 X118.642 Y150.087 E.07378
G1 X118.642 Y154.308 E.59542
G1 X118.118 Y154.308 E.07392
G1 X118.118 Y150.087 E.59542
G1 X117.594 Y150.087 E.07392
G1 X117.594 Y154.308 E.59542
G1 X117.071 Y154.308 E.07378
G1 X117.071 Y150.087 E.59542
G1 X116.547 Y150.087 E.07392
G1 X116.547 Y154.308 E.59542
G1 X116.024 Y154.308 E.07378
G1 X116.024 Y150.087 E.59542
G1 X115.5 Y150.087 E.07392
G1 X115.5 Y154.308 E.59542
G1 X114.976 Y154.308 E.07392
G1 X114.976 Y150.087 E.59542
G1 X114.453 Y150.087 E.07378
G1 X114.453 Y154.308 E.59542
G1 X113.929 Y154.308 E.07392
G1 X113.929 Y150.087 E.59542
G1 X113.406 Y150.087 E.07378
G1 X113.406 Y154.308 E.59542
G1 X112.882 Y154.308 E.07392
G1 X112.882 Y150.087 E.59542
G1 X112.358 Y150.087 E.07392
G1 X112.358 Y154.308 E.59542
G1 X111.835 Y154.308 E.07378
G1 X111.835 Y150.087 E.59542
G1 X111.311 Y150.087 E.07392
G1 X111.311 Y154.308 E.59542
G1 X110.788 Y154.308 E.07378
G1 X110.788 Y150.087 E.59542
G1 X110.264 Y150.087 E.07392
G1 X110.264 Y154.308 E.59542
G1 X109.74 Y154.308 E.07392
G1 X109.74 Y150.087 E.59542
G1 X109.217 Y150.087 E.07378
G1 X109.217 Y154.308 E.59542
G1 X108.693 Y154.308 E.07392
G1 X108.693 Y150.087 E.59542
G1 X108.17 Y150.087 E.07378
G1 X108.17 Y154.308 E.59542
G1 X107.646 Y154.308 E.07392
G1 X107.646 Y150.087 E.59542
G1 X107.122 Y150.087 E.07392
G1 X107.122 Y154.308 E.59542
G1 X106.599 Y154.308 E.07378
G1 X106.599 Y150.087 E.59542
G1 X106.075 Y150.087 E.07392
G1 X106.075 Y154.308 E.59542
G1 X105.552 Y154.308 E.07378
